( PCB drills )
( Generated by Rapid-PCB.com )
( Material Size)
( X= 100.000, Y= 70.000, Z= 1.550)
()
G00
G17
G21
G40
G49
G54
G80
G90
G94
G00 F3000 Z3.000
M03 S9000
G00 F3000 X16.277 Y21.740
G00 F1500 Z0
G01 F60 Z-1.800
G00 F3000 Z3.000
G00 F3000 X18.817 Y21.740
G00 F1500 Z0
G01 F60 Z-1.800
G00 F3000 Z3.000
G00 F3000 X31.517 Y21.740
G00 F1500 Z0
G01 F60 Z-1.800
G00 F3000 Z3.000
G00 F3000 X34.057 Y21.740
G00 F1500 Z0
G01 F60 Z-1.800
G00 F3000 Z3.000
G00 F3000 X21.357 Y21.740
G00 F1500 Z0
G01 F60 Z-1.800
G00 F3000 Z3.000
G00 F3000 X26.437 Y21.740
G00 F1500 Z0
G01 F60 Z-1.800
G00 F3000 Z3.000
G00 F3000 X36.597 Y21.740
G00 F1500 Z0
G01 F60 Z-1.800
G00 F3000 Z3.000
G00 F3000 X39.137 Y21.740
G00 F1500 Z0
G01 F60 Z-1.800
G00 F3000 Z3.000
G00 F3000 X39.137 Y14.120
G00 F1500 Z0
G01 F60 Z-1.800
G00 F3000 Z3.000
G00 F3000 X36.597 Y14.120
G00 F1500 Z0
G01 F60 Z-1.800
G00 F3000 Z3.000
G00 F3000 X34.057 Y14.120
G00 F1500 Z0
G01 F60 Z-1.800
G00 F3000 Z3.000
G00 F3000 X31.517 Y14.120
G00 F1500 Z0
G01 F60 Z-1.800
G00 F3000 Z3.000
G00 F3000 X28.977 Y14.120
G00 F1500 Z0
G01 F60 Z-1.800
G00 F3000 Z3.000
G00 F3000 X26.437 Y14.120
G00 F1500 Z0
G01 F60 Z-1.800
G00 F3000 Z3.000
G00 F3000 X23.897 Y14.120
G00 F1500 Z0
G01 F60 Z-1.800
G00 F3000 Z3.000
G00 F3000 X21.357 Y14.120
G00 F1500 Z0
G01 F60 Z-1.800
G00 F3000 Z3.000
G00 F3000 X18.817 Y14.120
G00 F1500 Z0
G01 F60 Z-1.800
G00 F3000 Z3.000
G00 F3000 X16.277 Y14.120
G00 F1500 Z0
G01 F60 Z-1.800
G00 F3000 Z3.000
G00 F3000 X28.977 Y21.740
G00 F1500 Z0
G01 F60 Z-1.800
G00 F3000 Z3.000
G00 F3000 X23.897 Y21.740
G00 F1500 Z0
G01 F60 Z-1.800
G00 F3000 Z3.000
G00 F3000 X50.877 Y24.550
G00 F1500 Z0
G01 F60 Z-1.800
G00 F3000 Z3.000
G00 F3000 X50.877 Y27.090
G00 F1500 Z0
G01 F60 Z-1.800
G00 F3000 Z3.000
G00 F3000 X50.957 Y14.650
G00 F1500 Z0
G01 F60 Z-1.800
G00 F3000 Z3.000
G00 F3000 X50.957 Y17.190
G00 F1500 Z0
G01 F60 Z-1.800
G00 F3000 Z3.000
G00 F3000 X49.577 Y5.210
G00 F1500 Z0
G01 F60 Z-1.800
G00 F3000 Z3.000
G00 F3000 X49.577 Y7.750
G00 F1500 Z0
G01 F60 Z-1.800
G00 F3000 Z3.000
G00 F3000 X29.397 Y6.350
G00 F1500 Z0
G01 F60 Z-1.800
G00 F3000 Z3.000
G00 F3000 X26.857 Y6.350
G00 F1500 Z0
G01 F60 Z-1.800
G00 F3000 Z3.000
G00 F3000 X3.487 Y25.330
G00 F1500 Z0
G01 F60 Z-1.800
G00 F3000 Z3.000
G00 F3000 X6.027 Y25.330
G00 F1500 Z0
G01 F60 Z-1.800
G00 F3000 Z3.000
G00 F3000 X3.487 Y15.940
G00 F1500 Z0
G01 F60 Z-1.800
G00 F3000 Z3.000
G00 F3000 X6.027 Y15.940
G00 F1500 Z0
G01 F60 Z-1.800
G00 F3000 Z3.000
G00 F3000 X3.587 Y6.000
G00 F1500 Z0
G01 F60 Z-1.800
G00 F3000 Z3.000
G00 F3000 X6.127 Y6.000
G00 F1500 Z0
G01 F60 Z-1.800
G00 F3000 Z3.000
G00 F3000 Z3.000
G00 F3000 X0.000 Y0.000
M05
M30
%