( PCB Contour )
( Generated by Rapid-PCB.com )
( Material Size)
( X= 100.000, Y= 70.000, Z= 1.550)
()
G00
G17
G21
G40
G49
G54
G80
G90
G94
G00 F3000 Z3.000
M03 S9000
G00 F3000 X18.882 Y29.927
G00 F1500 Z0
G01 F600 Z-0.110
G01 F600 X18.784 Y29.906
G01 F600 X18.692 Y29.865
G01 F600 X18.613 Y29.808
G01 F600 X13.906 Y25.100
G01 F600 X13.844 Y25.032
G01 F600 X13.794 Y24.945
G01 F600 X13.763 Y24.850
G01 F600 X13.753 Y24.756
G01 F600 X13.753 Y20.145
G01 F600 X13.763 Y20.050
G01 F600 X13.794 Y19.955
G01 F600 X13.844 Y19.868
G01 F600 X13.906 Y19.800
G01 F600 X15.463 Y18.242
G01 F600 X15.542 Y18.185
G01 F600 X15.634 Y18.144
G01 F600 X15.732 Y18.123
G01 F600 X16.607 Y18.123
G01 F600 X16.705 Y18.144
G01 F600 X16.797 Y18.185
G01 F600 X16.876 Y18.242
G01 F600 X18.882 Y20.248
G01 F600 X22.438 Y16.692
G01 F600 X22.517 Y16.635
G01 F600 X22.609 Y16.594
G01 F600 X22.707 Y16.573
G01 F600 X31.857 Y16.573
G01 F600 X33.128 Y15.302
G01 F600 X33.128 Y14.720
G01 F600 X33.138 Y14.625
G01 F600 X33.169 Y14.530
G01 F600 X33.217 Y14.447
G01 F600 X33.293 Y14.345
G01 F600 X33.293 Y13.454
G01 F600 X33.309 Y13.301
G01 F600 X33.358 Y13.149
G01 F600 X33.438 Y13.010
G01 F600 X33.545 Y12.891
G01 F600 X33.675 Y12.797
G01 F600 X33.821 Y12.732
G01 F600 X33.977 Y12.699
G01 F600 X34.137 Y12.699
G01 F600 X34.293 Y12.732
G01 F600 X34.440 Y12.797
G01 F600 X34.569 Y12.891
G01 F600 X34.676 Y13.010
G01 F600 X34.756 Y13.149
G01 F600 X34.805 Y13.301
G01 F600 X34.821 Y13.454
G01 F600 X34.821 Y14.786
G01 F600 X34.805 Y14.939
G01 F600 X34.756 Y15.091
G01 F600 X34.676 Y15.230
G01 F600 X34.569 Y15.349
G01 F600 X34.440 Y15.443
G01 F600 X34.293 Y15.508
G01 F600 X34.137 Y15.541
G01 F600 X34.082 Y15.541
G01 F600 X34.076 Y15.600
G01 F600 X34.045 Y15.695
G01 F600 X33.995 Y15.782
G01 F600 X33.933 Y15.850
G01 F600 X32.376 Y17.408
G01 F600 X32.297 Y17.465
G01 F600 X32.205 Y17.506
G01 F600 X32.107 Y17.527
G01 F600 X22.957 Y17.527
G01 F600 X19.565 Y20.919
G01 F600 X19.565 Y20.921
G01 F600 X19.581 Y21.074
G01 F600 X19.581 Y22.406
G01 F600 X19.565 Y22.559
G01 F600 X19.516 Y22.712
G01 F600 X19.436 Y22.850
G01 F600 X19.329 Y22.969
G01 F600 X19.200 Y23.063
G01 F600 X19.053 Y23.128
G01 F600 X18.897 Y23.161
G01 F600 X18.737 Y23.161
G01 F600 X18.581 Y23.128
G01 F600 X18.434 Y23.063
G01 F600 X18.305 Y22.969
G01 F600 X18.198 Y22.850
G01 F600 X18.118 Y22.712
G01 F600 X18.069 Y22.559
G01 F600 X18.053 Y22.406
G01 F600 X18.053 Y21.074
G01 F600 X18.069 Y20.919
G01 F600 X18.103 Y20.823
G01 F600 X16.357 Y19.077
G01 F600 X15.982 Y19.077
G01 F600 X14.711 Y20.348
G01 F600 X14.711 Y24.552
G01 F600 X19.132 Y28.973
G01 F600 X52.007 Y28.973
G01 F600 X53.278 Y27.702
G01 F600 X53.278 Y26.548
G01 F600 X52.044 Y25.313
G01 F600 X51.907 Y25.374
G01 F600 X51.730 Y25.412
G01 F600 X50.024 Y25.412
G01 F600 X49.847 Y25.374
G01 F600 X49.682 Y25.300
G01 F600 X49.535 Y25.194
G01 F600 X49.414 Y25.059
G01 F600 X49.323 Y24.902
G01 F600 X49.267 Y24.730
G01 F600 X49.248 Y24.550
G01 F600 X49.267 Y24.370
G01 F600 X49.323 Y24.198
G01 F600 X49.414 Y24.041
G01 F600 X49.535 Y23.906
G01 F600 X49.682 Y23.800
G01 F600 X49.847 Y23.726
G01 F600 X50.024 Y23.688
G01 F600 X51.730 Y23.688
G01 F600 X51.907 Y23.726
G01 F600 X52.072 Y23.800
G01 F600 X52.219 Y23.906
G01 F600 X52.340 Y24.041
G01 F600 X52.431 Y24.198
G01 F600 X52.486 Y24.369
G01 F600 X52.492 Y24.418
G01 F600 X52.526 Y24.442
G01 F600 X54.083 Y26.000
G01 F600 X54.145 Y26.068
G01 F600 X54.195 Y26.155
G01 F600 X54.226 Y26.250
G01 F600 X54.236 Y26.345
G01 F600 X54.236 Y27.905
G01 F600 X54.226 Y28.000
G01 F600 X54.195 Y28.095
G01 F600 X54.145 Y28.182
G01 F600 X54.083 Y28.250
G01 F600 X52.526 Y29.808
G01 F600 X52.447 Y29.865
G01 F600 X52.355 Y29.906
G01 F600 X52.257 Y29.927
G01 F600 X18.882 Y29.927
G00 F3000 Z3.000
G00 F3000 X21.157 Y28.377
G00 F1500 Z0
G01 F600 Z-0.110
G01 F600 X21.059 Y28.356
G01 F600 X20.967 Y28.315
G01 F600 X20.888 Y28.258
G01 F600 X16.231 Y23.600
G01 F600 X16.169 Y23.532
G01 F600 X16.119 Y23.445
G01 F600 X16.088 Y23.350
G01 F600 X16.078 Y23.256
G01 F600 X16.078 Y23.136
G01 F600 X16.041 Y23.128
G01 F600 X15.895 Y23.063
G01 F600 X15.765 Y22.969
G01 F600 X15.658 Y22.850
G01 F600 X15.578 Y22.712
G01 F600 X15.529 Y22.559
G01 F600 X15.513 Y22.406
G01 F600 X15.513 Y21.074
G01 F600 X15.529 Y20.921
G01 F600 X15.578 Y20.768
G01 F600 X15.658 Y20.630
G01 F600 X15.765 Y20.511
G01 F600 X15.895 Y20.417
G01 F600 X16.041 Y20.352
G01 F600 X16.197 Y20.319
G01 F600 X16.357 Y20.319
G01 F600 X16.513 Y20.352
G01 F600 X16.660 Y20.417
G01 F600 X16.789 Y20.511
G01 F600 X16.896 Y20.630
G01 F600 X16.976 Y20.768
G01 F600 X17.025 Y20.921
G01 F600 X17.041 Y21.074
G01 F600 X17.041 Y22.404
G01 F600 X17.036 Y22.478
G01 F600 X17.036 Y23.052
G01 F600 X21.407 Y27.423
G01 F600 X49.317 Y27.423
G01 F600 X49.267 Y27.270
G01 F600 X49.248 Y27.090
G01 F600 X49.267 Y26.910
G01 F600 X49.323 Y26.738
G01 F600 X49.414 Y26.581
G01 F600 X49.535 Y26.446
G01 F600 X49.682 Y26.340
G01 F600 X49.847 Y26.266
G01 F600 X50.024 Y26.228
G01 F600 X51.730 Y26.228
G01 F600 X51.907 Y26.266
G01 F600 X52.072 Y26.340
G01 F600 X52.219 Y26.446
G01 F600 X52.340 Y26.581
G01 F600 X52.431 Y26.738
G01 F600 X52.487 Y26.910
G01 F600 X52.506 Y27.090
G01 F600 X52.487 Y27.270
G01 F600 X52.431 Y27.443
G01 F600 X52.340 Y27.599
G01 F600 X52.219 Y27.734
G01 F600 X52.072 Y27.841
G01 F600 X51.907 Y27.914
G01 F600 X51.730 Y27.952
G01 F600 X50.507 Y27.952
G01 F600 X50.201 Y28.258
G01 F600 X50.122 Y28.315
G01 F600 X50.030 Y28.356
G01 F600 X49.932 Y28.377
G01 F600 X21.157 Y28.377
G00 F3000 Z3.000
G00 F3000 X5.936 Y26.954
G00 F1500 Z0
G01 F600 Z-0.110
G01 F600 X5.759 Y26.916
G01 F600 X5.594 Y26.843
G01 F600 X5.447 Y26.736
G01 F600 X5.326 Y26.601
G01 F600 X5.235 Y26.445
G01 F600 X5.179 Y26.272
G01 F600 X5.161 Y26.098
G01 F600 X5.161 Y24.563
G01 F600 X5.179 Y24.388
G01 F600 X5.228 Y24.240
G01 F600 X5.227 Y17.028
G01 F600 X5.179 Y16.882
G01 F600 X5.161 Y16.707
G01 F600 X5.161 Y15.173
G01 F600 X5.179 Y14.998
G01 F600 X5.228 Y14.850
G01 F600 X5.228 Y6.195
G01 F600 X5.238 Y6.100
G01 F600 X5.261 Y6.030
G01 F600 X5.261 Y5.232
G01 F600 X5.279 Y5.058
G01 F600 X5.335 Y4.886
G01 F600 X5.426 Y4.729
G01 F600 X5.547 Y4.594
G01 F600 X5.694 Y4.487
G01 F600 X5.859 Y4.414
G01 F600 X6.036 Y4.376
G01 F600 X6.218 Y4.376
G01 F600 X6.395 Y4.414
G01 F600 X6.560 Y4.487
G01 F600 X6.707 Y4.594
G01 F600 X6.828 Y4.729
G01 F600 X6.919 Y4.886
G01 F600 X6.975 Y5.058
G01 F600 X6.993 Y5.232
G01 F600 X6.993 Y6.768
G01 F600 X6.975 Y6.942
G01 F600 X6.919 Y7.115
G01 F600 X6.828 Y7.271
G01 F600 X6.707 Y7.406
G01 F600 X6.560 Y7.513
G01 F600 X6.395 Y7.586
G01 F600 X6.218 Y7.624
G01 F600 X6.186 Y7.624
G01 F600 X6.210 Y14.336
G01 F600 X6.295 Y14.354
G01 F600 X6.460 Y14.428
G01 F600 X6.607 Y14.534
G01 F600 X6.728 Y14.669
G01 F600 X6.819 Y14.825
G01 F600 X6.875 Y14.998
G01 F600 X6.893 Y15.173
G01 F600 X6.893 Y16.707
G01 F600 X6.875 Y16.882
G01 F600 X6.819 Y17.055
G01 F600 X6.728 Y17.211
G01 F600 X6.607 Y17.346
G01 F600 X6.460 Y17.453
G01 F600 X6.293 Y17.527
G01 F600 X6.186 Y17.546
G01 F600 X6.210 Y23.726
G01 F600 X6.295 Y23.744
G01 F600 X6.460 Y23.818
G01 F600 X6.607 Y23.924
G01 F600 X6.728 Y24.059
G01 F600 X6.819 Y24.216
G01 F600 X6.875 Y24.388
G01 F600 X6.893 Y24.563
G01 F600 X6.893 Y26.098
G01 F600 X6.875 Y26.272
G01 F600 X6.819 Y26.445
G01 F600 X6.728 Y26.601
G01 F600 X6.607 Y26.736
G01 F600 X6.460 Y26.843
G01 F600 X6.295 Y26.916
G01 F600 X6.118 Y26.954
G01 F600 X5.936 Y26.954
G00 F3000 Z3.000
G00 F3000 X3.396 Y26.954
G00 F1500 Z0
G01 F600 Z-0.110
G01 F600 X3.219 Y26.916
G01 F600 X3.054 Y26.843
G01 F600 X2.907 Y26.736
G01 F600 X2.786 Y26.601
G01 F600 X2.695 Y26.445
G01 F600 X2.639 Y26.272
G01 F600 X2.621 Y26.098
G01 F600 X2.621 Y24.563
G01 F600 X2.639 Y24.388
G01 F600 X2.695 Y24.216
G01 F600 X2.786 Y24.059
G01 F600 X2.903 Y23.929
G01 F600 X2.903 Y17.341
G01 F600 X2.786 Y17.211
G01 F600 X2.695 Y17.055
G01 F600 X2.639 Y16.882
G01 F600 X2.621 Y16.707
G01 F600 X2.621 Y15.173
G01 F600 X2.639 Y14.998
G01 F600 X2.695 Y14.825
G01 F600 X2.786 Y14.669
G01 F600 X2.903 Y14.539
G01 F600 X2.903 Y7.290
G01 F600 X2.886 Y7.271
G01 F600 X2.795 Y7.115
G01 F600 X2.739 Y6.942
G01 F600 X2.721 Y6.768
G01 F600 X2.721 Y5.232
G01 F600 X2.739 Y5.058
G01 F600 X2.795 Y4.886
G01 F600 X2.886 Y4.729
G01 F600 X3.007 Y4.594
G01 F600 X3.154 Y4.487
G01 F600 X3.319 Y4.414
G01 F600 X3.496 Y4.376
G01 F600 X3.678 Y4.376
G01 F600 X3.855 Y4.414
G01 F600 X4.020 Y4.487
G01 F600 X4.167 Y4.594
G01 F600 X4.288 Y4.729
G01 F600 X4.379 Y4.886
G01 F600 X4.435 Y5.058
G01 F600 X4.453 Y5.232
G01 F600 X4.453 Y6.768
G01 F600 X4.435 Y6.942
G01 F600 X4.379 Y7.115
G01 F600 X4.288 Y7.271
G01 F600 X4.167 Y7.406
G01 F600 X4.020 Y7.513
G01 F600 X3.861 Y7.583
G01 F600 X3.861 Y14.401
G01 F600 X3.920 Y14.428
G01 F600 X4.067 Y14.534
G01 F600 X4.188 Y14.669
G01 F600 X4.279 Y14.825
G01 F600 X4.335 Y14.998
G01 F600 X4.353 Y15.173
G01 F600 X4.353 Y16.707
G01 F600 X4.335 Y16.882
G01 F600 X4.279 Y17.055
G01 F600 X4.188 Y17.211
G01 F600 X4.067 Y17.346
G01 F600 X3.920 Y17.453
G01 F600 X3.861 Y17.479
G01 F600 X3.861 Y23.791
G01 F600 X3.920 Y23.818
G01 F600 X4.067 Y23.924
G01 F600 X4.188 Y24.059
G01 F600 X4.279 Y24.216
G01 F600 X4.335 Y24.388
G01 F600 X4.353 Y24.563
G01 F600 X4.353 Y26.098
G01 F600 X4.335 Y26.272
G01 F600 X4.279 Y26.445
G01 F600 X4.188 Y26.601
G01 F600 X4.067 Y26.736
G01 F600 X3.920 Y26.843
G01 F600 X3.755 Y26.916
G01 F600 X3.578 Y26.954
G01 F600 X3.396 Y26.954
G00 F3000 Z3.000
G00 F3000 X25.032 Y26.827
G00 F1500 Z0
G01 F600 Z-0.110
G01 F600 X24.934 Y26.806
G01 F600 X24.842 Y26.765
G01 F600 X24.763 Y26.708
G01 F600 X21.656 Y23.600
G01 F600 X21.594 Y23.532
G01 F600 X21.544 Y23.445
G01 F600 X21.513 Y23.350
G01 F600 X21.503 Y23.256
G01 F600 X21.503 Y23.147
G01 F600 X21.437 Y23.161
G01 F600 X21.277 Y23.161
G01 F600 X21.121 Y23.128
G01 F600 X20.975 Y23.063
G01 F600 X20.845 Y22.969
G01 F600 X20.738 Y22.850
G01 F600 X20.658 Y22.712
G01 F600 X20.609 Y22.559
G01 F600 X20.593 Y22.406
G01 F600 X20.593 Y21.074
G01 F600 X20.609 Y20.921
G01 F600 X20.658 Y20.768
G01 F600 X20.738 Y20.630
G01 F600 X20.845 Y20.511
G01 F600 X20.975 Y20.417
G01 F600 X21.121 Y20.352
G01 F600 X21.277 Y20.319
G01 F600 X21.437 Y20.319
G01 F600 X21.593 Y20.352
G01 F600 X21.739 Y20.417
G01 F600 X21.869 Y20.511
G01 F600 X21.976 Y20.630
G01 F600 X22.056 Y20.768
G01 F600 X22.105 Y20.921
G01 F600 X22.121 Y21.074
G01 F600 X22.121 Y21.901
G01 F600 X22.371 Y22.194
G01 F600 X22.420 Y22.280
G01 F600 X22.451 Y22.375
G01 F600 X22.461 Y22.470
G01 F600 X22.461 Y23.052
G01 F600 X25.282 Y25.873
G01 F600 X41.932 Y25.873
G01 F600 X49.833 Y17.972
G01 F600 X49.762 Y17.941
G01 F600 X49.615 Y17.834
G01 F600 X49.494 Y17.699
G01 F600 X49.403 Y17.543
G01 F600 X49.347 Y17.370
G01 F600 X49.328 Y17.190
G01 F600 X49.347 Y17.010
G01 F600 X49.403 Y16.838
G01 F600 X49.494 Y16.681
G01 F600 X49.615 Y16.546
G01 F600 X49.762 Y16.440
G01 F600 X49.927 Y16.366
G01 F600 X50.104 Y16.328
G01 F600 X51.810 Y16.328
G01 F600 X51.987 Y16.366
G01 F600 X52.152 Y16.440
G01 F600 X52.299 Y16.546
G01 F600 X52.420 Y16.681
G01 F600 X52.511 Y16.838
G01 F600 X52.567 Y17.010
G01 F600 X52.586 Y17.190
G01 F600 X52.567 Y17.370
G01 F600 X52.511 Y17.543
G01 F600 X52.420 Y17.699
G01 F600 X52.299 Y17.834
G01 F600 X52.152 Y17.941
G01 F600 X51.987 Y18.014
G01 F600 X51.810 Y18.052
G01 F600 X51.077 Y18.052
G01 F600 X51.045 Y18.107
G01 F600 X50.983 Y18.175
G01 F600 X42.451 Y26.708
G01 F600 X42.372 Y26.765
G01 F600 X42.280 Y26.806
G01 F600 X42.182 Y26.827
G01 F600 X25.032 Y26.827
G00 F3000 Z3.000
G00 F3000 X25.807 Y25.277
G00 F1500 Z0
G01 F600 Z-0.110
G01 F600 X25.709 Y25.256
G01 F600 X25.617 Y25.215
G01 F600 X25.538 Y25.158
G01 F600 X23.981 Y23.600
G01 F600 X23.919 Y23.532
G01 F600 X23.869 Y23.445
G01 F600 X23.838 Y23.350
G01 F600 X23.828 Y23.256
G01 F600 X23.828 Y23.161
G01 F600 X23.817 Y23.161
G01 F600 X23.661 Y23.128
G01 F600 X23.515 Y23.063
G01 F600 X23.385 Y22.969
G01 F600 X23.278 Y22.850
G01 F600 X23.198 Y22.712
G01 F600 X23.149 Y22.559
G01 F600 X23.133 Y22.406
G01 F600 X23.133 Y21.074
G01 F600 X23.149 Y20.921
G01 F600 X23.198 Y20.768
G01 F600 X23.278 Y20.630
G01 F600 X23.385 Y20.511
G01 F600 X23.515 Y20.417
G01 F600 X23.661 Y20.352
G01 F600 X23.817 Y20.319
G01 F600 X23.977 Y20.319
G01 F600 X24.133 Y20.352
G01 F600 X24.280 Y20.417
G01 F600 X24.409 Y20.511
G01 F600 X24.516 Y20.630
G01 F600 X24.596 Y20.768
G01 F600 X24.645 Y20.921
G01 F600 X24.661 Y21.074
G01 F600 X24.661 Y22.130
G01 F600 X24.745 Y22.281
G01 F600 X24.776 Y22.375
G01 F600 X24.786 Y22.470
G01 F600 X24.786 Y23.052
G01 F600 X26.057 Y24.323
G01 F600 X39.607 Y24.323
G01 F600 X49.334 Y14.596
G01 F600 X49.347 Y14.470
G01 F600 X49.403 Y14.298
G01 F600 X49.494 Y14.141
G01 F600 X49.615 Y14.006
G01 F600 X49.762 Y13.900
G01 F600 X49.927 Y13.826
G01 F600 X50.104 Y13.788
G01 F600 X50.142 Y13.788
G01 F600 X50.338 Y13.592
G01 F600 X50.417 Y13.535
G01 F600 X50.509 Y13.494
G01 F600 X50.607 Y13.473
G01 F600 X50.707 Y13.473
G01 F600 X50.805 Y13.494
G01 F600 X50.897 Y13.535
G01 F600 X50.978 Y13.594
G01 F600 X51.045 Y13.668
G01 F600 X51.047 Y13.665
G01 F600 X51.106 Y13.600
G01 F600 X52.503 Y12.202
G01 F600 X52.503 Y4.848
G01 F600 X50.457 Y2.802
G01 F600 X42.332 Y2.802
G01 F600 X32.536 Y12.598
G01 F600 X32.536 Y13.956
G01 F600 X32.526 Y14.050
G01 F600 X32.495 Y14.145
G01 F600 X32.445 Y14.232
G01 F600 X32.378 Y14.306
G01 F600 X32.297 Y14.365
G01 F600 X32.281 Y14.372
G01 F600 X32.281 Y14.786
G01 F600 X32.265 Y14.939
G01 F600 X32.216 Y15.091
G01 F600 X32.136 Y15.230
G01 F600 X32.029 Y15.349
G01 F600 X31.900 Y15.443
G01 F600 X31.753 Y15.508
G01 F600 X31.597 Y15.541
G01 F600 X31.437 Y15.541
G01 F600 X31.281 Y15.508
G01 F600 X31.135 Y15.443
G01 F600 X31.005 Y15.349
G01 F600 X30.898 Y15.230
G01 F600 X30.818 Y15.091
G01 F600 X30.769 Y14.939
G01 F600 X30.753 Y14.786
G01 F600 X30.753 Y13.454
G01 F600 X30.769 Y13.301
G01 F600 X30.818 Y13.149
G01 F600 X30.898 Y13.010
G01 F600 X31.005 Y12.891
G01 F600 X31.135 Y12.797
G01 F600 X31.281 Y12.732
G01 F600 X31.437 Y12.699
G01 F600 X31.578 Y12.699
G01 F600 X31.578 Y12.395
G01 F600 X31.588 Y12.300
G01 F600 X31.619 Y12.205
G01 F600 X31.669 Y12.118
G01 F600 X31.731 Y12.050
G01 F600 X41.813 Y1.967
G01 F600 X41.892 Y1.910
G01 F600 X41.984 Y1.869
G01 F600 X42.082 Y1.848
G01 F600 X50.707 Y1.848
G01 F600 X50.805 Y1.869
G01 F600 X50.897 Y1.910
G01 F600 X50.976 Y1.967
G01 F600 X53.308 Y4.300
G01 F600 X53.370 Y4.368
G01 F600 X53.420 Y4.455
G01 F600 X53.451 Y4.550
G01 F600 X53.461 Y4.644
G01 F600 X53.461 Y12.405
G01 F600 X53.451 Y12.500
G01 F600 X53.420 Y12.595
G01 F600 X53.370 Y12.682
G01 F600 X53.308 Y12.750
G01 F600 X52.156 Y13.902
G01 F600 X52.299 Y14.006
G01 F600 X52.420 Y14.141
G01 F600 X52.511 Y14.298
G01 F600 X52.567 Y14.470
G01 F600 X52.586 Y14.650
G01 F600 X52.567 Y14.830
G01 F600 X52.511 Y15.003
G01 F600 X52.420 Y15.159
G01 F600 X52.299 Y15.294
G01 F600 X52.152 Y15.401
G01 F600 X51.987 Y15.474
G01 F600 X51.810 Y15.512
G01 F600 X50.104 Y15.512
G01 F600 X49.927 Y15.474
G01 F600 X49.846 Y15.438
G01 F600 X40.126 Y25.158
G01 F600 X40.047 Y25.215
G01 F600 X39.955 Y25.256
G01 F600 X39.857 Y25.277
G01 F600 X25.807 Y25.277
G00 F3000 Z3.000
G00 F3000 X39.057 Y23.161
G00 F1500 Z0
G01 F600 Z-0.110
G01 F600 X38.901 Y23.128
G01 F600 X38.755 Y23.063
G01 F600 X38.625 Y22.969
G01 F600 X38.518 Y22.850
G01 F600 X38.438 Y22.712
G01 F600 X38.389 Y22.559
G01 F600 X38.373 Y22.406
G01 F600 X38.373 Y21.074
G01 F600 X38.389 Y20.921
G01 F600 X38.438 Y20.768
G01 F600 X38.518 Y20.630
G01 F600 X38.625 Y20.511
G01 F600 X38.755 Y20.417
G01 F600 X38.901 Y20.352
G01 F600 X39.057 Y20.319
G01 F600 X39.217 Y20.319
G01 F600 X39.373 Y20.352
G01 F600 X39.520 Y20.417
G01 F600 X39.649 Y20.511
G01 F600 X39.756 Y20.630
G01 F600 X39.836 Y20.768
G01 F600 X39.885 Y20.921
G01 F600 X39.901 Y21.074
G01 F600 X39.901 Y22.406
G01 F600 X39.885 Y22.559
G01 F600 X39.836 Y22.712
G01 F600 X39.756 Y22.850
G01 F600 X39.649 Y22.969
G01 F600 X39.520 Y23.063
G01 F600 X39.373 Y23.128
G01 F600 X39.217 Y23.161
G01 F600 X39.057 Y23.161
G00 F3000 Z3.000
G00 F3000 X36.517 Y23.161
G00 F1500 Z0
G01 F600 Z-0.110
G01 F600 X36.361 Y23.128
G01 F600 X36.215 Y23.063
G01 F600 X36.085 Y22.969
G01 F600 X35.978 Y22.850
G01 F600 X35.898 Y22.712
G01 F600 X35.849 Y22.559
G01 F600 X35.833 Y22.406
G01 F600 X35.833 Y21.074
G01 F600 X35.849 Y20.921
G01 F600 X35.898 Y20.768
G01 F600 X35.978 Y20.630
G01 F600 X36.085 Y20.511
G01 F600 X36.215 Y20.417
G01 F600 X36.361 Y20.352
G01 F600 X36.517 Y20.319
G01 F600 X36.677 Y20.319
G01 F600 X36.833 Y20.352
G01 F600 X36.980 Y20.417
G01 F600 X37.109 Y20.511
G01 F600 X37.216 Y20.630
G01 F600 X37.296 Y20.768
G01 F600 X37.345 Y20.921
G01 F600 X37.361 Y21.074
G01 F600 X37.361 Y22.406
G01 F600 X37.345 Y22.559
G01 F600 X37.296 Y22.712
G01 F600 X37.216 Y22.850
G01 F600 X37.109 Y22.969
G01 F600 X36.980 Y23.063
G01 F600 X36.833 Y23.128
G01 F600 X36.677 Y23.161
G01 F600 X36.517 Y23.161
G00 F3000 Z3.000
G00 F3000 X26.357 Y23.161
G00 F1500 Z0
G01 F600 Z-0.110
G01 F600 X26.201 Y23.128
G01 F600 X26.055 Y23.063
G01 F600 X25.925 Y22.969
G01 F600 X25.818 Y22.850
G01 F600 X25.738 Y22.712
G01 F600 X25.689 Y22.559
G01 F600 X25.673 Y22.406
G01 F600 X25.673 Y21.074
G01 F600 X25.689 Y20.921
G01 F600 X25.738 Y20.768
G01 F600 X25.818 Y20.630
G01 F600 X25.925 Y20.511
G01 F600 X26.056 Y20.416
G01 F600 X26.153 Y20.377
G01 F600 X26.153 Y20.145
G01 F600 X26.163 Y20.050
G01 F600 X26.194 Y19.955
G01 F600 X26.244 Y19.868
G01 F600 X26.306 Y19.800
G01 F600 X27.863 Y18.242
G01 F600 X27.942 Y18.185
G01 F600 X28.034 Y18.144
G01 F600 X28.132 Y18.123
G01 F600 X33.407 Y18.123
G01 F600 X34.838 Y16.692
G01 F600 X34.917 Y16.635
G01 F600 X35.009 Y16.594
G01 F600 X35.107 Y16.573
G01 F600 X39.607 Y16.573
G01 F600 X46.303 Y9.877
G01 F600 X46.303 Y6.970
G01 F600 X46.313 Y6.875
G01 F600 X46.344 Y6.780
G01 F600 X46.394 Y6.693
G01 F600 X46.456 Y6.625
G01 F600 X47.958 Y5.123
G01 F600 X47.967 Y5.030
G01 F600 X48.023 Y4.857
G01 F600 X48.114 Y4.701
G01 F600 X48.235 Y4.566
G01 F600 X48.382 Y4.460
G01 F600 X48.547 Y4.386
G01 F600 X48.724 Y4.348
G01 F600 X48.732 Y4.348
G01 F600 X48.788 Y4.292
G01 F600 X48.867 Y4.235
G01 F600 X48.959 Y4.194
G01 F600 X49.057 Y4.173
G01 F600 X49.157 Y4.173
G01 F600 X49.255 Y4.194
G01 F600 X49.347 Y4.235
G01 F600 X49.428 Y4.294
G01 F600 X49.477 Y4.348
G01 F600 X50.430 Y4.348
G01 F600 X50.607 Y4.386
G01 F600 X50.772 Y4.460
G01 F600 X50.919 Y4.566
G01 F600 X51.040 Y4.701
G01 F600 X51.131 Y4.857
G01 F600 X51.187 Y5.030
G01 F600 X51.206 Y5.210
G01 F600 X51.187 Y5.390
G01 F600 X51.131 Y5.563
G01 F600 X51.040 Y5.719
G01 F600 X50.919 Y5.854
G01 F600 X50.772 Y5.961
G01 F600 X50.607 Y6.034
G01 F600 X50.430 Y6.072
G01 F600 X48.724 Y6.072
G01 F600 X48.546 Y6.034
G01 F600 X48.446 Y5.988
G01 F600 X47.261 Y7.173
G01 F600 X47.261 Y10.081
G01 F600 X47.251 Y10.175
G01 F600 X47.220 Y10.270
G01 F600 X47.170 Y10.357
G01 F600 X47.108 Y10.425
G01 F600 X40.126 Y17.408
G01 F600 X40.047 Y17.465
G01 F600 X39.955 Y17.506
G01 F600 X39.857 Y17.527
G01 F600 X35.357 Y17.527
G01 F600 X33.926 Y18.958
G01 F600 X33.847 Y19.015
G01 F600 X33.755 Y19.056
G01 F600 X33.657 Y19.077
G01 F600 X28.382 Y19.077
G01 F600 X27.111 Y20.348
G01 F600 X27.111 Y20.725
G01 F600 X27.136 Y20.768
G01 F600 X27.185 Y20.921
G01 F600 X27.201 Y21.074
G01 F600 X27.201 Y22.406
G01 F600 X27.185 Y22.559
G01 F600 X27.136 Y22.712
G01 F600 X27.056 Y22.850
G01 F600 X26.949 Y22.969
G01 F600 X26.820 Y23.063
G01 F600 X26.673 Y23.128
G01 F600 X26.517 Y23.161
G01 F600 X26.357 Y23.161
G00 F3000 Z3.000
G00 F3000 X28.897 Y23.161
G00 F1500 Z0
G01 F600 Z-0.110
G01 F600 X28.741 Y23.128
G01 F600 X28.595 Y23.063
G01 F600 X28.465 Y22.969
G01 F600 X28.358 Y22.850
G01 F600 X28.278 Y22.712
G01 F600 X28.229 Y22.559
G01 F600 X28.213 Y22.406
G01 F600 X28.213 Y21.074
G01 F600 X28.229 Y20.921
G01 F600 X28.278 Y20.768
G01 F600 X28.358 Y20.630
G01 F600 X28.465 Y20.511
G01 F600 X28.595 Y20.417
G01 F600 X28.741 Y20.352
G01 F600 X28.897 Y20.319
G01 F600 X29.057 Y20.319
G01 F600 X29.213 Y20.352
G01 F600 X29.360 Y20.417
G01 F600 X29.489 Y20.511
G01 F600 X29.596 Y20.630
G01 F600 X29.676 Y20.768
G01 F600 X29.725 Y20.921
G01 F600 X29.741 Y21.074
G01 F600 X29.741 Y21.223
G01 F600 X30.753 Y21.223
G01 F600 X30.753 Y21.074
G01 F600 X30.769 Y20.921
G01 F600 X30.818 Y20.768
G01 F600 X30.898 Y20.630
G01 F600 X31.005 Y20.511
G01 F600 X31.135 Y20.417
G01 F600 X31.281 Y20.352
G01 F600 X31.437 Y20.319
G01 F600 X31.597 Y20.319
G01 F600 X31.753 Y20.352
G01 F600 X31.900 Y20.417
G01 F600 X32.029 Y20.511
G01 F600 X32.136 Y20.630
G01 F600 X32.216 Y20.768
G01 F600 X32.265 Y20.921
G01 F600 X32.281 Y21.074
G01 F600 X32.281 Y21.223
G01 F600 X32.632 Y21.223
G01 F600 X35.613 Y18.242
G01 F600 X35.692 Y18.185
G01 F600 X35.784 Y18.144
G01 F600 X35.882 Y18.123
G01 F600 X40.382 Y18.123
G01 F600 X48.628 Y9.877
G01 F600 X48.628 Y8.591
G01 F600 X48.547 Y8.574
G01 F600 X48.382 Y8.501
G01 F600 X48.235 Y8.394
G01 F600 X48.114 Y8.259
G01 F600 X48.023 Y8.103
G01 F600 X47.967 Y7.930
G01 F600 X47.948 Y7.750
G01 F600 X47.967 Y7.570
G01 F600 X48.023 Y7.397
G01 F600 X48.114 Y7.241
G01 F600 X48.235 Y7.106
G01 F600 X48.382 Y7.000
G01 F600 X48.547 Y6.926
G01 F600 X48.724 Y6.888
G01 F600 X50.430 Y6.888
G01 F600 X50.607 Y6.926
G01 F600 X50.772 Y7.000
G01 F600 X50.919 Y7.106
G01 F600 X51.040 Y7.241
G01 F600 X51.131 Y7.397
G01 F600 X51.187 Y7.570
G01 F600 X51.206 Y7.750
G01 F600 X51.187 Y7.930
G01 F600 X51.131 Y8.103
G01 F600 X51.040 Y8.259
G01 F600 X50.919 Y8.394
G01 F600 X50.772 Y8.501
G01 F600 X50.607 Y8.574
G01 F600 X50.430 Y8.612
G01 F600 X49.586 Y8.612
G01 F600 X49.586 Y10.081
G01 F600 X49.576 Y10.175
G01 F600 X49.545 Y10.270
G01 F600 X49.495 Y10.357
G01 F600 X49.433 Y10.425
G01 F600 X40.901 Y18.958
G01 F600 X40.822 Y19.015
G01 F600 X40.730 Y19.056
G01 F600 X40.632 Y19.077
G01 F600 X36.132 Y19.077
G01 F600 X34.642 Y20.592
G01 F600 X34.676 Y20.630
G01 F600 X34.756 Y20.768
G01 F600 X34.805 Y20.921
G01 F600 X34.821 Y21.074
G01 F600 X34.821 Y22.406
G01 F600 X34.805 Y22.559
G01 F600 X34.756 Y22.712
G01 F600 X34.676 Y22.850
G01 F600 X34.569 Y22.969
G01 F600 X34.440 Y23.063
G01 F600 X34.293 Y23.128
G01 F600 X34.137 Y23.161
G01 F600 X33.977 Y23.161
G01 F600 X33.821 Y23.128
G01 F600 X33.675 Y23.063
G01 F600 X33.545 Y22.969
G01 F600 X33.438 Y22.850
G01 F600 X33.358 Y22.712
G01 F600 X33.309 Y22.559
G01 F600 X33.293 Y22.406
G01 F600 X33.293 Y22.177
G01 F600 X32.281 Y22.177
G01 F600 X32.281 Y22.406
G01 F600 X32.265 Y22.559
G01 F600 X32.216 Y22.712
G01 F600 X32.136 Y22.850
G01 F600 X32.029 Y22.969
G01 F600 X31.900 Y23.063
G01 F600 X31.753 Y23.128
G01 F600 X31.597 Y23.161
G01 F600 X31.437 Y23.161
G01 F600 X31.281 Y23.128
G01 F600 X31.135 Y23.063
G01 F600 X31.005 Y22.969
G01 F600 X30.898 Y22.850
G01 F600 X30.818 Y22.712
G01 F600 X30.769 Y22.559
G01 F600 X30.753 Y22.406
G01 F600 X30.753 Y22.177
G01 F600 X29.741 Y22.177
G01 F600 X29.741 Y22.406
G01 F600 X29.725 Y22.559
G01 F600 X29.676 Y22.712
G01 F600 X29.596 Y22.850
G01 F600 X29.489 Y22.969
G01 F600 X29.360 Y23.063
G01 F600 X29.213 Y23.128
G01 F600 X29.057 Y23.161
G01 F600 X28.897 Y23.161
G00 F3000 Z3.000
G00 F3000 X28.897 Y15.541
G00 F1500 Z0
G01 F600 Z-0.110
G01 F600 X28.741 Y15.508
G01 F600 X28.595 Y15.443
G01 F600 X28.465 Y15.349
G01 F600 X28.358 Y15.230
G01 F600 X28.278 Y15.091
G01 F600 X28.229 Y14.939
G01 F600 X28.213 Y14.786
G01 F600 X28.213 Y13.454
G01 F600 X28.229 Y13.301
G01 F600 X28.278 Y13.149
G01 F600 X28.358 Y13.010
G01 F600 X28.465 Y12.891
G01 F600 X28.478 Y12.882
G01 F600 X28.478 Y6.970
G01 F600 X28.488 Y6.875
G01 F600 X28.519 Y6.780
G01 F600 X28.531 Y6.759
G01 F600 X28.531 Y5.583
G01 F600 X28.549 Y5.408
G01 F600 X28.605 Y5.236
G01 F600 X28.696 Y5.079
G01 F600 X28.817 Y4.944
G01 F600 X28.964 Y4.838
G01 F600 X29.129 Y4.764
G01 F600 X29.306 Y4.726
G01 F600 X29.488 Y4.726
G01 F600 X29.665 Y4.764
G01 F600 X29.830 Y4.838
G01 F600 X29.977 Y4.944
G01 F600 X30.098 Y5.079
G01 F600 X30.189 Y5.236
G01 F600 X30.245 Y5.408
G01 F600 X30.263 Y5.583
G01 F600 X30.263 Y7.118
G01 F600 X30.245 Y7.292
G01 F600 X30.189 Y7.465
G01 F600 X30.098 Y7.621
G01 F600 X29.977 Y7.756
G01 F600 X29.830 Y7.863
G01 F600 X29.665 Y7.936
G01 F600 X29.488 Y7.974
G01 F600 X29.436 Y7.974
G01 F600 X29.436 Y12.853
G01 F600 X29.489 Y12.891
G01 F600 X29.596 Y13.010
G01 F600 X29.676 Y13.149
G01 F600 X29.725 Y13.301
G01 F600 X29.741 Y13.454
G01 F600 X29.741 Y14.786
G01 F600 X29.725 Y14.939
G01 F600 X29.676 Y15.091
G01 F600 X29.596 Y15.230
G01 F600 X29.489 Y15.349
G01 F600 X29.360 Y15.443
G01 F600 X29.213 Y15.508
G01 F600 X29.057 Y15.541
G01 F600 X28.897 Y15.541
G00 F3000 Z3.000
G00 F3000 X23.817 Y15.541
G00 F1500 Z0
G01 F600 Z-0.110
G01 F600 X23.661 Y15.508
G01 F600 X23.515 Y15.443
G01 F600 X23.385 Y15.349
G01 F600 X23.278 Y15.230
G01 F600 X23.198 Y15.091
G01 F600 X23.149 Y14.939
G01 F600 X23.133 Y14.786
G01 F600 X23.133 Y13.454
G01 F600 X23.149 Y13.301
G01 F600 X23.198 Y13.149
G01 F600 X23.278 Y13.010
G01 F600 X23.385 Y12.891
G01 F600 X23.515 Y12.797
G01 F600 X23.661 Y12.732
G01 F600 X23.817 Y12.699
G01 F600 X23.977 Y12.699
G01 F600 X24.133 Y12.732
G01 F600 X24.280 Y12.797
G01 F600 X24.409 Y12.891
G01 F600 X24.516 Y13.010
G01 F600 X24.596 Y13.149
G01 F600 X24.645 Y13.301
G01 F600 X24.661 Y13.454
G01 F600 X24.661 Y13.473
G01 F600 X25.673 Y13.473
G01 F600 X25.673 Y13.454
G01 F600 X25.689 Y13.301
G01 F600 X25.738 Y13.149
G01 F600 X25.818 Y13.010
G01 F600 X25.925 Y12.891
G01 F600 X26.055 Y12.797
G01 F600 X26.201 Y12.732
G01 F600 X26.357 Y12.699
G01 F600 X26.517 Y12.699
G01 F600 X26.673 Y12.732
G01 F600 X26.820 Y12.797
G01 F600 X26.949 Y12.891
G01 F600 X27.056 Y13.010
G01 F600 X27.136 Y13.149
G01 F600 X27.185 Y13.301
G01 F600 X27.201 Y13.454
G01 F600 X27.201 Y14.786
G01 F600 X27.185 Y14.939
G01 F600 X27.136 Y15.091
G01 F600 X27.056 Y15.230
G01 F600 X26.949 Y15.349
G01 F600 X26.820 Y15.443
G01 F600 X26.673 Y15.508
G01 F600 X26.517 Y15.541
G01 F600 X26.357 Y15.541
G01 F600 X26.201 Y15.508
G01 F600 X26.055 Y15.443
G01 F600 X25.925 Y15.349
G01 F600 X25.818 Y15.230
G01 F600 X25.738 Y15.091
G01 F600 X25.689 Y14.939
G01 F600 X25.673 Y14.786
G01 F600 X25.673 Y14.427
G01 F600 X24.661 Y14.427
G01 F600 X24.661 Y14.786
G01 F600 X24.645 Y14.939
G01 F600 X24.596 Y15.091
G01 F600 X24.516 Y15.230
G01 F600 X24.409 Y15.349
G01 F600 X24.280 Y15.443
G01 F600 X24.133 Y15.508
G01 F600 X23.977 Y15.541
G01 F600 X23.817 Y15.541
G00 F3000 Z3.000
G00 F3000 X39.057 Y15.541
G00 F1500 Z0
G01 F600 Z-0.110
G01 F600 X38.901 Y15.508
G01 F600 X38.755 Y15.443
G01 F600 X38.625 Y15.349
G01 F600 X38.518 Y15.230
G01 F600 X38.438 Y15.091
G01 F600 X38.389 Y14.939
G01 F600 X38.373 Y14.786
G01 F600 X38.373 Y13.454
G01 F600 X38.389 Y13.301
G01 F600 X38.438 Y13.149
G01 F600 X38.518 Y13.010
G01 F600 X38.625 Y12.891
G01 F600 X38.755 Y12.797
G01 F600 X38.901 Y12.732
G01 F600 X39.057 Y12.699
G01 F600 X39.217 Y12.699
G01 F600 X39.373 Y12.732
G01 F600 X39.520 Y12.797
G01 F600 X39.649 Y12.891
G01 F600 X39.756 Y13.010
G01 F600 X39.836 Y13.149
G01 F600 X39.885 Y13.301
G01 F600 X39.901 Y13.454
G01 F600 X39.901 Y14.786
G01 F600 X39.885 Y14.939
G01 F600 X39.836 Y15.091
G01 F600 X39.756 Y15.230
G01 F600 X39.649 Y15.349
G01 F600 X39.520 Y15.443
G01 F600 X39.373 Y15.508
G01 F600 X39.217 Y15.541
G01 F600 X39.057 Y15.541
G00 F3000 Z3.000
G00 F3000 X36.517 Y15.541
G00 F1500 Z0
G01 F600 Z-0.110
G01 F600 X36.361 Y15.508
G01 F600 X36.215 Y15.443
G01 F600 X36.085 Y15.349
G01 F600 X35.978 Y15.230
G01 F600 X35.898 Y15.091
G01 F600 X35.849 Y14.939
G01 F600 X35.833 Y14.786
G01 F600 X35.833 Y13.454
G01 F600 X35.849 Y13.301
G01 F600 X35.898 Y13.149
G01 F600 X35.978 Y13.010
G01 F600 X36.085 Y12.891
G01 F600 X36.215 Y12.797
G01 F600 X36.361 Y12.732
G01 F600 X36.517 Y12.699
G01 F600 X36.677 Y12.699
G01 F600 X36.833 Y12.732
G01 F600 X36.980 Y12.797
G01 F600 X37.109 Y12.891
G01 F600 X37.216 Y13.010
G01 F600 X37.296 Y13.149
G01 F600 X37.345 Y13.301
G01 F600 X37.361 Y13.454
G01 F600 X37.361 Y14.786
G01 F600 X37.345 Y14.939
G01 F600 X37.296 Y15.091
G01 F600 X37.216 Y15.230
G01 F600 X37.109 Y15.349
G01 F600 X36.980 Y15.443
G01 F600 X36.833 Y15.508
G01 F600 X36.677 Y15.541
G01 F600 X36.517 Y15.541
G00 F3000 Z3.000
G00 F3000 X18.737 Y15.541
G00 F1500 Z0
G01 F600 Z-0.110
G01 F600 X18.581 Y15.508
G01 F600 X18.434 Y15.443
G01 F600 X18.305 Y15.349
G01 F600 X18.198 Y15.230
G01 F600 X18.118 Y15.091
G01 F600 X18.069 Y14.939
G01 F600 X18.053 Y14.786
G01 F600 X18.053 Y13.454
G01 F600 X18.069 Y13.301
G01 F600 X18.118 Y13.149
G01 F600 X18.198 Y13.010
G01 F600 X18.305 Y12.891
G01 F600 X18.434 Y12.797
G01 F600 X18.581 Y12.732
G01 F600 X18.737 Y12.699
G01 F600 X18.897 Y12.699
G01 F600 X19.053 Y12.732
G01 F600 X19.200 Y12.797
G01 F600 X19.329 Y12.891
G01 F600 X19.436 Y13.010
G01 F600 X19.516 Y13.149
G01 F600 X19.565 Y13.301
G01 F600 X19.581 Y13.454
G01 F600 X19.581 Y13.473
G01 F600 X20.593 Y13.473
G01 F600 X20.593 Y13.454
G01 F600 X20.609 Y13.301
G01 F600 X20.658 Y13.149
G01 F600 X20.738 Y13.010
G01 F600 X20.845 Y12.891
G01 F600 X20.975 Y12.797
G01 F600 X21.121 Y12.732
G01 F600 X21.277 Y12.699
G01 F600 X21.437 Y12.699
G01 F600 X21.593 Y12.732
G01 F600 X21.739 Y12.797
G01 F600 X21.869 Y12.891
G01 F600 X21.976 Y13.010
G01 F600 X22.056 Y13.149
G01 F600 X22.105 Y13.301
G01 F600 X22.121 Y13.454
G01 F600 X22.121 Y14.786
G01 F600 X22.105 Y14.939
G01 F600 X22.056 Y15.091
G01 F600 X21.976 Y15.230
G01 F600 X21.869 Y15.349
G01 F600 X21.739 Y15.443
G01 F600 X21.593 Y15.508
G01 F600 X21.437 Y15.541
G01 F600 X21.277 Y15.541
G01 F600 X21.121 Y15.508
G01 F600 X20.975 Y15.443
G01 F600 X20.845 Y15.349
G01 F600 X20.738 Y15.230
G01 F600 X20.658 Y15.091
G01 F600 X20.609 Y14.939
G01 F600 X20.593 Y14.786
G01 F600 X20.593 Y14.427
G01 F600 X19.581 Y14.427
G01 F600 X19.581 Y14.786
G01 F600 X19.565 Y14.939
G01 F600 X19.516 Y15.091
G01 F600 X19.436 Y15.230
G01 F600 X19.329 Y15.349
G01 F600 X19.200 Y15.443
G01 F600 X19.053 Y15.508
G01 F600 X18.897 Y15.541
G01 F600 X18.737 Y15.541
G00 F3000 Z3.000
G00 F3000 X16.197 Y15.541
G00 F1500 Z0
G01 F600 Z-0.110
G01 F600 X16.041 Y15.508
G01 F600 X15.895 Y15.443
G01 F600 X15.765 Y15.349
G01 F600 X15.658 Y15.230
G01 F600 X15.578 Y15.091
G01 F600 X15.529 Y14.939
G01 F600 X15.513 Y14.786
G01 F600 X15.513 Y13.454
G01 F600 X15.529 Y13.301
G01 F600 X15.578 Y13.149
G01 F600 X15.658 Y13.010
G01 F600 X15.765 Y12.891
G01 F600 X15.895 Y12.797
G01 F600 X16.041 Y12.732
G01 F600 X16.078 Y12.724
G01 F600 X16.078 Y12.395
G01 F600 X16.088 Y12.300
G01 F600 X16.119 Y12.205
G01 F600 X16.169 Y12.118
G01 F600 X16.231 Y12.050
G01 F600 X21.663 Y6.617
G01 F600 X21.742 Y6.560
G01 F600 X21.834 Y6.519
G01 F600 X21.932 Y6.498
G01 F600 X25.991 Y6.498
G01 F600 X25.991 Y5.583
G01 F600 X26.009 Y5.408
G01 F600 X26.065 Y5.236
G01 F600 X26.156 Y5.079
G01 F600 X26.277 Y4.944
G01 F600 X26.424 Y4.838
G01 F600 X26.589 Y4.764
G01 F600 X26.766 Y4.726
G01 F600 X26.948 Y4.726
G01 F600 X27.125 Y4.764
G01 F600 X27.290 Y4.838
G01 F600 X27.437 Y4.944
G01 F600 X27.558 Y5.079
G01 F600 X27.649 Y5.236
G01 F600 X27.705 Y5.408
G01 F600 X27.723 Y5.583
G01 F600 X27.723 Y7.118
G01 F600 X27.705 Y7.292
G01 F600 X27.649 Y7.465
G01 F600 X27.558 Y7.621
G01 F600 X27.437 Y7.756
G01 F600 X27.290 Y7.863
G01 F600 X27.125 Y7.936
G01 F600 X26.948 Y7.974
G01 F600 X26.766 Y7.974
G01 F600 X26.589 Y7.936
G01 F600 X26.424 Y7.863
G01 F600 X26.277 Y7.756
G01 F600 X26.156 Y7.621
G01 F600 X26.065 Y7.464
G01 F600 X26.061 Y7.452
G01 F600 X22.182 Y7.452
G01 F600 X17.036 Y12.598
G01 F600 X17.036 Y13.403
G01 F600 X17.041 Y13.454
G01 F600 X17.041 Y14.786
G01 F600 X17.025 Y14.939
G01 F600 X16.976 Y15.091
G01 F600 X16.896 Y15.230
G01 F600 X16.789 Y15.349
G01 F600 X16.660 Y15.443
G01 F600 X16.513 Y15.508
G01 F600 X16.357 Y15.541
G01 F600 X16.197 Y15.541
G00 F3000 Z3.000
G00 F3000 X5.044 Y3.105
G00 F1500 Z0
G01 F600 Z-0.110
G01 F600 X4.968 Y3.097
G01 F600 X4.903 Y3.059
G01 F600 X4.855 Y2.993
G01 F600 X4.845 Y2.902
G01 F600 X5.220 Y1.224
G01 F600 X5.264 Y1.163
G01 F600 X5.330 Y1.125
G01 F600 X5.405 Y1.117
G01 F600 X5.483 Y1.142
G01 F600 X5.547 Y1.214
G01 F600 X5.747 Y1.813
G01 F600 X5.945 Y1.219
G01 F600 X5.986 Y1.163
G01 F600 X6.052 Y1.125
G01 F600 X6.128 Y1.117
G01 F600 X6.200 Y1.140
G01 F600 X6.256 Y1.191
G01 F600 X6.282 Y1.250
G01 F600 X6.648 Y2.897
G01 F600 X6.648 Y2.962
G01 F600 X6.617 Y3.031
G01 F600 X6.561 Y3.082
G01 F600 X6.489 Y3.105
G01 F600 X6.413 Y3.097
G01 F600 X6.343 Y3.057
G01 F600 X6.297 Y2.978
G01 F600 X6.074 Y1.969
G01 F600 X5.919 Y2.435
G01 F600 X5.895 Y2.489
G01 F600 X5.839 Y2.540
G01 F600 X5.766 Y2.563
G01 F600 X5.691 Y2.556
G01 F600 X5.625 Y2.518
G01 F600 X5.584 Y2.461
G01 F600 X5.421 Y1.972
G01 F600 X5.199 Y2.972
G01 F600 X5.172 Y3.031
G01 F600 X5.116 Y3.082
G01 F600 X5.044 Y3.105
G00 F3000 Z3.000
G00 F3000 X10.487 Y3.105
G00 F1500 Z0
G01 F600 Z-0.110
G01 F600 X10.412 Y3.097
G01 F600 X10.346 Y3.059
G01 F600 X10.301 Y2.998
G01 F600 X10.288 Y2.935
G01 F600 X10.288 Y1.287
G01 F600 X10.301 Y1.224
G01 F600 X10.346 Y1.163
G01 F600 X10.412 Y1.125
G01 F600 X10.487 Y1.117
G01 F600 X10.559 Y1.140
G01 F600 X10.620 Y1.195
G01 F600 X10.648 Y1.282
G01 F600 X10.647 Y2.276
G01 F600 X10.853 Y1.932
G01 F600 X10.888 Y1.885
G01 F600 X10.953 Y1.847
G01 F600 X11.029 Y1.839
G01 F600 X11.101 Y1.863
G01 F600 X11.153 Y1.909
G01 F600 X11.371 Y2.274
G01 F600 X11.371 Y1.287
G01 F600 X11.385 Y1.224
G01 F600 X11.430 Y1.163
G01 F600 X11.495 Y1.125
G01 F600 X11.571 Y1.117
G01 F600 X11.643 Y1.140
G01 F600 X11.704 Y1.195
G01 F600 X11.732 Y1.282
G01 F600 X11.730 Y2.962
G01 F600 X11.699 Y3.031
G01 F600 X11.643 Y3.082
G01 F600 X11.571 Y3.105
G01 F600 X11.490 Y3.097
G01 F600 X11.412 Y3.040
G01 F600 X11.010 Y2.370
G01 F600 X10.611 Y3.036
G01 F600 X10.559 Y3.082
G01 F600 X10.487 Y3.105
G00 F3000 Z3.000
G00 F3000 X7.484 Y3.104
G00 F1500 Z0
G01 F600 Z-0.110
G01 F600 X7.387 Y3.096
G01 F600 X7.349 Y3.088
G01 F600 X7.294 Y3.071
G01 F600 X7.259 Y3.056
G01 F600 X7.187 Y3.018
G01 F600 X7.156 Y2.996
G01 F600 X7.112 Y2.959
G01 F600 X7.078 Y2.924
G01 F600 X7.043 Y2.879
G01 F600 X7.008 Y2.821
G01 F600 X6.988 Y2.788
G01 F600 X6.966 Y2.731
G01 F600 X6.955 Y2.679
G01 F600 X6.945 Y2.621
G01 F600 X6.939 Y2.568
G01 F600 X6.940 Y1.630
G01 F600 X6.945 Y1.590
G01 F600 X6.960 Y1.513
G01 F600 X6.971 Y1.476
G01 F600 X6.993 Y1.423
G01 F600 X7.012 Y1.390
G01 F600 X7.057 Y1.322
G01 F600 X7.082 Y1.294
G01 F600 X7.122 Y1.253
G01 F600 X7.162 Y1.222
G01 F600 X7.218 Y1.190
G01 F600 X7.268 Y1.164
G01 F600 X7.305 Y1.147
G01 F600 X7.367 Y1.130
G01 F600 X7.407 Y1.125
G01 F600 X7.467 Y1.118
G01 F600 X8.047 Y1.118
G01 F600 X8.114 Y1.140
G01 F600 X8.174 Y1.195
G01 F600 X8.203 Y1.282
G01 F600 X8.201 Y2.239
G01 F600 X8.170 Y2.309
G01 F600 X8.114 Y2.359
G01 F600 X8.047 Y2.381
G01 F600 X7.754 Y2.381
G01 F600 X7.695 Y2.375
G01 F600 X7.629 Y2.337
G01 F600 X7.585 Y2.276
G01 F600 X7.569 Y2.201
G01 F600 X7.585 Y2.127
G01 F600 X7.633 Y2.061
G01 F600 X7.721 Y2.022
G01 F600 X7.842 Y2.022
G01 F600 X7.842 Y1.478
G01 F600 X7.481 Y1.478
G01 F600 X7.430 Y1.485
G01 F600 X7.417 Y1.489
G01 F600 X7.409 Y1.492
G01 F600 X7.373 Y1.514
G01 F600 X7.345 Y1.538
G01 F600 X7.333 Y1.554
G01 F600 X7.314 Y1.583
G01 F600 X7.311 Y1.594
G01 F600 X7.306 Y1.613
G01 F600 X7.300 Y1.665
G01 F600 X7.298 Y2.567
G01 F600 X7.300 Y2.581
G01 F600 X7.311 Y2.624
G01 F600 X7.324 Y2.654
G01 F600 X7.349 Y2.687
G01 F600 X7.359 Y2.699
G01 F600 X7.369 Y2.706
G01 F600 X7.384 Y2.716
G01 F600 X7.442 Y2.740
G01 F600 X7.455 Y2.742
G01 F600 X7.492 Y2.744
G01 F600 X8.047 Y2.744
G01 F600 X8.114 Y2.766
G01 F600 X8.170 Y2.817
G01 F600 X8.201 Y2.886
G01 F600 X8.201 Y2.962
G01 F600 X8.170 Y3.031
G01 F600 X8.114 Y3.082
G01 F600 X8.047 Y3.104
G01 F600 X7.484 Y3.104
G00 F3000 Z3.000
G00 F3000 X13.166 Y3.104
G00 F1500 Z0
G01 F600 Z-0.110
G01 F600 X13.107 Y3.097
G01 F600 X13.041 Y3.059
G01 F600 X12.997 Y2.998
G01 F600 X12.983 Y2.935
G01 F600 X12.983 Y1.287
G01 F600 X12.997 Y1.224
G01 F600 X13.045 Y1.158
G01 F600 X13.133 Y1.118
G01 F600 X13.607 Y1.118
G01 F600 X13.639 Y1.119
G01 F600 X13.671 Y1.121
G01 F600 X13.704 Y1.124
G01 F600 X13.734 Y1.130
G01 F600 X13.767 Y1.137
G01 F600 X13.798 Y1.145
G01 F600 X13.829 Y1.155
G01 F600 X13.858 Y1.167
G01 F600 X13.889 Y1.181
G01 F600 X13.917 Y1.195
G01 F600 X13.945 Y1.211
G01 F600 X13.971 Y1.228
G01 F600 X13.998 Y1.248
G01 F600 X14.023 Y1.268
G01 F600 X14.047 Y1.289
G01 F600 X14.070 Y1.312
G01 F600 X14.093 Y1.337
G01 F600 X14.113 Y1.361
G01 F600 X14.132 Y1.386
G01 F600 X14.149 Y1.413
G01 F600 X14.166 Y1.442
G01 F600 X14.181 Y1.469
G01 F600 X14.195 Y1.499
G01 F600 X14.207 Y1.529
G01 F600 X14.217 Y1.561
G01 F600 X14.226 Y1.590
G01 F600 X14.234 Y1.622
G01 F600 X14.239 Y1.653
G01 F600 X14.243 Y1.684
G01 F600 X14.246 Y1.718
G01 F600 X14.247 Y1.748
G01 F600 X14.247 Y2.488
G01 F600 X14.245 Y2.520
G01 F600 X14.241 Y2.554
G01 F600 X14.237 Y2.585
G01 F600 X14.230 Y2.616
G01 F600 X14.222 Y2.647
G01 F600 X14.212 Y2.679
G01 F600 X14.201 Y2.708
G01 F600 X14.188 Y2.738
G01 F600 X14.174 Y2.767
G01 F600 X14.157 Y2.796
G01 F600 X14.141 Y2.822
G01 F600 X14.122 Y2.849
G01 F600 X14.102 Y2.874
G01 F600 X14.080 Y2.899
G01 F600 X14.059 Y2.922
G01 F600 X14.035 Y2.944
G01 F600 X14.010 Y2.965
G01 F600 X13.983 Y2.985
G01 F600 X13.959 Y3.002
G01 F600 X13.931 Y3.019
G01 F600 X13.903 Y3.035
G01 F600 X13.875 Y3.048
G01 F600 X13.844 Y3.061
G01 F600 X13.813 Y3.072
G01 F600 X13.782 Y3.081
G01 F600 X13.752 Y3.089
G01 F600 X13.719 Y3.095
G01 F600 X13.688 Y3.100
G01 F600 X13.655 Y3.103
G01 F600 X13.625 Y3.104
G01 F600 X13.166 Y3.104
G00 F3000 Z3.000
G00 F3000 X9.153 Y3.104
G00 F1500 Z0
G01 F600 Z-0.110
G01 F600 X9.114 Y3.102
G01 F600 X9.049 Y3.092
G01 F600 X9.005 Y3.085
G01 F600 X8.946 Y3.065
G01 F600 X8.908 Y3.046
G01 F600 X8.843 Y3.010
G01 F600 X8.812 Y2.987
G01 F600 X8.769 Y2.949
G01 F600 X8.743 Y2.921
G01 F600 X8.693 Y2.856
G01 F600 X8.673 Y2.822
G01 F600 X8.638 Y2.744
G01 F600 X8.619 Y2.671
G01 F600 X8.611 Y2.603
G01 F600 X8.607 Y2.569
G01 F600 X8.607 Y1.657
G01 F600 X8.609 Y1.612
G01 F600 X8.617 Y1.566
G01 F600 X8.630 Y1.510
G01 F600 X8.642 Y1.466
G01 F600 X8.668 Y1.409
G01 F600 X8.689 Y1.375
G01 F600 X8.733 Y1.311
G01 F600 X8.759 Y1.283
G01 F600 X8.801 Y1.244
G01 F600 X8.832 Y1.221
G01 F600 X8.901 Y1.178
G01 F600 X8.935 Y1.162
G01 F600 X8.988 Y1.142
G01 F600 X9.035 Y1.130
G01 F600 X9.089 Y1.123
G01 F600 X9.135 Y1.118
G01 F600 X9.714 Y1.118
G01 F600 X9.781 Y1.140
G01 F600 X9.842 Y1.195
G01 F600 X9.870 Y1.282
G01 F600 X9.868 Y2.239
G01 F600 X9.838 Y2.309
G01 F600 X9.781 Y2.359
G01 F600 X9.714 Y2.381
G01 F600 X9.421 Y2.381
G01 F600 X9.362 Y2.375
G01 F600 X9.297 Y2.337
G01 F600 X9.252 Y2.276
G01 F600 X9.236 Y2.201
G01 F600 X9.252 Y2.127
G01 F600 X9.300 Y2.061
G01 F600 X9.389 Y2.022
G01 F600 X9.510 Y2.022
G01 F600 X9.510 Y1.478
G01 F600 X9.154 Y1.477
G01 F600 X9.110 Y1.483
G01 F600 X9.074 Y1.493
G01 F600 X9.057 Y1.503
G01 F600 X9.028 Y1.521
G01 F600 X9.020 Y1.530
G01 F600 X9.008 Y1.544
G01 F600 X8.976 Y1.600
G01 F600 X8.973 Y1.610
G01 F600 X8.969 Y1.634
G01 F600 X8.967 Y1.663
G01 F600 X8.968 Y2.584
G01 F600 X8.972 Y2.605
G01 F600 X8.981 Y2.638
G01 F600 X8.986 Y2.647
G01 F600 X8.997 Y2.662
G01 F600 X9.040 Y2.709
G01 F600 X9.049 Y2.715
G01 F600 X9.091 Y2.734
G01 F600 X9.118 Y2.741
G01 F600 X9.159 Y2.744
G01 F600 X9.714 Y2.744
G01 F600 X9.781 Y2.766
G01 F600 X9.838 Y2.817
G01 F600 X9.868 Y2.886
G01 F600 X9.868 Y2.962
G01 F600 X9.838 Y3.031
G01 F600 X9.781 Y3.082
G01 F600 X9.714 Y3.104
G01 F600 X9.153 Y3.104
G00 F3000 Z3.000
G00 F3000 X17.428 Y3.104
G00 F1500 Z0
G01 F600 Z-0.110
G01 F600 X17.369 Y3.097
G01 F600 X17.303 Y3.059
G01 F600 X17.259 Y2.998
G01 F600 X17.245 Y2.935
G01 F600 X17.245 Y2.823
G01 F600 X17.259 Y2.759
G01 F600 X17.307 Y2.693
G01 F600 X17.395 Y2.654
G01 F600 X17.540 Y2.654
G01 F600 X17.607 Y2.675
G01 F600 X17.668 Y2.730
G01 F600 X17.696 Y2.818
G01 F600 X17.694 Y2.963
G01 F600 X17.663 Y3.031
G01 F600 X17.607 Y3.082
G01 F600 X17.540 Y3.104
G01 F600 X17.428 Y3.104
G00 F3000 Z3.000
G00 F3000 X13.342 Y2.744
G00 F1500 Z0
G01 F600 Z-0.110
G01 F600 X13.630 Y2.743
G01 F600 X13.647 Y2.742
G01 F600 X13.685 Y2.735
G01 F600 X13.714 Y2.726
G01 F600 X13.732 Y2.718
G01 F600 X13.749 Y2.708
G01 F600 X13.782 Y2.686
G01 F600 X13.794 Y2.676
G01 F600 X13.821 Y2.649
G01 F600 X13.831 Y2.637
G01 F600 X13.853 Y2.603
G01 F600 X13.869 Y2.572
G01 F600 X13.873 Y2.556
G01 F600 X13.879 Y2.537
G01 F600 X13.883 Y2.516
G01 F600 X13.885 Y2.499
G01 F600 X13.886 Y2.471
G01 F600 X13.887 Y1.737
G01 F600 X13.885 Y1.718
G01 F600 X13.881 Y1.697
G01 F600 X13.871 Y1.659
G01 F600 X13.865 Y1.644
G01 F600 X13.847 Y1.609
G01 F600 X13.838 Y1.594
G01 F600 X13.815 Y1.566
G01 F600 X13.789 Y1.540
G01 F600 X13.777 Y1.532
G01 F600 X13.759 Y1.520
G01 F600 X13.744 Y1.511
G01 F600 X13.708 Y1.495
G01 F600 X13.680 Y1.485
G01 F600 X13.660 Y1.482
G01 F600 X13.638 Y1.479
G01 F600 X13.605 Y1.478
G01 F600 X13.343 Y1.478
G01 F600 X13.342 Y2.744
G00 F3000 Z3.000
G00 F3000 X17.490 Y2.563
G00 F1500 Z0
G01 F600 Z-0.110
G01 F600 X17.414 Y2.556
G01 F600 X17.349 Y2.518
G01 F600 X17.304 Y2.456
G01 F600 X17.291 Y2.393
G01 F600 X17.291 Y1.287
G01 F600 X17.304 Y1.224
G01 F600 X17.349 Y1.163
G01 F600 X17.414 Y1.125
G01 F600 X17.490 Y1.117
G01 F600 X17.562 Y1.140
G01 F600 X17.623 Y1.195
G01 F600 X17.651 Y1.282
G01 F600 X17.649 Y2.420
G01 F600 X17.618 Y2.489
G01 F600 X17.562 Y2.540
G01 F600 X17.490 Y2.563
G00 F3000 Z3.000
G00 F3000 X16.352 Y2.562
G00 F1500 Z0
G01 F600 Z-0.110
G01 F600 X16.271 Y2.554
G01 F600 X16.229 Y2.547
G01 F600 X16.177 Y2.528
G01 F600 X16.141 Y2.508
G01 F600 X16.106 Y2.488
G01 F600 X16.058 Y2.450
G01 F600 X16.031 Y2.421
G01 F600 X15.991 Y2.367
G01 F600 X15.971 Y2.334
G01 F600 X15.951 Y2.286
G01 F600 X15.941 Y2.248
G01 F600 X15.932 Y2.207
G01 F600 X15.927 Y2.147
G01 F600 X15.930 Y2.105
G01 F600 X15.942 Y2.039
G01 F600 X15.954 Y2.002
G01 F600 X15.982 Y1.942
G01 F600 X16.005 Y1.912
G01 F600 X16.033 Y1.875
G01 F600 X16.058 Y1.845
G01 F600 X16.097 Y1.814
G01 F600 X16.150 Y1.780
G01 F600 X16.191 Y1.762
G01 F600 X16.641 Y1.581
G01 F600 X16.660 Y1.567
G01 F600 X16.668 Y1.555
G01 F600 X16.671 Y1.548
G01 F600 X16.673 Y1.525
G01 F600 X16.670 Y1.515
G01 F600 X16.667 Y1.507
G01 F600 X16.652 Y1.490
G01 F600 X16.648 Y1.487
G01 F600 X16.626 Y1.479
G01 F600 X16.617 Y1.478
G01 F600 X16.591 Y1.479
G01 F600 X16.557 Y1.481
G01 F600 X16.526 Y1.483
G01 F600 X16.483 Y1.487
G01 F600 X16.459 Y1.490
G01 F600 X16.424 Y1.495
G01 F600 X16.392 Y1.501
G01 F600 X16.339 Y1.511
G01 F600 X16.307 Y1.519
G01 F600 X16.276 Y1.528
G01 F600 X16.243 Y1.537
G01 F600 X16.208 Y1.548
G01 F600 X16.137 Y1.570
G01 F600 X16.063 Y1.562
G01 F600 X15.997 Y1.524
G01 F600 X15.953 Y1.463
G01 F600 X15.937 Y1.389
G01 F600 X15.953 Y1.314
G01 F600 X15.997 Y1.253
G01 F600 X16.052 Y1.221
G01 F600 X16.097 Y1.205
G01 F600 X16.134 Y1.194
G01 F600 X16.171 Y1.183
G01 F600 X16.209 Y1.173
G01 F600 X16.246 Y1.163
G01 F600 X16.300 Y1.152
G01 F600 X16.337 Y1.145
G01 F600 X16.376 Y1.138
G01 F600 X16.414 Y1.133
G01 F600 X16.452 Y1.128
G01 F600 X16.491 Y1.124
G01 F600 X16.529 Y1.121
G01 F600 X16.568 Y1.119
G01 F600 X16.610 Y1.118
G01 F600 X16.645 Y1.120
G01 F600 X16.690 Y1.124
G01 F600 X16.771 Y1.146
G01 F600 X16.844 Y1.184
G01 F600 X16.875 Y1.206
G01 F600 X16.913 Y1.240
G01 F600 X16.941 Y1.273
G01 F600 X16.973 Y1.321
G01 F600 X16.994 Y1.354
G01 F600 X17.012 Y1.401
G01 F600 X17.028 Y1.461
G01 F600 X17.032 Y1.497
G01 F600 X17.034 Y1.550
G01 F600 X17.026 Y1.596
G01 F600 X17.016 Y1.645
G01 F600 X17.005 Y1.685
G01 F600 X16.980 Y1.736
G01 F600 X16.957 Y1.770
G01 F600 X16.934 Y1.802
G01 F600 X16.891 Y1.845
G01 F600 X16.862 Y1.867
G01 F600 X16.822 Y1.895
G01 F600 X16.771 Y1.918
G01 F600 X16.339 Y2.088
G01 F600 X16.309 Y2.105
G01 F600 X16.302 Y2.111
G01 F600 X16.293 Y2.128
G01 F600 X16.291 Y2.132
G01 F600 X16.290 Y2.155
G01 F600 X16.293 Y2.170
G01 F600 X16.297 Y2.176
G01 F600 X16.312 Y2.192
G01 F600 X16.323 Y2.198
G01 F600 X16.337 Y2.202
G01 F600 X16.357 Y2.203
G01 F600 X16.385 Y2.201
G01 F600 X16.426 Y2.197
G01 F600 X16.470 Y2.191
G01 F600 X16.516 Y2.184
G01 F600 X16.534 Y2.177
G01 F600 X16.585 Y2.163
G01 F600 X16.670 Y2.131
G01 F600 X16.732 Y2.110
G01 F600 X16.808 Y2.118
G01 F600 X16.874 Y2.156
G01 F600 X16.918 Y2.218
G01 F600 X16.934 Y2.292
G01 F600 X16.918 Y2.366
G01 F600 X16.874 Y2.427
G01 F600 X16.822 Y2.458
G01 F600 X16.768 Y2.480
G01 F600 X16.717 Y2.499
G01 F600 X16.665 Y2.515
G01 F600 X16.612 Y2.529
G01 F600 X16.566 Y2.538
G01 F600 X16.511 Y2.548
G01 F600 X16.451 Y2.554
G01 F600 X16.400 Y2.558
G01 F600 X16.352 Y2.562
G00 F3000 Z3.000
G00 F3000 X15.144 Y2.562
G00 F1500 Z0
G01 F600 Z-0.110
G01 F600 X15.083 Y2.559
G01 F600 X15.017 Y2.548
G01 F600 X14.976 Y2.541
G01 F600 X14.915 Y2.519
G01 F600 X14.876 Y2.498
G01 F600 X14.813 Y2.462
G01 F600 X14.782 Y2.439
G01 F600 X14.738 Y2.399
G01 F600 X14.712 Y2.367
G01 F600 X14.665 Y2.305
G01 F600 X14.646 Y2.271
G01 F600 X14.621 Y2.216
G01 F600 X14.610 Y2.177
G01 F600 X14.591 Y2.103
G01 F600 X14.587 Y2.065
G01 F600 X14.585 Y2.023
G01 F600 X14.585 Y1.840
G01 F600 X14.585 Y1.565
G01 F600 X14.587 Y1.524
G01 F600 X14.598 Y1.459
G01 F600 X14.609 Y1.424
G01 F600 X14.628 Y1.376
G01 F600 X14.647 Y1.342
G01 F600 X14.687 Y1.284
G01 F600 X14.712 Y1.255
G01 F600 X14.751 Y1.219
G01 F600 X14.783 Y1.197
G01 F600 X14.842 Y1.162
G01 F600 X14.877 Y1.147
G01 F600 X14.929 Y1.131
G01 F600 X14.970 Y1.125
G01 F600 X15.021 Y1.118
G01 F600 X15.512 Y1.118
G01 F600 X15.579 Y1.140
G01 F600 X15.635 Y1.191
G01 F600 X15.666 Y1.260
G01 F600 X15.666 Y1.336
G01 F600 X15.635 Y1.405
G01 F600 X15.579 Y1.456
G01 F600 X15.512 Y1.478
G01 F600 X15.038 Y1.478
G01 F600 X15.008 Y1.483
G01 F600 X14.998 Y1.487
G01 F600 X14.967 Y1.510
G01 F600 X14.966 Y1.511
G01 F600 X14.949 Y1.544
G01 F600 X14.947 Y1.550
G01 F600 X14.943 Y1.595
G01 F600 X14.915 Y1.660
G01 F600 X15.512 Y1.660
G01 F600 X15.579 Y1.682
G01 F600 X15.639 Y1.737
G01 F600 X15.667 Y1.824
G01 F600 X15.667 Y2.024
G01 F600 X15.664 Y2.076
G01 F600 X15.652 Y2.133
G01 F600 X15.638 Y2.189
G01 F600 X15.626 Y2.229
G01 F600 X15.598 Y2.286
G01 F600 X15.574 Y2.323
G01 F600 X15.533 Y2.374
G01 F600 X15.505 Y2.408
G01 F600 X15.456 Y2.450
G01 F600 X15.419 Y2.473
G01 F600 X15.357 Y2.510
G01 F600 X15.320 Y2.526
G01 F600 X15.264 Y2.544
G01 F600 X15.225 Y2.552
G01 F600 X15.144 Y2.562
G00 F3000 Z3.000
G00 F3000 X19.561 Y2.562
G00 F1500 Z0
G01 F600 Z-0.110
G01 F600 X19.502 Y2.556
G01 F600 X19.436 Y2.518
G01 F600 X19.392 Y2.456
G01 F600 X19.378 Y2.393
G01 F600 X19.378 Y1.287
G01 F600 X19.392 Y1.224
G01 F600 X19.436 Y1.163
G01 F600 X19.502 Y1.125
G01 F600 X19.577 Y1.117
G01 F600 X19.650 Y1.140
G01 F600 X19.710 Y1.195
G01 F600 X19.739 Y1.282
G01 F600 X19.737 Y2.201
G01 F600 X20.020 Y2.200
G01 F600 X20.049 Y2.192
G01 F600 X20.067 Y2.181
G01 F600 X20.077 Y2.171
G01 F600 X20.093 Y2.146
G01 F600 X20.098 Y2.132
G01 F600 X20.101 Y2.106
G01 F600 X20.101 Y1.287
G01 F600 X20.114 Y1.224
G01 F600 X20.159 Y1.163
G01 F600 X20.224 Y1.125
G01 F600 X20.300 Y1.117
G01 F600 X20.372 Y1.140
G01 F600 X20.433 Y1.195
G01 F600 X20.461 Y1.282
G01 F600 X20.461 Y2.127
G01 F600 X20.457 Y2.164
G01 F600 X20.444 Y2.234
G01 F600 X20.432 Y2.271
G01 F600 X20.409 Y2.321
G01 F600 X20.387 Y2.357
G01 F600 X20.349 Y2.405
G01 F600 X20.323 Y2.437
G01 F600 X20.277 Y2.474
G01 F600 X20.242 Y2.496
G01 F600 X20.203 Y2.519
G01 F600 X20.123 Y2.548
G01 F600 X20.062 Y2.559
G01 F600 X20.021 Y2.562
G01 F600 X19.561 Y2.562
G00 F3000 Z3.000
G00 F3000 X18.368 Y2.562
G00 F1500 Z0
G01 F600 Z-0.110
G01 F600 X18.302 Y2.558
G01 F600 X18.265 Y2.551
G01 F600 X18.216 Y2.538
G01 F600 X18.181 Y2.523
G01 F600 X18.118 Y2.490
G01 F600 X18.087 Y2.468
G01 F600 X18.047 Y2.433
G01 F600 X18.021 Y2.403
G01 F600 X17.980 Y2.349
G01 F600 X17.961 Y2.315
G01 F600 X17.939 Y2.264
G01 F600 X17.928 Y2.218
G01 F600 X17.918 Y2.166
G01 F600 X17.912 Y2.117
G01 F600 X17.913 Y1.542
G01 F600 X17.919 Y1.500
G01 F600 X17.933 Y1.443
G01 F600 X17.943 Y1.403
G01 F600 X17.969 Y1.349
G01 F600 X17.998 Y1.309
G01 F600 X18.029 Y1.269
G01 F600 X18.055 Y1.239
G01 F600 X18.096 Y1.206
G01 F600 X18.135 Y1.182
G01 F600 X18.171 Y1.161
G01 F600 X18.228 Y1.139
G01 F600 X18.267 Y1.129
G01 F600 X18.313 Y1.121
G01 F600 X18.324 Y1.120
G01 F600 X18.599 Y0.961
G01 F600 X18.587 Y0.949
G01 F600 X18.561 Y0.939
G01 F600 X18.530 Y0.936
G01 F600 X18.185 Y0.936
G01 F600 X18.126 Y0.930
G01 F600 X18.060 Y0.892
G01 F600 X18.016 Y0.831
G01 F600 X18.000 Y0.756
G01 F600 X18.016 Y0.682
G01 F600 X18.064 Y0.616
G01 F600 X18.153 Y0.576
G01 F600 X18.602 Y0.580
G01 F600 X18.647 Y0.588
G01 F600 X18.675 Y0.600
G01 F600 X18.712 Y0.608
G01 F600 X18.789 Y0.649
G01 F600 X18.820 Y0.671
G01 F600 X18.861 Y0.706
G01 F600 X18.887 Y0.738
G01 F600 X18.927 Y0.789
G01 F600 X18.946 Y0.823
G01 F600 X18.967 Y0.872
G01 F600 X18.979 Y0.914
G01 F600 X18.989 Y0.977
G01 F600 X18.995 Y1.020
G01 F600 X18.993 Y2.420
G01 F600 X18.962 Y2.489
G01 F600 X18.906 Y2.540
G01 F600 X18.839 Y2.562
G01 F600 X18.368 Y2.562
G00 F3000 Z3.000
G00 F3000 X18.375 Y2.202
G00 F1500 Z0
G01 F600 Z-0.110
G01 F600 X18.634 Y2.202
G01 F600 X18.634 Y1.479
G01 F600 X18.356 Y1.480
G01 F600 X18.325 Y1.487
G01 F600 X18.307 Y1.498
G01 F600 X18.295 Y1.509
G01 F600 X18.282 Y1.530
G01 F600 X18.277 Y1.543
G01 F600 X18.272 Y1.576
G01 F600 X18.274 Y2.124
G01 F600 X18.281 Y2.148
G01 F600 X18.286 Y2.158
G01 F600 X18.312 Y2.186
G01 F600 X18.313 Y2.187
G01 F600 X18.346 Y2.200
G01 F600 X18.375 Y2.202
G00 F3000 Z3.000
G00 F3000 X15.117 Y2.201
G00 F1500 Z0
G01 F600 Z-0.110
G01 F600 X15.136 Y2.201
G01 F600 X15.198 Y2.188
G01 F600 X15.206 Y2.184
G01 F600 X15.244 Y2.157
G01 F600 X15.264 Y2.138
G01 F600 X15.290 Y2.099
G01 F600 X15.296 Y2.087
G01 F600 X15.299 Y2.077
G01 F600 X15.304 Y2.053
G01 F600 X15.307 Y2.020
G01 F600 X14.945 Y2.020
G01 F600 X14.945 Y2.036
G01 F600 X14.948 Y2.057
G01 F600 X14.957 Y2.090
G01 F600 X14.963 Y2.102
G01 F600 X14.972 Y2.115
G01 F600 X15.016 Y2.166
G01 F600 X15.022 Y2.170
G01 F600 X15.064 Y2.191
G01 F600 X15.094 Y2.199
G01 F600 X15.117 Y2.201
G00 F3000 Z3.000
G00 F3000 X18.871 Y30.027
G00 F1500 Z0
G01 F600 Z-0.110
G01 F600 X18.753 Y30.002
G01 F600 X18.642 Y29.952
G01 F600 X18.548 Y29.884
G01 F600 X13.833 Y25.169
G01 F600 X13.763 Y25.091
G01 F600 X13.702 Y24.986
G01 F600 X13.665 Y24.871
G01 F600 X13.653 Y24.761
G01 F600 X13.653 Y20.139
G01 F600 X13.665 Y20.029
G01 F600 X13.702 Y19.914
G01 F600 X13.763 Y19.809
G01 F600 X13.833 Y19.731
G01 F600 X15.398 Y18.166
G01 F600 X15.492 Y18.098
G01 F600 X15.603 Y18.048
G01 F600 X15.721 Y18.023
G01 F600 X16.618 Y18.023
G01 F600 X16.736 Y18.048
G01 F600 X16.847 Y18.098
G01 F600 X16.941 Y18.166
G01 F600 X18.882 Y20.107
G01 F600 X22.373 Y16.616
G01 F600 X22.467 Y16.548
G01 F600 X22.578 Y16.498
G01 F600 X22.696 Y16.473
G01 F600 X31.816 Y16.473
G01 F600 X33.028 Y15.261
G01 F600 X33.028 Y14.714
G01 F600 X33.040 Y14.604
G01 F600 X33.077 Y14.489
G01 F600 X33.133 Y14.392
G01 F600 X33.193 Y14.312
G01 F600 X33.193 Y13.449
G01 F600 X33.210 Y13.280
G01 F600 X33.266 Y13.108
G01 F600 X33.357 Y12.951
G01 F600 X33.478 Y12.816
G01 F600 X33.624 Y12.710
G01 F600 X33.790 Y12.636
G01 F600 X33.967 Y12.599
G01 F600 X34.148 Y12.599
G01 F600 X34.325 Y12.636
G01 F600 X34.490 Y12.710
G01 F600 X34.636 Y12.816
G01 F600 X34.757 Y12.951
G01 F600 X34.848 Y13.108
G01 F600 X34.904 Y13.280
G01 F600 X34.921 Y13.449
G01 F600 X34.921 Y14.791
G01 F600 X34.904 Y14.960
G01 F600 X34.848 Y15.132
G01 F600 X34.757 Y15.289
G01 F600 X34.636 Y15.424
G01 F600 X34.490 Y15.530
G01 F600 X34.325 Y15.604
G01 F600 X34.169 Y15.637
G01 F600 X34.137 Y15.736
G01 F600 X34.076 Y15.841
G01 F600 X34.006 Y15.919
G01 F600 X32.441 Y17.484
G01 F600 X32.347 Y17.552
G01 F600 X32.236 Y17.602
G01 F600 X32.118 Y17.627
G01 F600 X22.998 Y17.627
G01 F600 X19.669 Y20.956
G01 F600 X19.681 Y21.069
G01 F600 X19.681 Y22.411
G01 F600 X19.664 Y22.580
G01 F600 X19.608 Y22.752
G01 F600 X19.517 Y22.909
G01 F600 X19.396 Y23.044
G01 F600 X19.250 Y23.150
G01 F600 X19.085 Y23.224
G01 F600 X18.908 Y23.261
G01 F600 X18.727 Y23.261
G01 F600 X18.550 Y23.224
G01 F600 X18.384 Y23.150
G01 F600 X18.238 Y23.044
G01 F600 X18.117 Y22.909
G01 F600 X18.026 Y22.752
G01 F600 X17.970 Y22.580
G01 F600 X17.953 Y22.411
G01 F600 X17.953 Y21.069
G01 F600 X17.971 Y20.897
G01 F600 X17.988 Y20.849
G01 F600 X16.316 Y19.177
G01 F600 X16.023 Y19.177
G01 F600 X14.811 Y20.389
G01 F600 X14.811 Y24.511
G01 F600 X19.173 Y28.873
G01 F600 X51.966 Y28.873
G01 F600 X53.178 Y27.661
G01 F600 X53.178 Y26.589
G01 F600 X52.022 Y25.433
G01 F600 X51.938 Y25.470
G01 F600 X51.740 Y25.512
G01 F600 X50.014 Y25.512
G01 F600 X49.816 Y25.470
G01 F600 X49.631 Y25.388
G01 F600 X49.468 Y25.269
G01 F600 X49.333 Y25.119
G01 F600 X49.231 Y24.943
G01 F600 X49.169 Y24.751
G01 F600 X49.148 Y24.550
G01 F600 X49.169 Y24.349
G01 F600 X49.231 Y24.157
G01 F600 X49.333 Y23.982
G01 F600 X49.468 Y23.831
G01 F600 X49.631 Y23.712
G01 F600 X49.816 Y23.630
G01 F600 X50.014 Y23.588
G01 F600 X51.740 Y23.588
G01 F600 X51.938 Y23.630
G01 F600 X52.123 Y23.712
G01 F600 X52.286 Y23.831
G01 F600 X52.421 Y23.982
G01 F600 X52.523 Y24.157
G01 F600 X52.585 Y24.347
G01 F600 X52.586 Y24.362
G01 F600 X52.591 Y24.366
G01 F600 X54.156 Y25.931
G01 F600 X54.226 Y26.009
G01 F600 X54.287 Y26.114
G01 F600 X54.325 Y26.229
G01 F600 X54.336 Y26.339
G01 F600 X54.336 Y27.911
G01 F600 X54.325 Y28.021
G01 F600 X54.287 Y28.136
G01 F600 X54.226 Y28.241
G01 F600 X54.156 Y28.319
G01 F600 X52.591 Y29.884
G01 F600 X52.497 Y29.952
G01 F600 X52.386 Y30.002
G01 F600 X52.268 Y30.027
G01 F600 X18.871 Y30.027
G00 F3000 Z3.000
G00 F3000 X21.146 Y28.477
G00 F1500 Z0
G01 F600 Z-0.110
G01 F600 X21.028 Y28.452
G01 F600 X20.917 Y28.402
G01 F600 X20.823 Y28.334
G01 F600 X16.158 Y23.669
G01 F600 X16.088 Y23.591
G01 F600 X16.027 Y23.486
G01 F600 X15.990 Y23.371
G01 F600 X15.978 Y23.261
G01 F600 X15.978 Y23.210
G01 F600 X15.844 Y23.150
G01 F600 X15.698 Y23.044
G01 F600 X15.577 Y22.909
G01 F600 X15.486 Y22.752
G01 F600 X15.430 Y22.580
G01 F600 X15.413 Y22.411
G01 F600 X15.413 Y21.069
G01 F600 X15.430 Y20.900
G01 F600 X15.486 Y20.728
G01 F600 X15.577 Y20.571
G01 F600 X15.698 Y20.436
G01 F600 X15.844 Y20.330
G01 F600 X16.009 Y20.257
G01 F600 X16.187 Y20.219
G01 F600 X16.367 Y20.219
G01 F600 X16.544 Y20.257
G01 F600 X16.710 Y20.330
G01 F600 X16.856 Y20.436
G01 F600 X16.977 Y20.571
G01 F600 X17.068 Y20.728
G01 F600 X17.124 Y20.900
G01 F600 X17.141 Y21.069
G01 F600 X17.141 Y22.408
G01 F600 X17.136 Y22.482
G01 F600 X17.136 Y23.011
G01 F600 X21.448 Y27.323
G01 F600 X49.179 Y27.323
G01 F600 X49.169 Y27.291
G01 F600 X49.148 Y27.090
G01 F600 X49.169 Y26.889
G01 F600 X49.231 Y26.697
G01 F600 X49.333 Y26.521
G01 F600 X49.468 Y26.371
G01 F600 X49.631 Y26.252
G01 F600 X49.816 Y26.170
G01 F600 X50.014 Y26.128
G01 F600 X51.740 Y26.128
G01 F600 X51.938 Y26.170
G01 F600 X52.123 Y26.252
G01 F600 X52.286 Y26.371
G01 F600 X52.421 Y26.521
G01 F600 X52.523 Y26.697
G01 F600 X52.585 Y26.889
G01 F600 X52.606 Y27.090
G01 F600 X52.585 Y27.291
G01 F600 X52.523 Y27.483
G01 F600 X52.421 Y27.659
G01 F600 X52.286 Y27.809
G01 F600 X52.123 Y27.928
G01 F600 X51.938 Y28.010
G01 F600 X51.740 Y28.052
G01 F600 X50.548 Y28.052
G01 F600 X50.266 Y28.334
G01 F600 X50.172 Y28.402
G01 F600 X50.061 Y28.452
G01 F600 X49.943 Y28.477
G01 F600 X21.146 Y28.477
G00 F3000 Z3.000
G00 F3000 X3.386 Y27.054
G00 F1500 Z0
G01 F600 Z-0.110
G01 F600 X3.188 Y27.012
G01 F600 X3.003 Y26.930
G01 F600 X2.840 Y26.811
G01 F600 X2.705 Y26.661
G01 F600 X2.603 Y26.485
G01 F600 X2.541 Y26.293
G01 F600 X2.521 Y26.103
G01 F600 X2.521 Y24.557
G01 F600 X2.541 Y24.367
G01 F600 X2.603 Y24.175
G01 F600 X2.705 Y24.000
G01 F600 X2.803 Y23.890
G01 F600 X2.803 Y17.380
G01 F600 X2.705 Y17.271
G01 F600 X2.603 Y17.095
G01 F600 X2.541 Y16.903
G01 F600 X2.521 Y16.713
G01 F600 X2.521 Y15.167
G01 F600 X2.541 Y14.977
G01 F600 X2.603 Y14.785
G01 F600 X2.705 Y14.610
G01 F600 X2.803 Y14.500
G01 F600 X2.803 Y7.328
G01 F600 X2.703 Y7.155
G01 F600 X2.641 Y6.963
G01 F600 X2.621 Y6.773
G01 F600 X2.621 Y5.227
G01 F600 X2.641 Y5.037
G01 F600 X2.703 Y4.845
G01 F600 X2.805 Y4.670
G01 F600 X2.940 Y4.519
G01 F600 X3.103 Y4.400
G01 F600 X3.288 Y4.318
G01 F600 X3.486 Y4.276
G01 F600 X3.688 Y4.276
G01 F600 X3.886 Y4.318
G01 F600 X4.071 Y4.400
G01 F600 X4.234 Y4.519
G01 F600 X4.369 Y4.670
G01 F600 X4.471 Y4.845
G01 F600 X4.533 Y5.037
G01 F600 X4.553 Y5.227
G01 F600 X4.553 Y6.773
G01 F600 X4.533 Y6.963
G01 F600 X4.471 Y7.155
G01 F600 X4.369 Y7.331
G01 F600 X4.234 Y7.481
G01 F600 X4.071 Y7.600
G01 F600 X3.961 Y7.648
G01 F600 X3.961 Y14.336
G01 F600 X3.971 Y14.340
G01 F600 X4.134 Y14.459
G01 F600 X4.269 Y14.610
G01 F600 X4.371 Y14.785
G01 F600 X4.433 Y14.977
G01 F600 X4.453 Y15.167
G01 F600 X4.453 Y16.713
G01 F600 X4.433 Y16.903
G01 F600 X4.371 Y17.095
G01 F600 X4.269 Y17.271
G01 F600 X4.134 Y17.421
G01 F600 X3.971 Y17.540
G01 F600 X3.961 Y17.544
G01 F600 X3.961 Y23.726
G01 F600 X3.971 Y23.730
G01 F600 X4.134 Y23.849
G01 F600 X4.269 Y24.000
G01 F600 X4.371 Y24.175
G01 F600 X4.433 Y24.367
G01 F600 X4.453 Y24.557
G01 F600 X4.453 Y26.103
G01 F600 X4.433 Y26.293
G01 F600 X4.371 Y26.485
G01 F600 X4.269 Y26.661
G01 F600 X4.134 Y26.811
G01 F600 X3.971 Y26.930
G01 F600 X3.786 Y27.012
G01 F600 X3.588 Y27.054
G01 F600 X3.386 Y27.054
G00 F3000 Z3.000
G00 F3000 X5.926 Y27.054
G00 F1500 Z0
G01 F600 Z-0.110
G01 F600 X5.728 Y27.012
G01 F600 X5.543 Y26.930
G01 F600 X5.380 Y26.811
G01 F600 X5.245 Y26.661
G01 F600 X5.143 Y26.485
G01 F600 X5.081 Y26.293
G01 F600 X5.061 Y26.103
G01 F600 X5.061 Y24.557
G01 F600 X5.081 Y24.367
G01 F600 X5.128 Y24.224
G01 F600 X5.127 Y17.044
G01 F600 X5.081 Y16.903
G01 F600 X5.061 Y16.713
G01 F600 X5.061 Y15.167
G01 F600 X5.081 Y14.977
G01 F600 X5.128 Y14.834
G01 F600 X5.128 Y6.189
G01 F600 X5.140 Y6.079
G01 F600 X5.161 Y6.014
G01 F600 X5.161 Y5.227
G01 F600 X5.181 Y5.037
G01 F600 X5.243 Y4.845
G01 F600 X5.345 Y4.670
G01 F600 X5.480 Y4.519
G01 F600 X5.643 Y4.400
G01 F600 X5.828 Y4.318
G01 F600 X6.026 Y4.276
G01 F600 X6.228 Y4.276
G01 F600 X6.426 Y4.318
G01 F600 X6.611 Y4.400
G01 F600 X6.774 Y4.519
G01 F600 X6.909 Y4.670
G01 F600 X7.011 Y4.845
G01 F600 X7.073 Y5.037
G01 F600 X7.093 Y5.227
G01 F600 X7.093 Y6.773
G01 F600 X7.073 Y6.963
G01 F600 X7.011 Y7.155
G01 F600 X6.909 Y7.331
G01 F600 X6.774 Y7.481
G01 F600 X6.611 Y7.600
G01 F600 X6.426 Y7.682
G01 F600 X6.287 Y7.711
G01 F600 X6.310 Y14.255
G01 F600 X6.326 Y14.258
G01 F600 X6.511 Y14.340
G01 F600 X6.674 Y14.459
G01 F600 X6.809 Y14.610
G01 F600 X6.911 Y14.785
G01 F600 X6.973 Y14.977
G01 F600 X6.993 Y15.167
G01 F600 X6.993 Y16.713
G01 F600 X6.973 Y16.903
G01 F600 X6.911 Y17.095
G01 F600 X6.809 Y17.271
G01 F600 X6.674 Y17.421
G01 F600 X6.511 Y17.540
G01 F600 X6.323 Y17.623
G01 F600 X6.287 Y17.630
G01 F600 X6.310 Y23.645
G01 F600 X6.326 Y23.648
G01 F600 X6.511 Y23.730
G01 F600 X6.674 Y23.849
G01 F600 X6.809 Y24.000
G01 F600 X6.911 Y24.175
G01 F600 X6.973 Y24.367
G01 F600 X6.993 Y24.557
G01 F600 X6.993 Y26.103
G01 F600 X6.973 Y26.293
G01 F600 X6.911 Y26.485
G01 F600 X6.809 Y26.661
G01 F600 X6.674 Y26.811
G01 F600 X6.511 Y26.930
G01 F600 X6.326 Y27.012
G01 F600 X6.128 Y27.054
G01 F600 X5.926 Y27.054
G00 F3000 Z3.000
G00 F3000 X25.021 Y26.927
G00 F1500 Z0
G01 F600 Z-0.110
G01 F600 X24.903 Y26.902
G01 F600 X24.792 Y26.852
G01 F600 X24.698 Y26.784
G01 F600 X21.583 Y23.669
G01 F600 X21.513 Y23.591
G01 F600 X21.452 Y23.486
G01 F600 X21.415 Y23.371
G01 F600 X21.403 Y23.261
G01 F600 X21.267 Y23.261
G01 F600 X21.090 Y23.224
G01 F600 X20.924 Y23.150
G01 F600 X20.778 Y23.044
G01 F600 X20.657 Y22.909
G01 F600 X20.566 Y22.752
G01 F600 X20.510 Y22.580
G01 F600 X20.493 Y22.411
G01 F600 X20.493 Y21.069
G01 F600 X20.510 Y20.900
G01 F600 X20.566 Y20.728
G01 F600 X20.657 Y20.571
G01 F600 X20.778 Y20.436
G01 F600 X20.924 Y20.330
G01 F600 X21.090 Y20.257
G01 F600 X21.267 Y20.219
G01 F600 X21.448 Y20.219
G01 F600 X21.625 Y20.257
G01 F600 X21.790 Y20.330
G01 F600 X21.936 Y20.436
G01 F600 X22.057 Y20.571
G01 F600 X22.148 Y20.728
G01 F600 X22.204 Y20.900
G01 F600 X22.221 Y21.069
G01 F600 X22.221 Y21.864
G01 F600 X22.453 Y22.137
G01 F600 X22.512 Y22.239
G01 F600 X22.550 Y22.354
G01 F600 X22.561 Y22.464
G01 F600 X22.561 Y23.011
G01 F600 X25.323 Y25.773
G01 F600 X41.891 Y25.773
G01 F600 X49.668 Y17.996
G01 F600 X49.548 Y17.909
G01 F600 X49.413 Y17.759
G01 F600 X49.311 Y17.583
G01 F600 X49.249 Y17.391
G01 F600 X49.228 Y17.190
G01 F600 X49.249 Y16.989
G01 F600 X49.311 Y16.797
G01 F600 X49.413 Y16.622
G01 F600 X49.548 Y16.471
G01 F600 X49.711 Y16.352
G01 F600 X49.896 Y16.270
G01 F600 X50.094 Y16.228
G01 F600 X51.820 Y16.228
G01 F600 X52.018 Y16.270
G01 F600 X52.203 Y16.352
G01 F600 X52.366 Y16.471
G01 F600 X52.501 Y16.622
G01 F600 X52.603 Y16.797
G01 F600 X52.665 Y16.989
G01 F600 X52.686 Y17.190
G01 F600 X52.665 Y17.391
G01 F600 X52.603 Y17.583
G01 F600 X52.501 Y17.759
G01 F600 X52.366 Y17.909
G01 F600 X52.203 Y18.028
G01 F600 X52.018 Y18.110
G01 F600 X51.820 Y18.152
G01 F600 X51.135 Y18.152
G01 F600 X51.126 Y18.166
G01 F600 X51.056 Y18.244
G01 F600 X42.516 Y26.784
G01 F600 X42.422 Y26.852
G01 F600 X42.311 Y26.902
G01 F600 X42.193 Y26.927
G01 F600 X25.021 Y26.927
G00 F3000 Z3.000
G00 F3000 X25.796 Y25.377
G00 F1500 Z0
G01 F600 Z-0.110
G01 F600 X25.678 Y25.352
G01 F600 X25.567 Y25.302
G01 F600 X25.473 Y25.234
G01 F600 X23.908 Y23.669
G01 F600 X23.838 Y23.591
G01 F600 X23.777 Y23.486
G01 F600 X23.739 Y23.371
G01 F600 X23.728 Y23.261
G01 F600 X23.728 Y23.245
G01 F600 X23.630 Y23.224
G01 F600 X23.464 Y23.150
G01 F600 X23.318 Y23.044
G01 F600 X23.197 Y22.909
G01 F600 X23.106 Y22.752
G01 F600 X23.050 Y22.580
G01 F600 X23.033 Y22.411
G01 F600 X23.033 Y21.069
G01 F600 X23.050 Y20.900
G01 F600 X23.106 Y20.728
G01 F600 X23.197 Y20.571
G01 F600 X23.318 Y20.436
G01 F600 X23.464 Y20.330
G01 F600 X23.630 Y20.257
G01 F600 X23.806 Y20.219
G01 F600 X23.988 Y20.219
G01 F600 X24.165 Y20.257
G01 F600 X24.330 Y20.330
G01 F600 X24.476 Y20.436
G01 F600 X24.597 Y20.571
G01 F600 X24.688 Y20.728
G01 F600 X24.744 Y20.900
G01 F600 X24.761 Y21.069
G01 F600 X24.761 Y22.104
G01 F600 X24.838 Y22.241
G01 F600 X24.875 Y22.354
G01 F600 X24.886 Y22.464
G01 F600 X24.886 Y23.011
G01 F600 X26.098 Y24.223
G01 F600 X39.566 Y24.223
G01 F600 X49.238 Y14.551
G01 F600 X49.249 Y14.449
G01 F600 X49.311 Y14.257
G01 F600 X49.413 Y14.082
G01 F600 X49.548 Y13.931
G01 F600 X49.711 Y13.812
G01 F600 X49.896 Y13.730
G01 F600 X50.094 Y13.688
G01 F600 X50.101 Y13.688
G01 F600 X50.273 Y13.516
G01 F600 X50.367 Y13.448
G01 F600 X50.478 Y13.398
G01 F600 X50.596 Y13.373
G01 F600 X50.718 Y13.373
G01 F600 X50.836 Y13.398
G01 F600 X50.947 Y13.448
G01 F600 X51.045 Y13.519
G01 F600 X52.403 Y12.161
G01 F600 X52.403 Y4.889
G01 F600 X50.416 Y2.902
G01 F600 X42.373 Y2.902
G01 F600 X32.636 Y12.639
G01 F600 X32.636 Y13.961
G01 F600 X32.625 Y14.071
G01 F600 X32.587 Y14.186
G01 F600 X32.526 Y14.291
G01 F600 X32.445 Y14.381
G01 F600 X32.381 Y14.428
G01 F600 X32.381 Y14.791
G01 F600 X32.364 Y14.960
G01 F600 X32.308 Y15.132
G01 F600 X32.217 Y15.289
G01 F600 X32.096 Y15.424
G01 F600 X31.950 Y15.530
G01 F600 X31.785 Y15.604
G01 F600 X31.608 Y15.641
G01 F600 X31.427 Y15.641
G01 F600 X31.250 Y15.604
G01 F600 X31.084 Y15.530
G01 F600 X30.938 Y15.424
G01 F600 X30.817 Y15.289
G01 F600 X30.726 Y15.132
G01 F600 X30.670 Y14.960
G01 F600 X30.653 Y14.791
G01 F600 X30.653 Y13.449
G01 F600 X30.670 Y13.280
G01 F600 X30.726 Y13.108
G01 F600 X30.817 Y12.951
G01 F600 X30.938 Y12.816
G01 F600 X31.084 Y12.710
G01 F600 X31.250 Y12.636
G01 F600 X31.427 Y12.599
G01 F600 X31.478 Y12.599
G01 F600 X31.478 Y12.389
G01 F600 X31.490 Y12.279
G01 F600 X31.527 Y12.164
G01 F600 X31.588 Y12.059
G01 F600 X31.658 Y11.981
G01 F600 X41.748 Y1.891
G01 F600 X41.842 Y1.823
G01 F600 X41.953 Y1.773
G01 F600 X42.071 Y1.748
G01 F600 X50.718 Y1.748
G01 F600 X50.836 Y1.773
G01 F600 X50.947 Y1.823
G01 F600 X51.041 Y1.891
G01 F600 X53.381 Y4.231
G01 F600 X53.451 Y4.309
G01 F600 X53.512 Y4.414
G01 F600 X53.550 Y4.529
G01 F600 X53.561 Y4.639
G01 F600 X53.561 Y12.411
G01 F600 X53.550 Y12.521
G01 F600 X53.512 Y12.636
G01 F600 X53.451 Y12.741
G01 F600 X53.381 Y12.819
G01 F600 X52.310 Y13.890
G01 F600 X52.366 Y13.931
G01 F600 X52.501 Y14.082
G01 F600 X52.603 Y14.257
G01 F600 X52.665 Y14.449
G01 F600 X52.686 Y14.650
G01 F600 X52.665 Y14.851
G01 F600 X52.603 Y15.043
G01 F600 X52.501 Y15.219
G01 F600 X52.366 Y15.369
G01 F600 X52.203 Y15.488
G01 F600 X52.018 Y15.570
G01 F600 X51.820 Y15.612
G01 F600 X50.094 Y15.612
G01 F600 X49.896 Y15.570
G01 F600 X49.868 Y15.557
G01 F600 X40.191 Y25.234
G01 F600 X40.097 Y25.302
G01 F600 X39.986 Y25.352
G01 F600 X39.868 Y25.377
G01 F600 X25.796 Y25.377
G00 F3000 Z3.000
G00 F3000 X28.887 Y23.261
G00 F1500 Z0
G01 F600 Z-0.110
G01 F600 X28.710 Y23.224
G01 F600 X28.544 Y23.150
G01 F600 X28.398 Y23.044
G01 F600 X28.277 Y22.909
G01 F600 X28.186 Y22.752
G01 F600 X28.130 Y22.580
G01 F600 X28.113 Y22.411
G01 F600 X28.113 Y21.069
G01 F600 X28.130 Y20.900
G01 F600 X28.186 Y20.728
G01 F600 X28.277 Y20.571
G01 F600 X28.398 Y20.436
G01 F600 X28.544 Y20.330
G01 F600 X28.710 Y20.257
G01 F600 X28.887 Y20.219
G01 F600 X29.068 Y20.219
G01 F600 X29.245 Y20.257
G01 F600 X29.410 Y20.330
G01 F600 X29.556 Y20.436
G01 F600 X29.677 Y20.571
G01 F600 X29.768 Y20.728
G01 F600 X29.824 Y20.900
G01 F600 X29.841 Y21.069
G01 F600 X29.841 Y21.123
G01 F600 X30.653 Y21.123
G01 F600 X30.653 Y21.069
G01 F600 X30.670 Y20.900
G01 F600 X30.726 Y20.728
G01 F600 X30.817 Y20.571
G01 F600 X30.938 Y20.436
G01 F600 X31.084 Y20.330
G01 F600 X31.250 Y20.257
G01 F600 X31.427 Y20.219
G01 F600 X31.608 Y20.219
G01 F600 X31.785 Y20.257
G01 F600 X31.950 Y20.330
G01 F600 X32.096 Y20.436
G01 F600 X32.217 Y20.571
G01 F600 X32.308 Y20.728
G01 F600 X32.364 Y20.900
G01 F600 X32.381 Y21.069
G01 F600 X32.381 Y21.123
G01 F600 X32.591 Y21.123
G01 F600 X35.548 Y18.166
G01 F600 X35.642 Y18.098
G01 F600 X35.753 Y18.048
G01 F600 X35.871 Y18.023
G01 F600 X40.341 Y18.023
G01 F600 X48.528 Y9.836
G01 F600 X48.528 Y8.672
G01 F600 X48.516 Y8.670
G01 F600 X48.331 Y8.588
G01 F600 X48.168 Y8.469
G01 F600 X48.033 Y8.319
G01 F600 X47.931 Y8.143
G01 F600 X47.869 Y7.951
G01 F600 X47.848 Y7.750
G01 F600 X47.869 Y7.549
G01 F600 X47.931 Y7.357
G01 F600 X48.033 Y7.182
G01 F600 X48.168 Y7.031
G01 F600 X48.331 Y6.912
G01 F600 X48.516 Y6.830
G01 F600 X48.714 Y6.788
G01 F600 X50.440 Y6.788
G01 F600 X50.638 Y6.830
G01 F600 X50.823 Y6.912
G01 F600 X50.986 Y7.031
G01 F600 X51.121 Y7.182
G01 F600 X51.223 Y7.357
G01 F600 X51.285 Y7.549
G01 F600 X51.306 Y7.750
G01 F600 X51.285 Y7.951
G01 F600 X51.223 Y8.143
G01 F600 X51.121 Y8.319
G01 F600 X50.986 Y8.469
G01 F600 X50.823 Y8.588
G01 F600 X50.638 Y8.670
G01 F600 X50.440 Y8.712
G01 F600 X49.686 Y8.712
G01 F600 X49.686 Y10.086
G01 F600 X49.675 Y10.196
G01 F600 X49.637 Y10.311
G01 F600 X49.576 Y10.416
G01 F600 X49.506 Y10.494
G01 F600 X40.966 Y19.034
G01 F600 X40.872 Y19.102
G01 F600 X40.761 Y19.152
G01 F600 X40.643 Y19.177
G01 F600 X36.174 Y19.177
G01 F600 X34.774 Y20.600
G01 F600 X34.848 Y20.728
G01 F600 X34.904 Y20.900
G01 F600 X34.921 Y21.069
G01 F600 X34.921 Y22.411
G01 F600 X34.904 Y22.580
G01 F600 X34.848 Y22.752
G01 F600 X34.757 Y22.909
G01 F600 X34.636 Y23.044
G01 F600 X34.490 Y23.150
G01 F600 X34.325 Y23.224
G01 F600 X34.148 Y23.261
G01 F600 X33.967 Y23.261
G01 F600 X33.790 Y23.224
G01 F600 X33.624 Y23.150
G01 F600 X33.478 Y23.044
G01 F600 X33.357 Y22.909
G01 F600 X33.266 Y22.752
G01 F600 X33.210 Y22.580
G01 F600 X33.193 Y22.411
G01 F600 X33.193 Y22.277
G01 F600 X32.381 Y22.277
G01 F600 X32.381 Y22.411
G01 F600 X32.364 Y22.580
G01 F600 X32.308 Y22.752
G01 F600 X32.217 Y22.909
G01 F600 X32.096 Y23.044
G01 F600 X31.950 Y23.150
G01 F600 X31.785 Y23.224
G01 F600 X31.608 Y23.261
G01 F600 X31.427 Y23.261
G01 F600 X31.250 Y23.224
G01 F600 X31.084 Y23.150
G01 F600 X30.938 Y23.044
G01 F600 X30.817 Y22.909
G01 F600 X30.726 Y22.752
G01 F600 X30.670 Y22.580
G01 F600 X30.653 Y22.411
G01 F600 X30.653 Y22.277
G01 F600 X29.841 Y22.277
G01 F600 X29.841 Y22.411
G01 F600 X29.824 Y22.580
G01 F600 X29.768 Y22.752
G01 F600 X29.677 Y22.909
G01 F600 X29.556 Y23.044
G01 F600 X29.410 Y23.150
G01 F600 X29.245 Y23.224
G01 F600 X29.068 Y23.261
G01 F600 X28.887 Y23.261
G00 F3000 Z3.000
G00 F3000 X26.347 Y23.261
G00 F1500 Z0
G01 F600 Z-0.110
G01 F600 X26.170 Y23.224
G01 F600 X26.004 Y23.150
G01 F600 X25.858 Y23.044
G01 F600 X25.737 Y22.909
G01 F600 X25.646 Y22.752
G01 F600 X25.590 Y22.580
G01 F600 X25.573 Y22.411
G01 F600 X25.573 Y21.069
G01 F600 X25.590 Y20.900
G01 F600 X25.646 Y20.728
G01 F600 X25.737 Y20.571
G01 F600 X25.858 Y20.436
G01 F600 X26.007 Y20.328
G01 F600 X26.053 Y20.309
G01 F600 X26.053 Y20.139
G01 F600 X26.065 Y20.029
G01 F600 X26.102 Y19.914
G01 F600 X26.163 Y19.809
G01 F600 X26.233 Y19.731
G01 F600 X27.798 Y18.166
G01 F600 X27.892 Y18.098
G01 F600 X28.003 Y18.048
G01 F600 X28.121 Y18.023
G01 F600 X33.366 Y18.023
G01 F600 X34.773 Y16.616
G01 F600 X34.867 Y16.548
G01 F600 X34.978 Y16.498
G01 F600 X35.096 Y16.473
G01 F600 X39.566 Y16.473
G01 F600 X46.203 Y9.836
G01 F600 X46.203 Y6.964
G01 F600 X46.215 Y6.854
G01 F600 X46.252 Y6.739
G01 F600 X46.313 Y6.634
G01 F600 X46.383 Y6.556
G01 F600 X47.862 Y5.077
G01 F600 X47.869 Y5.009
G01 F600 X47.931 Y4.817
G01 F600 X48.033 Y4.642
G01 F600 X48.168 Y4.491
G01 F600 X48.331 Y4.372
G01 F600 X48.516 Y4.290
G01 F600 X48.684 Y4.255
G01 F600 X48.723 Y4.216
G01 F600 X48.817 Y4.148
G01 F600 X48.928 Y4.098
G01 F600 X49.046 Y4.073
G01 F600 X49.168 Y4.073
G01 F600 X49.286 Y4.098
G01 F600 X49.397 Y4.148
G01 F600 X49.495 Y4.219
G01 F600 X49.522 Y4.248
G01 F600 X50.440 Y4.248
G01 F600 X50.638 Y4.290
G01 F600 X50.823 Y4.372
G01 F600 X50.986 Y4.491
G01 F600 X51.121 Y4.642
G01 F600 X51.223 Y4.817
G01 F600 X51.285 Y5.009
G01 F600 X51.306 Y5.210
G01 F600 X51.285 Y5.411
G01 F600 X51.223 Y5.603
G01 F600 X51.121 Y5.779
G01 F600 X50.986 Y5.929
G01 F600 X50.823 Y6.048
G01 F600 X50.638 Y6.130
G01 F600 X50.440 Y6.172
G01 F600 X48.714 Y6.172
G01 F600 X48.515 Y6.130
G01 F600 X48.467 Y6.108
G01 F600 X47.361 Y7.214
G01 F600 X47.361 Y10.086
G01 F600 X47.349 Y10.196
G01 F600 X47.312 Y10.311
G01 F600 X47.251 Y10.416
G01 F600 X47.181 Y10.494
G01 F600 X40.191 Y17.484
G01 F600 X40.097 Y17.552
G01 F600 X39.986 Y17.602
G01 F600 X39.868 Y17.627
G01 F600 X35.398 Y17.627
G01 F600 X33.991 Y19.034
G01 F600 X33.897 Y19.102
G01 F600 X33.786 Y19.152
G01 F600 X33.668 Y19.177
G01 F600 X28.423 Y19.177
G01 F600 X27.211 Y20.389
G01 F600 X27.211 Y20.699
G01 F600 X27.228 Y20.728
G01 F600 X27.284 Y20.900
G01 F600 X27.301 Y21.069
G01 F600 X27.301 Y22.411
G01 F600 X27.284 Y22.580
G01 F600 X27.228 Y22.752
G01 F600 X27.137 Y22.909
G01 F600 X27.016 Y23.044
G01 F600 X26.870 Y23.150
G01 F600 X26.705 Y23.224
G01 F600 X26.527 Y23.261
G01 F600 X26.347 Y23.261
G00 F3000 Z3.000
G00 F3000 X36.507 Y23.261
G00 F1500 Z0
G01 F600 Z-0.110
G01 F600 X36.330 Y23.224
G01 F600 X36.164 Y23.150
G01 F600 X36.018 Y23.044
G01 F600 X35.897 Y22.909
G01 F600 X35.806 Y22.752
G01 F600 X35.750 Y22.580
G01 F600 X35.733 Y22.411
G01 F600 X35.733 Y21.069
G01 F600 X35.750 Y20.900
G01 F600 X35.806 Y20.728
G01 F600 X35.897 Y20.571
G01 F600 X36.018 Y20.436
G01 F600 X36.164 Y20.330
G01 F600 X36.330 Y20.257
G01 F600 X36.507 Y20.219
G01 F600 X36.688 Y20.219
G01 F600 X36.864 Y20.257
G01 F600 X37.030 Y20.330
G01 F600 X37.176 Y20.436
G01 F600 X37.297 Y20.571
G01 F600 X37.388 Y20.728
G01 F600 X37.444 Y20.900
G01 F600 X37.461 Y21.069
G01 F600 X37.461 Y22.411
G01 F600 X37.444 Y22.580
G01 F600 X37.388 Y22.752
G01 F600 X37.297 Y22.909
G01 F600 X37.176 Y23.044
G01 F600 X37.030 Y23.150
G01 F600 X36.864 Y23.224
G01 F600 X36.688 Y23.261
G01 F600 X36.507 Y23.261
G00 F3000 Z3.000
G00 F3000 X39.047 Y23.261
G00 F1500 Z0
G01 F600 Z-0.110
G01 F600 X38.870 Y23.224
G01 F600 X38.704 Y23.150
G01 F600 X38.558 Y23.044
G01 F600 X38.437 Y22.909
G01 F600 X38.346 Y22.752
G01 F600 X38.290 Y22.580
G01 F600 X38.273 Y22.411
G01 F600 X38.273 Y21.069
G01 F600 X38.290 Y20.900
G01 F600 X38.346 Y20.728
G01 F600 X38.437 Y20.571
G01 F600 X38.558 Y20.436
G01 F600 X38.704 Y20.330
G01 F600 X38.870 Y20.257
G01 F600 X39.047 Y20.219
G01 F600 X39.227 Y20.219
G01 F600 X39.404 Y20.257
G01 F600 X39.570 Y20.330
G01 F600 X39.716 Y20.436
G01 F600 X39.837 Y20.571
G01 F600 X39.928 Y20.728
G01 F600 X39.984 Y20.900
G01 F600 X40.001 Y21.069
G01 F600 X40.001 Y22.411
G01 F600 X39.984 Y22.580
G01 F600 X39.928 Y22.752
G01 F600 X39.837 Y22.909
G01 F600 X39.716 Y23.044
G01 F600 X39.570 Y23.150
G01 F600 X39.404 Y23.224
G01 F600 X39.227 Y23.261
G01 F600 X39.047 Y23.261
G00 F3000 Z3.000
G00 F3000 X16.187 Y15.641
G00 F1500 Z0
G01 F600 Z-0.110
G01 F600 X16.009 Y15.604
G01 F600 X15.844 Y15.530
G01 F600 X15.698 Y15.424
G01 F600 X15.577 Y15.289
G01 F600 X15.486 Y15.132
G01 F600 X15.430 Y14.960
G01 F600 X15.413 Y14.791
G01 F600 X15.413 Y13.449
G01 F600 X15.430 Y13.280
G01 F600 X15.486 Y13.108
G01 F600 X15.577 Y12.951
G01 F600 X15.698 Y12.816
G01 F600 X15.844 Y12.710
G01 F600 X15.978 Y12.651
G01 F600 X15.978 Y12.389
G01 F600 X15.990 Y12.279
G01 F600 X16.027 Y12.164
G01 F600 X16.088 Y12.059
G01 F600 X16.158 Y11.981
G01 F600 X21.598 Y6.541
G01 F600 X21.692 Y6.473
G01 F600 X21.803 Y6.423
G01 F600 X21.921 Y6.398
G01 F600 X25.891 Y6.398
G01 F600 X25.891 Y5.577
G01 F600 X25.911 Y5.387
G01 F600 X25.973 Y5.195
G01 F600 X26.075 Y5.019
G01 F600 X26.210 Y4.869
G01 F600 X26.373 Y4.750
G01 F600 X26.558 Y4.668
G01 F600 X26.756 Y4.626
G01 F600 X26.958 Y4.626
G01 F600 X27.156 Y4.668
G01 F600 X27.341 Y4.750
G01 F600 X27.504 Y4.869
G01 F600 X27.639 Y5.019
G01 F600 X27.741 Y5.195
G01 F600 X27.803 Y5.387
G01 F600 X27.823 Y5.577
G01 F600 X27.823 Y7.123
G01 F600 X27.803 Y7.313
G01 F600 X27.741 Y7.505
G01 F600 X27.639 Y7.681
G01 F600 X27.504 Y7.831
G01 F600 X27.341 Y7.950
G01 F600 X27.156 Y8.032
G01 F600 X26.958 Y8.074
G01 F600 X26.756 Y8.074
G01 F600 X26.558 Y8.032
G01 F600 X26.373 Y7.950
G01 F600 X26.210 Y7.831
G01 F600 X26.075 Y7.681
G01 F600 X26.000 Y7.552
G01 F600 X22.223 Y7.552
G01 F600 X17.136 Y12.639
G01 F600 X17.136 Y13.398
G01 F600 X17.141 Y13.449
G01 F600 X17.141 Y14.791
G01 F600 X17.124 Y14.960
G01 F600 X17.068 Y15.132
G01 F600 X16.977 Y15.289
G01 F600 X16.856 Y15.424
G01 F600 X16.710 Y15.530
G01 F600 X16.544 Y15.604
G01 F600 X16.367 Y15.641
G01 F600 X16.187 Y15.641
G00 F3000 Z3.000
G00 F3000 X18.727 Y15.641
G00 F1500 Z0
G01 F600 Z-0.110
G01 F600 X18.550 Y15.604
G01 F600 X18.384 Y15.530
G01 F600 X18.238 Y15.424
G01 F600 X18.117 Y15.289
G01 F600 X18.026 Y15.132
G01 F600 X17.970 Y14.960
G01 F600 X17.953 Y14.791
G01 F600 X17.953 Y13.449
G01 F600 X17.970 Y13.280
G01 F600 X18.026 Y13.108
G01 F600 X18.117 Y12.951
G01 F600 X18.238 Y12.816
G01 F600 X18.384 Y12.710
G01 F600 X18.550 Y12.636
G01 F600 X18.727 Y12.599
G01 F600 X18.908 Y12.599
G01 F600 X19.085 Y12.636
G01 F600 X19.250 Y12.710
G01 F600 X19.396 Y12.816
G01 F600 X19.517 Y12.951
G01 F600 X19.608 Y13.108
G01 F600 X19.664 Y13.280
G01 F600 X19.674 Y13.373
G01 F600 X20.501 Y13.373
G01 F600 X20.510 Y13.280
G01 F600 X20.566 Y13.108
G01 F600 X20.657 Y12.951
G01 F600 X20.778 Y12.816
G01 F600 X20.924 Y12.710
G01 F600 X21.090 Y12.636
G01 F600 X21.267 Y12.599
G01 F600 X21.448 Y12.599
G01 F600 X21.625 Y12.636
G01 F600 X21.790 Y12.710
G01 F600 X21.936 Y12.816
G01 F600 X22.057 Y12.951
G01 F600 X22.148 Y13.108
G01 F600 X22.204 Y13.280
G01 F600 X22.221 Y13.449
G01 F600 X22.221 Y14.791
G01 F600 X22.204 Y14.960
G01 F600 X22.148 Y15.132
G01 F600 X22.057 Y15.289
G01 F600 X21.936 Y15.424
G01 F600 X21.790 Y15.530
G01 F600 X21.625 Y15.604
G01 F600 X21.448 Y15.641
G01 F600 X21.267 Y15.641
G01 F600 X21.090 Y15.604
G01 F600 X20.924 Y15.530
G01 F600 X20.778 Y15.424
G01 F600 X20.657 Y15.289
G01 F600 X20.566 Y15.132
G01 F600 X20.510 Y14.960
G01 F600 X20.493 Y14.791
G01 F600 X20.493 Y14.527
G01 F600 X19.681 Y14.527
G01 F600 X19.681 Y14.791
G01 F600 X19.664 Y14.960
G01 F600 X19.608 Y15.132
G01 F600 X19.517 Y15.289
G01 F600 X19.396 Y15.424
G01 F600 X19.250 Y15.530
G01 F600 X19.085 Y15.604
G01 F600 X18.908 Y15.641
G01 F600 X18.727 Y15.641
G00 F3000 Z3.000
G00 F3000 X36.507 Y15.641
G00 F1500 Z0
G01 F600 Z-0.110
G01 F600 X36.330 Y15.604
G01 F600 X36.164 Y15.530
G01 F600 X36.018 Y15.424
G01 F600 X35.897 Y15.289
G01 F600 X35.806 Y15.132
G01 F600 X35.750 Y14.960
G01 F600 X35.733 Y14.791
G01 F600 X35.733 Y13.449
G01 F600 X35.750 Y13.280
G01 F600 X35.806 Y13.108
G01 F600 X35.897 Y12.951
G01 F600 X36.018 Y12.816
G01 F600 X36.164 Y12.710
G01 F600 X36.330 Y12.636
G01 F600 X36.507 Y12.599
G01 F600 X36.688 Y12.599
G01 F600 X36.864 Y12.636
G01 F600 X37.030 Y12.710
G01 F600 X37.176 Y12.816
G01 F600 X37.297 Y12.951
G01 F600 X37.388 Y13.108
G01 F600 X37.444 Y13.280
G01 F600 X37.461 Y13.449
G01 F600 X37.461 Y14.791
G01 F600 X37.444 Y14.960
G01 F600 X37.388 Y15.132
G01 F600 X37.297 Y15.289
G01 F600 X37.176 Y15.424
G01 F600 X37.030 Y15.530
G01 F600 X36.864 Y15.604
G01 F600 X36.688 Y15.641
G01 F600 X36.507 Y15.641
G00 F3000 Z3.000
G00 F3000 X39.047 Y15.641
G00 F1500 Z0
G01 F600 Z-0.110
G01 F600 X38.870 Y15.604
G01 F600 X38.704 Y15.530
G01 F600 X38.558 Y15.424
G01 F600 X38.437 Y15.289
G01 F600 X38.346 Y15.132
G01 F600 X38.290 Y14.960
G01 F600 X38.273 Y14.791
G01 F600 X38.273 Y13.449
G01 F600 X38.290 Y13.280
G01 F600 X38.346 Y13.108
G01 F600 X38.437 Y12.951
G01 F600 X38.558 Y12.816
G01 F600 X38.704 Y12.710
G01 F600 X38.870 Y12.636
G01 F600 X39.047 Y12.599
G01 F600 X39.227 Y12.599
G01 F600 X39.404 Y12.636
G01 F600 X39.570 Y12.710
G01 F600 X39.716 Y12.816
G01 F600 X39.837 Y12.951
G01 F600 X39.928 Y13.108
G01 F600 X39.984 Y13.280
G01 F600 X40.001 Y13.449
G01 F600 X40.001 Y14.791
G01 F600 X39.984 Y14.960
G01 F600 X39.928 Y15.132
G01 F600 X39.837 Y15.289
G01 F600 X39.716 Y15.424
G01 F600 X39.570 Y15.530
G01 F600 X39.404 Y15.604
G01 F600 X39.227 Y15.641
G01 F600 X39.047 Y15.641
G00 F3000 Z3.000
G00 F3000 X23.806 Y15.641
G00 F1500 Z0
G01 F600 Z-0.110
G01 F600 X23.630 Y15.604
G01 F600 X23.464 Y15.530
G01 F600 X23.318 Y15.424
G01 F600 X23.197 Y15.289
G01 F600 X23.106 Y15.132
G01 F600 X23.050 Y14.960
G01 F600 X23.033 Y14.791
G01 F600 X23.033 Y13.449
G01 F600 X23.050 Y13.280
G01 F600 X23.106 Y13.108
G01 F600 X23.197 Y12.951
G01 F600 X23.318 Y12.816
G01 F600 X23.464 Y12.710
G01 F600 X23.630 Y12.636
G01 F600 X23.806 Y12.599
G01 F600 X23.988 Y12.599
G01 F600 X24.165 Y12.636
G01 F600 X24.330 Y12.710
G01 F600 X24.476 Y12.816
G01 F600 X24.597 Y12.951
G01 F600 X24.688 Y13.108
G01 F600 X24.744 Y13.280
G01 F600 X24.754 Y13.373
G01 F600 X25.581 Y13.373
G01 F600 X25.590 Y13.280
G01 F600 X25.646 Y13.108
G01 F600 X25.737 Y12.951
G01 F600 X25.858 Y12.816
G01 F600 X26.004 Y12.710
G01 F600 X26.170 Y12.636
G01 F600 X26.347 Y12.599
G01 F600 X26.527 Y12.599
G01 F600 X26.705 Y12.636
G01 F600 X26.870 Y12.710
G01 F600 X27.016 Y12.816
G01 F600 X27.137 Y12.951
G01 F600 X27.228 Y13.108
G01 F600 X27.284 Y13.280
G01 F600 X27.301 Y13.449
G01 F600 X27.301 Y14.791
G01 F600 X27.284 Y14.960
G01 F600 X27.228 Y15.132
G01 F600 X27.137 Y15.289
G01 F600 X27.016 Y15.424
G01 F600 X26.870 Y15.530
G01 F600 X26.705 Y15.604
G01 F600 X26.527 Y15.641
G01 F600 X26.347 Y15.641
G01 F600 X26.170 Y15.604
G01 F600 X26.004 Y15.530
G01 F600 X25.858 Y15.424
G01 F600 X25.737 Y15.289
G01 F600 X25.646 Y15.132
G01 F600 X25.590 Y14.960
G01 F600 X25.573 Y14.791
G01 F600 X25.573 Y14.527
G01 F600 X24.761 Y14.527
G01 F600 X24.761 Y14.791
G01 F600 X24.744 Y14.960
G01 F600 X24.688 Y15.132
G01 F600 X24.597 Y15.289
G01 F600 X24.476 Y15.424
G01 F600 X24.330 Y15.530
G01 F600 X24.165 Y15.604
G01 F600 X23.988 Y15.641
G01 F600 X23.806 Y15.641
G00 F3000 Z3.000
G00 F3000 X28.887 Y15.641
G00 F1500 Z0
G01 F600 Z-0.110
G01 F600 X28.710 Y15.604
G01 F600 X28.544 Y15.530
G01 F600 X28.398 Y15.424
G01 F600 X28.277 Y15.289
G01 F600 X28.186 Y15.132
G01 F600 X28.130 Y14.960
G01 F600 X28.113 Y14.791
G01 F600 X28.113 Y13.449
G01 F600 X28.130 Y13.280
G01 F600 X28.186 Y13.108
G01 F600 X28.277 Y12.951
G01 F600 X28.378 Y12.838
G01 F600 X28.378 Y6.964
G01 F600 X28.390 Y6.854
G01 F600 X28.427 Y6.739
G01 F600 X28.431 Y6.732
G01 F600 X28.431 Y5.577
G01 F600 X28.451 Y5.387
G01 F600 X28.513 Y5.195
G01 F600 X28.615 Y5.019
G01 F600 X28.750 Y4.869
G01 F600 X28.913 Y4.750
G01 F600 X29.098 Y4.668
G01 F600 X29.296 Y4.626
G01 F600 X29.498 Y4.626
G01 F600 X29.696 Y4.668
G01 F600 X29.881 Y4.750
G01 F600 X30.044 Y4.869
G01 F600 X30.179 Y5.019
G01 F600 X30.281 Y5.195
G01 F600 X30.343 Y5.387
G01 F600 X30.363 Y5.577
G01 F600 X30.363 Y7.123
G01 F600 X30.343 Y7.313
G01 F600 X30.281 Y7.505
G01 F600 X30.179 Y7.681
G01 F600 X30.044 Y7.831
G01 F600 X29.881 Y7.950
G01 F600 X29.696 Y8.032
G01 F600 X29.536 Y8.066
G01 F600 X29.536 Y12.802
G01 F600 X29.556 Y12.816
G01 F600 X29.677 Y12.951
G01 F600 X29.768 Y13.108
G01 F600 X29.824 Y13.280
G01 F600 X29.841 Y13.449
G01 F600 X29.841 Y14.791
G01 F600 X29.824 Y14.960
G01 F600 X29.768 Y15.132
G01 F600 X29.677 Y15.289
G01 F600 X29.556 Y15.424
G01 F600 X29.410 Y15.530
G01 F600 X29.245 Y15.604
G01 F600 X29.068 Y15.641
G01 F600 X28.887 Y15.641
G00 F3000 Z3.000
G00 F3000 X10.498 Y3.207
G00 F1500 Z0
G01 F600 Z-0.110
G01 F600 X10.380 Y3.195
G01 F600 X10.277 Y3.135
G01 F600 X10.208 Y3.040
G01 F600 X10.188 Y2.945
G01 F600 X10.188 Y1.277
G01 F600 X10.208 Y1.182
G01 F600 X10.277 Y1.087
G01 F600 X10.380 Y1.027
G01 F600 X10.498 Y1.015
G01 F600 X10.610 Y1.052
G01 F600 X10.707 Y1.139
G01 F600 X10.748 Y1.266
G01 F600 X10.748 Y1.914
G01 F600 X10.770 Y1.877
G01 F600 X10.819 Y1.809
G01 F600 X10.922 Y1.750
G01 F600 X11.040 Y1.738
G01 F600 X11.152 Y1.774
G01 F600 X11.231 Y1.845
G01 F600 X11.271 Y1.913
G01 F600 X11.271 Y1.277
G01 F600 X11.292 Y1.182
G01 F600 X11.361 Y1.087
G01 F600 X11.464 Y1.027
G01 F600 X11.581 Y1.015
G01 F600 X11.694 Y1.052
G01 F600 X11.790 Y1.139
G01 F600 X11.832 Y1.266
G01 F600 X11.830 Y2.983
G01 F600 X11.782 Y3.091
G01 F600 X11.694 Y3.171
G01 F600 X11.581 Y3.207
G01 F600 X11.452 Y3.194
G01 F600 X11.336 Y3.109
G01 F600 X11.010 Y2.565
G01 F600 X10.689 Y3.100
G01 F600 X10.610 Y3.171
G01 F600 X10.498 Y3.207
G00 F3000 Z3.000
G00 F3000 X5.054 Y3.207
G00 F1500 Z0
G01 F600 Z-0.110
G01 F600 X4.937 Y3.195
G01 F600 X4.834 Y3.135
G01 F600 X4.758 Y3.030
G01 F600 X4.744 Y2.896
G01 F600 X5.127 Y1.181
G01 F600 X5.196 Y1.087
G01 F600 X5.298 Y1.027
G01 F600 X5.416 Y1.015
G01 F600 X5.539 Y1.055
G01 F600 X5.636 Y1.162
G01 F600 X5.747 Y1.497
G01 F600 X5.855 Y1.173
G01 F600 X5.918 Y1.087
G01 F600 X6.021 Y1.027
G01 F600 X6.138 Y1.015
G01 F600 X6.251 Y1.052
G01 F600 X6.339 Y1.131
G01 F600 X6.378 Y1.218
G01 F600 X6.748 Y2.885
G01 F600 X6.748 Y2.983
G01 F600 X6.700 Y3.091
G01 F600 X6.612 Y3.171
G01 F600 X6.500 Y3.207
G01 F600 X6.382 Y3.195
G01 F600 X6.269 Y3.130
G01 F600 X6.203 Y3.014
G01 F600 X6.055 Y2.344
G01 F600 X6.012 Y2.472
G01 F600 X5.978 Y2.549
G01 F600 X5.890 Y2.629
G01 F600 X5.777 Y2.665
G01 F600 X5.659 Y2.653
G01 F600 X5.557 Y2.594
G01 F600 X5.494 Y2.507
G01 F600 X5.440 Y2.346
G01 F600 X5.294 Y3.004
G01 F600 X5.255 Y3.091
G01 F600 X5.167 Y3.171
G01 F600 X5.054 Y3.207
G00 F3000 Z3.000
G00 F3000 X17.423 Y3.204
G00 F1500 Z0
G01 F600 Z-0.110
G01 F600 X17.338 Y3.195
G01 F600 X17.235 Y3.135
G01 F600 X17.165 Y3.040
G01 F600 X17.145 Y2.945
G01 F600 X17.145 Y2.812
G01 F600 X17.165 Y2.718
G01 F600 X17.242 Y2.613
G01 F600 X17.282 Y2.595
G01 F600 X17.280 Y2.593
G01 F600 X17.211 Y2.498
G01 F600 X17.191 Y2.403
G01 F600 X17.191 Y1.277
G01 F600 X17.211 Y1.182
G01 F600 X17.280 Y1.087
G01 F600 X17.383 Y1.027
G01 F600 X17.501 Y1.015
G01 F600 X17.613 Y1.052
G01 F600 X17.709 Y1.139
G01 F600 X17.751 Y1.266
G01 F600 X17.749 Y2.441
G01 F600 X17.701 Y2.549
G01 F600 X17.659 Y2.587
G01 F600 X17.755 Y2.674
G01 F600 X17.797 Y2.803
G01 F600 X17.794 Y2.985
G01 F600 X17.746 Y3.091
G01 F600 X17.658 Y3.171
G01 F600 X17.556 Y3.204
G01 F600 X17.423 Y3.204
G00 F3000 Z3.000
G00 F3000 X9.151 Y3.204
G00 F1500 Z0
G01 F600 Z-0.110
G01 F600 X9.104 Y3.201
G01 F600 X9.034 Y3.191
G01 F600 X8.981 Y3.183
G01 F600 X8.907 Y3.157
G01 F600 X8.861 Y3.134
G01 F600 X8.789 Y3.094
G01 F600 X8.749 Y3.065
G01 F600 X8.699 Y3.021
G01 F600 X8.666 Y2.986
G01 F600 X8.610 Y2.913
G01 F600 X8.584 Y2.868
G01 F600 X8.543 Y2.777
G01 F600 X8.521 Y2.689
G01 F600 X8.511 Y2.615
G01 F600 X8.507 Y2.575
G01 F600 X8.507 Y1.655
G01 F600 X8.509 Y1.600
G01 F600 X8.520 Y1.546
G01 F600 X8.533 Y1.486
G01 F600 X8.548 Y1.432
G01 F600 X8.579 Y1.363
G01 F600 X8.605 Y1.320
G01 F600 X8.655 Y1.249
G01 F600 X8.688 Y1.213
G01 F600 X8.737 Y1.167
G01 F600 X8.775 Y1.138
G01 F600 X8.853 Y1.089
G01 F600 X8.897 Y1.069
G01 F600 X8.959 Y1.046
G01 F600 X9.016 Y1.032
G01 F600 X9.077 Y1.024
G01 F600 X9.130 Y1.018
G01 F600 X9.730 Y1.018
G01 F600 X9.832 Y1.052
G01 F600 X9.928 Y1.139
G01 F600 X9.970 Y1.266
G01 F600 X9.968 Y2.261
G01 F600 X9.920 Y2.369
G01 F600 X9.832 Y2.448
G01 F600 X9.730 Y2.481
G01 F600 X9.416 Y2.481
G01 F600 X9.331 Y2.472
G01 F600 X9.228 Y2.413
G01 F600 X9.159 Y2.317
G01 F600 X9.134 Y2.201
G01 F600 X9.159 Y2.086
G01 F600 X9.235 Y1.981
G01 F600 X9.367 Y1.921
G01 F600 X9.410 Y1.921
G01 F600 X9.410 Y1.578
G01 F600 X9.159 Y1.577
G01 F600 X9.131 Y1.581
G01 F600 X9.113 Y1.586
G01 F600 X9.108 Y1.589
G01 F600 X9.093 Y1.599
G01 F600 X9.091 Y1.600
G01 F600 X9.070 Y1.637
G01 F600 X9.068 Y1.646
G01 F600 X9.067 Y1.667
G01 F600 X9.068 Y2.574
G01 F600 X9.069 Y2.580
G01 F600 X9.074 Y2.598
G01 F600 X9.075 Y2.599
G01 F600 X9.103 Y2.629
G01 F600 X9.125 Y2.639
G01 F600 X9.135 Y2.642
G01 F600 X9.162 Y2.644
G01 F600 X9.730 Y2.644
G01 F600 X9.832 Y2.677
G01 F600 X9.920 Y2.756
G01 F600 X9.968 Y2.865
G01 F600 X9.968 Y2.983
G01 F600 X9.920 Y3.091
G01 F600 X9.832 Y3.171
G01 F600 X9.730 Y3.204
G01 F600 X9.151 Y3.204
G00 F3000 Z3.000
G00 F3000 X13.161 Y3.204
G00 F1500 Z0
G01 F600 Z-0.110
G01 F600 X13.075 Y3.195
G01 F600 X12.973 Y3.135
G01 F600 X12.903 Y3.040
G01 F600 X12.883 Y2.945
G01 F600 X12.883 Y1.277
G01 F600 X12.903 Y1.182
G01 F600 X12.979 Y1.078
G01 F600 X13.112 Y1.018
G01 F600 X13.608 Y1.018
G01 F600 X13.643 Y1.019
G01 F600 X13.680 Y1.021
G01 F600 X13.718 Y1.025
G01 F600 X13.754 Y1.031
G01 F600 X13.791 Y1.040
G01 F600 X13.826 Y1.049
G01 F600 X13.863 Y1.061
G01 F600 X13.897 Y1.075
G01 F600 X13.932 Y1.090
G01 F600 X13.964 Y1.107
G01 F600 X13.998 Y1.126
G01 F600 X14.028 Y1.146
G01 F600 X14.059 Y1.168
G01 F600 X14.087 Y1.191
G01 F600 X14.116 Y1.216
G01 F600 X14.142 Y1.243
G01 F600 X14.168 Y1.271
G01 F600 X14.191 Y1.298
G01 F600 X14.213 Y1.329
G01 F600 X14.234 Y1.360
G01 F600 X14.254 Y1.393
G01 F600 X14.271 Y1.424
G01 F600 X14.287 Y1.459
G01 F600 X14.301 Y1.495
G01 F600 X14.313 Y1.531
G01 F600 X14.323 Y1.563
G01 F600 X14.332 Y1.601
G01 F600 X14.338 Y1.639
G01 F600 X14.342 Y1.673
G01 F600 X14.346 Y1.712
G01 F600 X14.347 Y1.747
G01 F600 X14.347 Y2.491
G01 F600 X14.345 Y2.528
G01 F600 X14.340 Y2.566
G01 F600 X14.335 Y2.602
G01 F600 X14.328 Y2.639
G01 F600 X14.318 Y2.675
G01 F600 X14.306 Y2.711
G01 F600 X14.294 Y2.745
G01 F600 X14.279 Y2.780
G01 F600 X14.261 Y2.815
G01 F600 X14.243 Y2.847
G01 F600 X14.225 Y2.876
G01 F600 X14.202 Y2.909
G01 F600 X14.179 Y2.938
G01 F600 X14.154 Y2.967
G01 F600 X14.130 Y2.993
G01 F600 X14.102 Y3.019
G01 F600 X14.072 Y3.043
G01 F600 X14.042 Y3.066
G01 F600 X14.014 Y3.086
G01 F600 X13.981 Y3.106
G01 F600 X13.947 Y3.124
G01 F600 X13.915 Y3.139
G01 F600 X13.881 Y3.154
G01 F600 X13.845 Y3.167
G01 F600 X13.808 Y3.178
G01 F600 X13.774 Y3.186
G01 F600 X13.736 Y3.194
G01 F600 X13.699 Y3.199
G01 F600 X13.661 Y3.203
G01 F600 X13.626 Y3.204
G01 F600 X13.161 Y3.204
G00 F3000 Z3.000
G00 F3000 X7.480 Y3.204
G00 F1500 Z0
G01 F600 Z-0.110
G01 F600 X7.372 Y3.195
G01 F600 X7.324 Y3.185
G01 F600 X7.260 Y3.165
G01 F600 X7.216 Y3.146
G01 F600 X7.134 Y3.103
G01 F600 X7.095 Y3.075
G01 F600 X7.044 Y3.033
G01 F600 X7.002 Y2.989
G01 F600 X6.960 Y2.935
G01 F600 X6.923 Y2.873
G01 F600 X6.898 Y2.833
G01 F600 X6.870 Y2.759
G01 F600 X6.857 Y2.698
G01 F600 X6.846 Y2.635
G01 F600 X6.839 Y2.574
G01 F600 X6.840 Y1.624
G01 F600 X6.846 Y1.574
G01 F600 X6.862 Y1.488
G01 F600 X6.877 Y1.442
G01 F600 X6.903 Y1.380
G01 F600 X6.926 Y1.338
G01 F600 X6.977 Y1.261
G01 F600 X7.009 Y1.225
G01 F600 X7.056 Y1.178
G01 F600 X7.106 Y1.139
G01 F600 X7.170 Y1.102
G01 F600 X7.224 Y1.075
G01 F600 X7.270 Y1.053
G01 F600 X7.347 Y1.032
G01 F600 X7.395 Y1.025
G01 F600 X7.462 Y1.018
G01 F600 X8.063 Y1.018
G01 F600 X8.165 Y1.052
G01 F600 X8.261 Y1.139
G01 F600 X8.303 Y1.266
G01 F600 X8.301 Y2.261
G01 F600 X8.253 Y2.369
G01 F600 X8.165 Y2.448
G01 F600 X8.063 Y2.481
G01 F600 X7.749 Y2.481
G01 F600 X7.663 Y2.472
G01 F600 X7.561 Y2.413
G01 F600 X7.491 Y2.317
G01 F600 X7.467 Y2.201
G01 F600 X7.491 Y2.086
G01 F600 X7.568 Y1.981
G01 F600 X7.700 Y1.921
G01 F600 X7.742 Y1.921
G01 F600 X7.742 Y1.578
G01 F600 X7.488 Y1.578
G01 F600 X7.452 Y1.583
G01 F600 X7.433 Y1.595
G01 F600 X7.419 Y1.607
G01 F600 X7.416 Y1.611
G01 F600 X7.405 Y1.627
G01 F600 X7.404 Y1.632
G01 F600 X7.400 Y1.671
G01 F600 X7.398 Y2.561
G01 F600 X7.398 Y2.563
G01 F600 X7.405 Y2.591
G01 F600 X7.411 Y2.603
G01 F600 X7.426 Y2.623
G01 F600 X7.427 Y2.625
G01 F600 X7.430 Y2.626
G01 F600 X7.468 Y2.643
G01 F600 X7.495 Y2.644
G01 F600 X8.063 Y2.644
G01 F600 X8.165 Y2.677
G01 F600 X8.253 Y2.756
G01 F600 X8.301 Y2.865
G01 F600 X8.301 Y2.983
G01 F600 X8.253 Y3.091
G01 F600 X8.165 Y3.171
G01 F600 X8.063 Y3.204
G01 F600 X7.480 Y3.204
G00 F3000 Z3.000
G00 F3000 X16.351 Y2.663
G00 F1500 Z0
G01 F600 Z-0.110
G01 F600 X16.258 Y2.653
G01 F600 X16.204 Y2.644
G01 F600 X16.135 Y2.619
G01 F600 X16.092 Y2.595
G01 F600 X16.050 Y2.571
G01 F600 X15.989 Y2.523
G01 F600 X15.954 Y2.485
G01 F600 X15.907 Y2.423
G01 F600 X15.882 Y2.378
G01 F600 X15.856 Y2.318
G01 F600 X15.844 Y2.272
G01 F600 X15.833 Y2.222
G01 F600 X15.827 Y2.147
G01 F600 X15.831 Y2.093
G01 F600 X15.845 Y2.014
G01 F600 X15.861 Y1.965
G01 F600 X15.896 Y1.890
G01 F600 X15.926 Y1.851
G01 F600 X15.955 Y1.813
G01 F600 X15.988 Y1.774
G01 F600 X16.039 Y1.733
G01 F600 X16.103 Y1.692
G01 F600 X16.151 Y1.671
G01 F600 X16.147 Y1.671
G01 F600 X16.031 Y1.659
G01 F600 X15.929 Y1.600
G01 F600 X15.859 Y1.504
G01 F600 X15.835 Y1.389
G01 F600 X15.859 Y1.273
G01 F600 X15.929 Y1.177
G01 F600 X16.011 Y1.130
G01 F600 X16.066 Y1.111
G01 F600 X16.105 Y1.098
G01 F600 X16.144 Y1.086
G01 F600 X16.184 Y1.076
G01 F600 X16.224 Y1.066
G01 F600 X16.280 Y1.054
G01 F600 X16.320 Y1.046
G01 F600 X16.360 Y1.039
G01 F600 X16.401 Y1.033
G01 F600 X16.442 Y1.028
G01 F600 X16.482 Y1.025
G01 F600 X16.523 Y1.022
G01 F600 X16.564 Y1.020
G01 F600 X16.611 Y1.018
G01 F600 X16.652 Y1.020
G01 F600 X16.707 Y1.025
G01 F600 X16.808 Y1.053
G01 F600 X16.897 Y1.099
G01 F600 X16.937 Y1.128
G01 F600 X16.985 Y1.170
G01 F600 X17.021 Y1.213
G01 F600 X17.057 Y1.266
G01 F600 X17.084 Y1.309
G01 F600 X17.108 Y1.371
G01 F600 X17.126 Y1.442
G01 F600 X17.132 Y1.490
G01 F600 X17.134 Y1.557
G01 F600 X17.125 Y1.614
G01 F600 X17.113 Y1.668
G01 F600 X17.099 Y1.721
G01 F600 X17.067 Y1.787
G01 F600 X17.039 Y1.827
G01 F600 X17.011 Y1.867
G01 F600 X16.958 Y1.921
G01 F600 X16.920 Y1.949
G01 F600 X16.870 Y1.982
G01 F600 X16.810 Y2.010
G01 F600 X16.795 Y2.016
G01 F600 X16.840 Y2.021
G01 F600 X16.942 Y2.080
G01 F600 X17.012 Y2.176
G01 F600 X17.036 Y2.292
G01 F600 X17.012 Y2.408
G01 F600 X16.942 Y2.503
G01 F600 X16.866 Y2.547
G01 F600 X16.804 Y2.573
G01 F600 X16.749 Y2.594
G01 F600 X16.692 Y2.611
G01 F600 X16.635 Y2.626
G01 F600 X16.585 Y2.636
G01 F600 X16.525 Y2.647
G01 F600 X16.460 Y2.654
G01 F600 X16.408 Y2.658
G01 F600 X16.351 Y2.663
G00 F3000 Z3.000
G00 F3000 X15.148 Y2.662
G00 F1500 Z0
G01 F600 Z-0.110
G01 F600 X15.073 Y2.659
G01 F600 X15.001 Y2.647
G01 F600 X14.950 Y2.638
G01 F600 X14.874 Y2.611
G01 F600 X14.827 Y2.586
G01 F600 X14.758 Y2.546
G01 F600 X14.718 Y2.516
G01 F600 X14.666 Y2.468
G01 F600 X14.633 Y2.429
G01 F600 X14.582 Y2.360
G01 F600 X14.557 Y2.317
G01 F600 X14.527 Y2.251
G01 F600 X14.513 Y2.203
G01 F600 X14.492 Y2.120
G01 F600 X14.487 Y2.073
G01 F600 X14.485 Y2.026
G01 F600 X14.485 Y1.840
G01 F600 X14.485 Y1.562
G01 F600 X14.488 Y1.513
G01 F600 X14.501 Y1.436
G01 F600 X14.515 Y1.391
G01 F600 X14.537 Y1.333
G01 F600 X14.562 Y1.290
G01 F600 X14.607 Y1.222
G01 F600 X14.640 Y1.185
G01 F600 X14.688 Y1.141
G01 F600 X14.729 Y1.112
G01 F600 X14.796 Y1.073
G01 F600 X14.842 Y1.053
G01 F600 X14.907 Y1.033
G01 F600 X14.956 Y1.026
G01 F600 X15.015 Y1.018
G01 F600 X15.527 Y1.018
G01 F600 X15.630 Y1.052
G01 F600 X15.718 Y1.131
G01 F600 X15.766 Y1.239
G01 F600 X15.766 Y1.357
G01 F600 X15.718 Y1.466
G01 F600 X15.630 Y1.545
G01 F600 X15.555 Y1.569
G01 F600 X15.630 Y1.594
G01 F600 X15.726 Y1.680
G01 F600 X15.767 Y1.808
G01 F600 X15.767 Y2.027
G01 F600 X15.764 Y2.090
G01 F600 X15.750 Y2.156
G01 F600 X15.734 Y2.215
G01 F600 X15.720 Y2.266
G01 F600 X15.684 Y2.336
G01 F600 X15.655 Y2.381
G01 F600 X15.610 Y2.437
G01 F600 X15.577 Y2.478
G01 F600 X15.516 Y2.530
G01 F600 X15.472 Y2.558
G01 F600 X15.402 Y2.600
G01 F600 X15.356 Y2.620
G01 F600 X15.289 Y2.641
G01 F600 X15.241 Y2.651
G01 F600 X15.148 Y2.662
G00 F3000 Z3.000
G00 F3000 X18.366 Y2.662
G00 F1500 Z0
G01 F600 Z-0.110
G01 F600 X18.289 Y2.658
G01 F600 X18.243 Y2.649
G01 F600 X18.183 Y2.633
G01 F600 X18.138 Y2.613
G01 F600 X18.065 Y2.575
G01 F600 X18.025 Y2.546
G01 F600 X17.976 Y2.504
G01 F600 X17.943 Y2.466
G01 F600 X17.896 Y2.404
G01 F600 X17.871 Y2.360
G01 F600 X17.843 Y2.296
G01 F600 X17.830 Y2.239
G01 F600 X17.819 Y2.182
G01 F600 X17.812 Y2.123
G01 F600 X17.813 Y1.535
G01 F600 X17.820 Y1.481
G01 F600 X17.836 Y1.418
G01 F600 X17.849 Y1.368
G01 F600 X17.883 Y1.297
G01 F600 X17.919 Y1.249
G01 F600 X17.951 Y1.207
G01 F600 X17.984 Y1.168
G01 F600 X18.039 Y1.124
G01 F600 X18.084 Y1.096
G01 F600 X18.127 Y1.071
G01 F600 X18.197 Y1.043
G01 F600 X18.225 Y1.036
G01 F600 X18.180 Y1.036
G01 F600 X18.094 Y1.027
G01 F600 X17.992 Y0.968
G01 F600 X17.922 Y0.872
G01 F600 X17.898 Y0.756
G01 F600 X17.922 Y0.641
G01 F600 X17.998 Y0.535
G01 F600 X18.132 Y0.476
G01 F600 X18.613 Y0.480
G01 F600 X18.675 Y0.492
G01 F600 X18.705 Y0.504
G01 F600 X18.748 Y0.514
G01 F600 X18.842 Y0.564
G01 F600 X18.882 Y0.592
G01 F600 X18.932 Y0.636
G01 F600 X18.966 Y0.676
G01 F600 X19.010 Y0.734
G01 F600 X19.035 Y0.778
G01 F600 X19.062 Y0.838
G01 F600 X19.077 Y0.892
G01 F600 X19.088 Y0.962
G01 F600 X19.095 Y1.014
G01 F600 X19.093 Y2.441
G01 F600 X19.045 Y2.549
G01 F600 X18.957 Y2.629
G01 F600 X18.855 Y2.662
G01 F600 X18.366 Y2.662
G00 F3000 Z3.000
G00 F3000 X19.556 Y2.662
G00 F1500 Z0
G01 F600 Z-0.110
G01 F600 X19.470 Y2.653
G01 F600 X19.368 Y2.593
G01 F600 X19.298 Y2.498
G01 F600 X19.278 Y2.403
G01 F600 X19.278 Y1.277
G01 F600 X19.298 Y1.182
G01 F600 X19.368 Y1.087
G01 F600 X19.470 Y1.027
G01 F600 X19.588 Y1.015
G01 F600 X19.701 Y1.052
G01 F600 X19.797 Y1.139
G01 F600 X19.838 Y1.266
G01 F600 X19.837 Y2.101
G01 F600 X20.001 Y2.101
G01 F600 X20.001 Y1.277
G01 F600 X20.021 Y1.182
G01 F600 X20.090 Y1.087
G01 F600 X20.193 Y1.027
G01 F600 X20.311 Y1.015
G01 F600 X20.423 Y1.052
G01 F600 X20.520 Y1.139
G01 F600 X20.561 Y1.266
G01 F600 X20.561 Y2.132
G01 F600 X20.556 Y2.178
G01 F600 X20.541 Y2.259
G01 F600 X20.525 Y2.307
G01 F600 X20.498 Y2.368
G01 F600 X20.468 Y2.415
G01 F600 X20.426 Y2.468
G01 F600 X20.394 Y2.508
G01 F600 X20.336 Y2.556
G01 F600 X20.294 Y2.581
G01 F600 X20.246 Y2.609
G01 F600 X20.149 Y2.645
G01 F600 X20.074 Y2.659
G01 F600 X20.024 Y2.662
G01 F600 X19.556 Y2.662
G00 F3000 Z3.000
G00 F3000 X13.442 Y2.644
G00 F1500 Z0
G01 F600 Z-0.110
G01 F600 X13.625 Y2.643
G01 F600 X13.634 Y2.643
G01 F600 X13.661 Y2.637
G01 F600 X13.678 Y2.632
G01 F600 X13.686 Y2.629
G01 F600 X13.697 Y2.622
G01 F600 X13.722 Y2.606
G01 F600 X13.726 Y2.603
G01 F600 X13.747 Y2.582
G01 F600 X13.750 Y2.578
G01 F600 X13.766 Y2.553
G01 F600 X13.775 Y2.535
G01 F600 X13.777 Y2.530
G01 F600 X13.781 Y2.514
G01 F600 X13.784 Y2.499
G01 F600 X13.786 Y2.490
G01 F600 X13.786 Y2.470
G01 F600 X13.787 Y1.743
G01 F600 X13.786 Y1.735
G01 F600 X13.783 Y1.718
G01 F600 X13.776 Y1.691
G01 F600 X13.773 Y1.684
G01 F600 X13.760 Y1.658
G01 F600 X13.757 Y1.653
G01 F600 X13.741 Y1.633
G01 F600 X13.725 Y1.617
G01 F600 X13.720 Y1.614
G01 F600 X13.707 Y1.605
G01 F600 X13.697 Y1.600
G01 F600 X13.671 Y1.588
G01 F600 X13.656 Y1.583
G01 F600 X13.647 Y1.581
G01 F600 X13.629 Y1.579
G01 F600 X13.603 Y1.578
G01 F600 X13.443 Y1.578
G01 F600 X13.442 Y2.644
G00 F3000 Z3.000
G00 F3000 X18.380 Y2.102
G00 F1500 Z0
G01 F600 Z-0.110
G01 F600 X18.534 Y2.102
G01 F600 X18.534 Y1.579
G01 F600 X18.373 Y1.580
G01 F600 X18.372 Y1.582
G01 F600 X18.373 Y2.102
G01 F600 X18.380 Y2.102
G00 F3000 Z3.000
G00 F3000 X18.861 Y30.127
G00 F1500 Z0
G01 F600 Z-0.110
G01 F600 X18.722 Y30.097
G01 F600 X18.592 Y30.040
G01 F600 X18.483 Y29.961
G01 F600 X13.760 Y25.238
G01 F600 X13.681 Y25.150
G01 F600 X13.610 Y25.027
G01 F600 X13.566 Y24.892
G01 F600 X13.553 Y24.766
G01 F600 X13.553 Y20.134
G01 F600 X13.566 Y20.009
G01 F600 X13.610 Y19.873
G01 F600 X13.681 Y19.750
G01 F600 X13.760 Y19.662
G01 F600 X15.333 Y18.089
G01 F600 X15.442 Y18.011
G01 F600 X15.572 Y17.953
G01 F600 X15.711 Y17.923
G01 F600 X16.628 Y17.923
G01 F600 X16.767 Y17.953
G01 F600 X16.897 Y18.011
G01 F600 X17.006 Y18.089
G01 F600 X18.882 Y19.966
G01 F600 X22.308 Y16.539
G01 F600 X22.417 Y16.460
G01 F600 X22.547 Y16.403
G01 F600 X22.686 Y16.373
G01 F600 X31.774 Y16.373
G01 F600 X32.928 Y15.220
G01 F600 X32.928 Y14.709
G01 F600 X32.941 Y14.584
G01 F600 X32.985 Y14.448
G01 F600 X33.049 Y14.337
G01 F600 X33.093 Y14.279
G01 F600 X33.093 Y13.444
G01 F600 X33.112 Y13.259
G01 F600 X33.174 Y13.067
G01 F600 X33.275 Y12.892
G01 F600 X33.410 Y12.742
G01 F600 X33.574 Y12.623
G01 F600 X33.758 Y12.541
G01 F600 X33.956 Y12.499
G01 F600 X34.158 Y12.499
G01 F600 X34.356 Y12.541
G01 F600 X34.540 Y12.623
G01 F600 X34.703 Y12.742
G01 F600 X34.839 Y12.892
G01 F600 X34.940 Y13.067
G01 F600 X35.002 Y13.259
G01 F600 X35.021 Y13.444
G01 F600 X35.021 Y14.796
G01 F600 X35.002 Y14.981
G01 F600 X34.940 Y15.173
G01 F600 X34.839 Y15.348
G01 F600 X34.703 Y15.498
G01 F600 X34.540 Y15.617
G01 F600 X34.356 Y15.699
G01 F600 X34.247 Y15.722
G01 F600 X34.229 Y15.777
G01 F600 X34.158 Y15.900
G01 F600 X34.079 Y15.988
G01 F600 X32.506 Y17.561
G01 F600 X32.397 Y17.640
G01 F600 X32.267 Y17.697
G01 F600 X32.128 Y17.727
G01 F600 X23.040 Y17.727
G01 F600 X19.774 Y20.992
G01 F600 X19.781 Y21.064
G01 F600 X19.781 Y22.416
G01 F600 X19.762 Y22.601
G01 F600 X19.700 Y22.793
G01 F600 X19.599 Y22.968
G01 F600 X19.463 Y23.118
G01 F600 X19.300 Y23.237
G01 F600 X19.116 Y23.319
G01 F600 X18.918 Y23.361
G01 F600 X18.716 Y23.361
G01 F600 X18.518 Y23.319
G01 F600 X18.334 Y23.237
G01 F600 X18.171 Y23.118
G01 F600 X18.035 Y22.968
G01 F600 X17.934 Y22.793
G01 F600 X17.872 Y22.601
G01 F600 X17.853 Y22.416
G01 F600 X17.853 Y21.064
G01 F600 X17.873 Y20.875
G01 F600 X17.873 Y20.875
G01 F600 X16.274 Y19.277
G01 F600 X16.065 Y19.277
G01 F600 X14.911 Y20.430
G01 F600 X14.911 Y24.470
G01 F600 X19.215 Y28.773
G01 F600 X51.924 Y28.773
G01 F600 X53.078 Y27.620
G01 F600 X53.078 Y26.630
G01 F600 X51.999 Y25.552
G01 F600 X51.969 Y25.565
G01 F600 X51.751 Y25.612
G01 F600 X50.003 Y25.612
G01 F600 X49.785 Y25.565
G01 F600 X49.581 Y25.475
G01 F600 X49.401 Y25.343
G01 F600 X49.251 Y25.178
G01 F600 X49.140 Y24.984
G01 F600 X49.071 Y24.772
G01 F600 X49.047 Y24.550
G01 F600 X49.071 Y24.328
G01 F600 X49.140 Y24.116
G01 F600 X49.251 Y23.922
G01 F600 X49.401 Y23.757
G01 F600 X49.581 Y23.625
G01 F600 X49.785 Y23.535
G01 F600 X50.003 Y23.488
G01 F600 X51.751 Y23.488
G01 F600 X51.969 Y23.535
G01 F600 X52.173 Y23.625
G01 F600 X52.354 Y23.757
G01 F600 X52.503 Y23.922
G01 F600 X52.614 Y24.116
G01 F600 X52.678 Y24.311
G01 F600 X54.229 Y25.862
G01 F600 X54.308 Y25.950
G01 F600 X54.379 Y26.073
G01 F600 X54.423 Y26.209
G01 F600 X54.436 Y26.334
G01 F600 X54.436 Y27.916
G01 F600 X54.423 Y28.042
G01 F600 X54.379 Y28.177
G01 F600 X54.308 Y28.300
G01 F600 X54.229 Y28.388
G01 F600 X52.656 Y29.961
G01 F600 X52.547 Y30.040
G01 F600 X52.417 Y30.097
G01 F600 X52.278 Y30.127
G01 F600 X18.861 Y30.127
G00 F3000 Z3.000
G00 F3000 X21.136 Y28.577
G00 F1500 Z0
G01 F600 Z-0.110
G01 F600 X20.997 Y28.547
G01 F600 X20.867 Y28.489
G01 F600 X20.758 Y28.411
G01 F600 X16.085 Y23.738
G01 F600 X16.006 Y23.650
G01 F600 X15.935 Y23.527
G01 F600 X15.891 Y23.392
G01 F600 X15.879 Y23.275
G01 F600 X15.794 Y23.237
G01 F600 X15.631 Y23.118
G01 F600 X15.495 Y22.968
G01 F600 X15.394 Y22.793
G01 F600 X15.332 Y22.601
G01 F600 X15.313 Y22.416
G01 F600 X15.313 Y21.064
G01 F600 X15.332 Y20.879
G01 F600 X15.394 Y20.687
G01 F600 X15.495 Y20.512
G01 F600 X15.631 Y20.362
G01 F600 X15.794 Y20.243
G01 F600 X15.978 Y20.161
G01 F600 X16.176 Y20.119
G01 F600 X16.378 Y20.119
G01 F600 X16.576 Y20.161
G01 F600 X16.760 Y20.243
G01 F600 X16.924 Y20.362
G01 F600 X17.059 Y20.512
G01 F600 X17.160 Y20.687
G01 F600 X17.222 Y20.879
G01 F600 X17.241 Y21.064
G01 F600 X17.241 Y22.412
G01 F600 X17.236 Y22.485
G01 F600 X17.236 Y22.970
G01 F600 X21.490 Y27.223
G01 F600 X49.061 Y27.223
G01 F600 X49.047 Y27.090
G01 F600 X49.071 Y26.868
G01 F600 X49.140 Y26.656
G01 F600 X49.251 Y26.462
G01 F600 X49.401 Y26.297
G01 F600 X49.581 Y26.165
G01 F600 X49.785 Y26.075
G01 F600 X50.003 Y26.028
G01 F600 X51.751 Y26.028
G01 F600 X51.969 Y26.075
G01 F600 X52.173 Y26.165
G01 F600 X52.354 Y26.297
G01 F600 X52.503 Y26.462
G01 F600 X52.614 Y26.656
G01 F600 X52.683 Y26.868
G01 F600 X52.707 Y27.090
G01 F600 X52.683 Y27.312
G01 F600 X52.614 Y27.524
G01 F600 X52.503 Y27.718
G01 F600 X52.354 Y27.883
G01 F600 X52.173 Y28.015
G01 F600 X51.969 Y28.105
G01 F600 X51.751 Y28.152
G01 F600 X50.590 Y28.152
G01 F600 X50.331 Y28.411
