;FLAVOR:Marlin
;TIME:2785
;Filament used: 2.70176m
;Layer height: 0.2
;Generated with Cura_SteamEngine 3.6.0
M140 S60
M105
M190 S60
M104 S200
M105
M109 S200
M82 ;absolute extrusion mode
G28 ;Home
G1 Z15.0 F6000 ;Move the platform down 15mm
;Prime the extruder
G92 E0
G1 F200 E3
G92 E0
G92 E0
G1 F2400 E-5
;LAYER_COUNT:96
;LAYER:0
M107
M204 S5000
M205 X30 Y30
G0 F3600 X118.503 Y132.517 Z0.2
M204 S500
M205 X20 Y20
;TYPE:SKIRT
G1 F2400 E0
G1 F1800 X119.085 Y132.102 E0.02377
G1 X119.71 Y131.753 E0.04758
G1 X120.37 Y131.477 E0.07138
G1 X121.056 Y131.276 E0.09515
G1 X121.761 Y131.153 E0.11896
G1 X122.51 Y131.109 E0.14391
G1 X142.015 Y131.111 E0.79265
G1 X142.398 Y131.123 E0.80539
G1 X146.026 Y131.341 E0.92628
G1 X151.335 Y131.415 E1.10287
G1 X157.71 Y131.116 E1.31514
G1 X158.01 Y131.109 E1.32512
G1 X177.491 Y131.11 E1.97306
G1 X178.205 Y131.15 E1.99685
G1 X178.911 Y131.269 E2.02066
G1 X179.598 Y131.467 E2.04444
G1 X180.259 Y131.74 E2.06823
G1 X180.886 Y132.085 E2.09203
G1 X181.47 Y132.497 E2.1158
G1 X182.005 Y132.973 E2.13962
G1 X182.483 Y133.505 E2.16341
G1 X182.898 Y134.087 E2.18718
G1 X183.247 Y134.711 E2.21096
G1 X183.523 Y135.371 E2.23475
G1 X183.724 Y136.058 E2.25856
G1 X183.847 Y136.762 E2.28233
G1 X183.891 Y137.51 E2.30725
G1 X183.89 Y162.494 E3.13822
G1 X183.85 Y163.208 E3.16201
G1 X183.778 Y163.688 E3.17815
G1 X182.584 Y169.978 E3.39109
G1 X181.917 Y175.198 E3.56612
G1 X181.542 Y180.497 E3.74281
G1 X181.457 Y184.534 E3.87711
G1 X181.447 Y192.578 E4.14466
G1 X181.406 Y193.292 E4.16844
G1 X181.286 Y193.997 E4.19223
G1 X181.088 Y194.684 E4.21601
G1 X180.814 Y195.345 E4.23981
G1 X180.468 Y195.971 E4.2636
G1 X180.055 Y196.555 E4.28739
G1 X179.579 Y197.089 E4.31118
G1 X179.046 Y197.566 E4.33497
G1 X178.464 Y197.982 E4.35876
G1 X177.839 Y198.329 E4.38254
G1 X177.179 Y198.605 E4.40633
G1 X176.492 Y198.805 E4.43013
G1 X175.787 Y198.927 E4.45393
G1 X175.047 Y198.97 E4.47858
G1 X125.066 Y198.97 E6.14096
G1 X124.352 Y198.93 E6.16474
G1 X123.647 Y198.811 E6.18852
G1 X122.959 Y198.613 E6.21234
G1 X122.298 Y198.34 E6.23612
G1 X121.671 Y197.996 E6.25991
G1 X121.087 Y197.583 E6.2837
G1 X120.553 Y197.108 E6.30747
G1 X120.074 Y196.576 E6.33128
G1 X119.659 Y195.994 E6.35505
G1 X119.31 Y195.369 E6.37886
G1 X119.034 Y194.709 E6.40266
G1 X118.833 Y194.023 E6.42643
G1 X118.71 Y193.318 E6.45023
G1 X118.666 Y192.578 E6.47489
G1 X118.657 Y185.003 E6.72684
G1 X118.505 Y179.64 E6.90528
G1 X118.056 Y174.359 E7.08156
G1 X117.308 Y169.111 E7.25788
G1 X116.234 Y163.747 E7.43982
G1 X116.133 Y163.039 E7.46361
G1 X116.109 Y162.49 E7.48189
G1 X116.109 Y137.509 E8.31276
G1 X116.149 Y136.795 E8.33654
G1 X116.268 Y136.09 E8.36032
G1 X116.466 Y135.402 E8.38414
G1 X116.739 Y134.741 E8.40792
G1 X117.083 Y134.114 E8.43171
G1 X117.496 Y133.53 E8.4555
G1 X117.971 Y132.996 E8.47927
G1 X118.503 Y132.517 E8.50308
M204 S5000
M205 X30 Y30
G0 F3600 X118.893 Y132.721
M204 S500
M205 X20 Y20
G1 F1800 X119.468 Y132.336 E8.5261
G1 X120.085 Y132.021 E8.54914
G1 X120.733 Y131.778 E8.57215
G1 X121.406 Y131.611 E8.59522
G1 X122.092 Y131.523 E8.61822
G1 X122.51 Y131.509 E8.63213
G1 X142.015 Y131.511 E9.28087
G1 X142.374 Y131.522 E9.29282
G1 X146.018 Y131.741 E9.41423
G1 X151.348 Y131.815 E9.59153
G1 X157.729 Y131.516 E9.80399
G1 X158.01 Y131.509 E9.81334
G1 X177.491 Y131.51 E10.46128
G1 X178.183 Y131.55 E10.48434
G1 X178.865 Y131.669 E10.50736
G1 X179.529 Y131.867 E10.53041
G1 X180.165 Y132.139 E10.55342
G1 X180.766 Y132.483 E10.57645
G1 X181.324 Y132.894 E10.5995
G1 X181.83 Y133.366 E10.62251
G1 X182.279 Y133.894 E10.64557
G1 X182.664 Y134.47 E10.66861
G1 X182.98 Y135.086 E10.69164
G1 X183.222 Y135.735 E10.71467
G1 X183.389 Y136.407 E10.73771
G1 X183.477 Y137.094 E10.76074
G1 X183.491 Y137.51 E10.77459
G1 X183.49 Y162.494 E11.60556
G1 X183.45 Y163.186 E11.62861
G1 X183.385 Y163.613 E11.64298
G1 X182.191 Y169.9 E11.85582
G1 X181.517 Y175.174 E12.03266
G1 X181.142 Y180.481 E12.20961
G1 X181.057 Y184.525 E12.34415
G1 X181.047 Y192.577 E12.61196
G1 X181.006 Y193.269 E12.63501
G1 X180.886 Y193.951 E12.65805
G1 X180.688 Y194.614 E12.68106
G1 X180.415 Y195.251 E12.70411
G1 X180.07 Y195.851 E12.72713
G1 X179.659 Y196.408 E12.75015
G1 X179.186 Y196.914 E12.77319
G1 X178.657 Y197.362 E12.79625
G1 X178.081 Y197.746 E12.81927
G1 X177.465 Y198.061 E12.84228
G1 X176.816 Y198.303 E12.86532
G1 X176.143 Y198.469 E12.88838
G1 X175.456 Y198.556 E12.91141
G1 X175.047 Y198.57 E12.92502
G1 X125.066 Y198.57 E14.5874
G1 X124.375 Y198.53 E14.61042
G1 X123.692 Y198.411 E14.63348
G1 X123.029 Y198.213 E14.65649
G1 X122.392 Y197.941 E14.67953
G1 X121.791 Y197.597 E14.70256
G1 X121.233 Y197.186 E14.72561
G1 X120.727 Y196.714 E14.74862
G1 X120.278 Y196.186 E14.77168
G1 X119.893 Y195.611 E14.79469
G1 X119.578 Y194.994 E14.81773
G1 X119.335 Y194.346 E14.84075
G1 X119.168 Y193.673 E14.86381
G1 X119.08 Y192.987 E14.88682
G1 X119.066 Y192.577 E14.90046
G1 X119.057 Y185.028 E15.15154
G1 X118.903 Y179.595 E15.33232
G1 X118.455 Y174.322 E15.50833
G1 X117.703 Y169.047 E15.68555
G1 X116.626 Y163.669 E15.86798
G1 X116.529 Y162.983 E15.89102
G1 X116.509 Y162.49 E15.90743
G1 X116.509 Y137.509 E16.7383
G1 X116.549 Y136.818 E16.76132
G1 X116.668 Y136.135 E16.78438
G1 X116.866 Y135.472 E16.8074
G1 X117.138 Y134.835 E16.83043
G1 X117.482 Y134.234 E16.85347
G1 X117.893 Y133.676 E16.87652
G1 X118.365 Y133.17 E16.89953
G1 X118.893 Y132.721 E16.92258
M204 S5000
M205 X30 Y30
G0 F3600 X118.758 Y133.351
M204 S500
M205 X20 Y20
G1 F1800 X119.28 Y132.933 E16.94483
G1 X119.849 Y132.581 E16.96708
G1 X120.456 Y132.299 E16.98934
G1 X121.092 Y132.091 E17.0116
G1 X121.748 Y131.961 E17.03384
G1 X122.51 Y131.909 E17.05924
G1 X142.015 Y131.911 E17.70798
G1 X142.35 Y131.921 E17.71913
G1 X146.01 Y132.141 E17.84108
G1 X151.344 Y132.215 E18.01851
G1 X157.747 Y131.915 E18.2317
G1 X158.01 Y131.909 E18.24045
G1 X177.491 Y131.91 E18.8884
G1 X178.159 Y131.95 E18.91065
G1 X178.817 Y132.069 E18.93289
G1 X179.457 Y132.266 E18.95517
G1 X180.068 Y132.538 E18.97741
G1 X180.643 Y132.881 E18.99968
G1 X181.172 Y133.29 E19.02192
G1 X181.649 Y133.759 E19.04417
G1 X182.067 Y134.282 E19.06644
G1 X182.419 Y134.85 E19.08866
G1 X182.701 Y135.457 E19.11092
G1 X182.909 Y136.093 E19.13318
G1 X183.039 Y136.749 E19.15542
G1 X183.091 Y137.51 E19.18079
G1 X183.09 Y162.494 E20.01176
G1 X183.05 Y163.162 E20.03402
G1 X182.992 Y163.539 E20.04671
G1 X181.795 Y169.843 E20.26013
G1 X181.12 Y175.129 E20.43737
G1 X180.742 Y180.465 E20.61529
G1 X180.657 Y184.516 E20.75005
G1 X180.647 Y192.577 E21.01816
G1 X180.606 Y193.245 E21.04042
G1 X180.486 Y193.903 E21.06267
G1 X180.288 Y194.542 E21.08492
G1 X180.016 Y195.153 E21.10716
G1 X179.672 Y195.727 E21.12942
G1 X179.263 Y196.256 E21.15166
G1 X178.793 Y196.733 E21.17393
G1 X178.27 Y197.15 E21.19618
G1 X177.701 Y197.501 E21.21842
G1 X177.094 Y197.783 E21.24068
G1 X176.458 Y197.989 E21.26291
G1 X175.801 Y198.119 E21.28519
G1 X175.047 Y198.17 E21.31033
G1 X125.066 Y198.17 E22.9727
G1 X124.398 Y198.13 E22.99496
G1 X123.74 Y198.011 E23.0172
G1 X123.1 Y197.814 E23.03947
G1 X122.489 Y197.542 E23.06171
G1 X121.915 Y197.199 E23.08395
G1 X121.385 Y196.79 E23.10622
G1 X120.908 Y196.321 E23.12847
G1 X120.49 Y195.799 E23.15071
G1 X120.138 Y195.23 E23.17297
G1 X119.856 Y194.623 E23.19523
G1 X119.648 Y193.987 E23.21748
G1 X119.518 Y193.331 E23.23973
G1 X119.466 Y192.577 E23.26486
G1 X119.457 Y185.016 E23.51634
G1 X119.303 Y179.585 E23.69705
G1 X118.851 Y174.266 E23.8746
G1 X118.098 Y168.983 E24.05209
G1 X117.018 Y163.59 E24.23502
G1 X116.926 Y162.927 E24.25729
G1 X116.909 Y162.49 E24.27183
G1 X116.909 Y137.509 E25.1027
G1 X116.949 Y136.841 E25.12496
G1 X117.068 Y136.183 E25.1472
G1 X117.265 Y135.543 E25.16947
G1 X117.537 Y134.932 E25.19172
G1 X117.88 Y134.358 E25.21396
G1 X118.289 Y133.828 E25.23622
G1 X118.758 Y133.351 E25.25847
M204 S5000
M205 X30 Y30
G0 F3600 X119.149 Y133.54
M204 S500
M205 X20 Y20
G1 F1800 X119.666 Y133.155 E25.27991
G1 X120.227 Y132.836 E25.30138
G1 X120.823 Y132.59 E25.32282
G1 X121.444 Y132.419 E25.34425
G1 X122.082 Y132.327 E25.36569
G1 X122.51 Y132.309 E25.37993
G1 X142.015 Y132.311 E26.02867
G1 X142.326 Y132.32 E26.03902
G1 X146.002 Y132.541 E26.16151
G1 X151.358 Y132.616 E26.33966
G1 X157.766 Y132.315 E26.55303
G1 X158.01 Y132.309 E26.56115
G1 X177.491 Y132.31 E27.20909
G1 X178.135 Y132.35 E27.23055
G1 X178.768 Y132.469 E27.25197
G1 X179.382 Y132.666 E27.27342
G1 X179.967 Y132.937 E27.29486
G1 X180.514 Y133.279 E27.31632
G1 X181.014 Y133.685 E27.33774
G1 X181.46 Y134.151 E27.3592
G1 X181.845 Y134.668 E27.38064
G1 X182.164 Y135.228 E27.40207
G1 X182.41 Y135.824 E27.42352
G1 X182.581 Y136.446 E27.44497
G1 X182.673 Y137.084 E27.46641
G1 X182.691 Y137.51 E27.48059
G1 X182.69 Y162.494 E28.31156
G1 X182.65 Y163.138 E28.33302
G1 X182.599 Y163.464 E28.344
G1 X181.399 Y169.783 E28.55793
G1 X180.722 Y175.085 E28.7357
G1 X180.342 Y180.449 E28.91456
G1 X180.257 Y184.507 E29.04956
G1 X180.247 Y192.576 E29.31793
G1 X180.206 Y193.22 E29.3394
G1 X180.086 Y193.853 E29.36082
G1 X179.889 Y194.467 E29.38227
G1 X179.617 Y195.051 E29.4037
G1 X179.275 Y195.598 E29.42516
G1 X178.867 Y196.098 E29.44662
G1 X178.402 Y196.543 E29.46803
G1 X177.884 Y196.928 E29.48949
G1 X177.323 Y197.245 E29.51093
G1 X176.727 Y197.491 E29.53237
G1 X176.105 Y197.661 E29.55382
G1 X175.467 Y197.753 E29.57526
G1 X175.047 Y197.77 E29.58924
G1 X125.066 Y197.77 E31.25161
G1 X124.423 Y197.73 E31.27304
G1 X123.789 Y197.611 E31.29449
G1 X123.175 Y197.414 E31.31594
G1 X122.59 Y197.143 E31.33739
G1 X122.043 Y196.801 E31.35884
G1 X121.543 Y196.395 E31.38026
G1 X121.097 Y195.93 E31.40169
G1 X120.712 Y195.413 E31.42313
G1 X120.393 Y194.852 E31.4446
G1 X120.147 Y194.256 E31.46604
G1 X119.976 Y193.635 E31.48747
G1 X119.884 Y192.997 E31.50891
G1 X119.866 Y192.576 E31.52292
G1 X119.857 Y185.004 E31.77477
G1 X119.703 Y179.557 E31.95601
G1 X119.25 Y174.23 E32.13382
G1 X118.493 Y168.917 E32.31232
G1 X117.41 Y163.511 E32.4957
G1 X117.323 Y162.873 E32.51711
G1 X117.309 Y162.49 E32.52986
G1 X117.309 Y137.509 E33.36073
G1 X117.349 Y136.866 E33.38216
G1 X117.468 Y136.232 E33.40361
G1 X117.665 Y135.618 E33.42506
G1 X117.936 Y135.033 E33.4465
G1 X118.278 Y134.486 E33.46796
G1 X118.684 Y133.986 E33.48938
G1 X119.149 Y133.54 E33.51081
M204 S5000
M205 X30 Y30
G1 F2400 E28.51081
;MESH:CoverHCSR04.stl
G0 F3600 X123.114 Y136.835
G0 X123.114 Y138.114
G0 X141.33 Y143.17
G0 X141.4 Y143.1
M204 S500
M205 X20 Y20
;TYPE:WALL-INNER
G1 F2400 E33.51081
G1 F1800 X158.6 Y143.1 E34.08289
G1 X158.6 Y138.1 E34.24919
G1 X176.9 Y138.1 E34.85785
G1 X176.9 Y161.9 E35.64944
G1 X155.776 Y161.9 E36.35203
G1 X155.633 Y161.9 E36.35678
G1 X155.442 Y161.9 E36.36314
G1 X155.271 Y161.9 E36.36882
G1 X155.442 Y161.795 E36.37032
G1 X155.633 Y161.633 E36.37496
G1 X155.725 Y161.524 E36.37899
G1 X155.795 Y161.442 E36.38257
G1 X155.927 Y161.227 E36.39096
G1 X156.024 Y160.995 E36.39933
G1 X156.082 Y160.749 E36.40773
G1 X156.1 Y160.524 E36.41524
G1 X156.1 Y158.476 E36.48336
G1 X156.082 Y158.254 E36.49077
G1 X156.082 Y158.251 E36.49087
G1 X156.024 Y158.005 E36.49927
G1 X156.011 Y157.973 E36.50042
G1 X155.927 Y157.773 E36.50764
G1 X155.811 Y157.584 E36.51501
G1 X155.795 Y157.558 E36.51603
G1 X155.633 Y157.367 E36.52436
G1 X155.54 Y157.288 E36.52842
G1 X155.442 Y157.205 E36.53269
G1 X155.276 Y157.103 E36.53917
G1 X155.227 Y157.073 E36.54108
G1 X154.995 Y156.976 E36.54944
G1 X154.749 Y156.918 E36.55785
G1 X154.524 Y156.9 E36.56536
G1 X145.476 Y156.9 E36.86629
G1 X145.251 Y156.918 E36.8738
G1 X145.005 Y156.976 E36.88221
G1 X144.773 Y157.073 E36.89057
G1 X144.724 Y157.103 E36.89248
G1 X144.558 Y157.205 E36.89896
G1 X144.461 Y157.287 E36.90319
G1 X144.367 Y157.367 E36.90729
G1 X144.205 Y157.558 E36.91562
G1 X144.19 Y157.583 E36.91659
G1 X144.073 Y157.773 E36.92401
G1 X143.99 Y157.972 E36.93119
G1 X143.976 Y158.005 E36.93238
G1 X143.918 Y158.251 E36.94078
G1 X143.918 Y158.254 E36.94088
G1 X143.9 Y158.476 E36.94829
G1 X143.9 Y160.524 E37.01641
G1 X143.918 Y160.749 E37.02392
G1 X143.976 Y160.995 E37.03232
G1 X144.073 Y161.227 E37.04069
G1 X144.205 Y161.442 E37.04908
G1 X144.275 Y161.524 E37.05266
G1 X144.367 Y161.633 E37.05741
G1 X144.558 Y161.795 E37.06574
G1 X144.729 Y161.9 E37.07241
G1 X144.558 Y161.9 E37.07294
G1 X144.367 Y161.9 E37.07561
G1 X144.224 Y161.9 E37.07965
G1 X123.1 Y161.9 E37.78224
G1 X123.1 Y138.1 E38.57383
G1 X141.4 Y138.1 E39.18249
G1 X141.4 Y143.1 E39.34879
M204 S5000
M205 X30 Y30
G0 F3600 X141.33 Y143.17
G0 X144.559 Y148.315
G0 X145.153 Y149.642
G0 X145.516 Y151.048
G0 X145.64 Y152.495
G0 X145.516 Y153.952
G0 X145.153 Y155.358
G0 X144.619 Y156.552
G0 X143.688 Y158.059
G0 X143.613 Y157.995
M204 S500
M205 X20 Y20
G1 F1800 X143.614 Y157.993
G1 X143.725 Y157.862 E39.35352
G1 X143.746 Y157.834 E39.35374
G1 X143.892 Y157.639 E39.35905
G1 X144.014 Y157.476 E39.36253
G1 X144.034 Y157.446 E39.3632
G1 X144.173 Y157.238 E39.36796
G1 X144.282 Y157.076 E39.37253
G1 X144.296 Y157.051 E39.37276
G1 X144.395 Y156.884 E39.37846
G1 X144.527 Y156.661 E39.38708
G1 X144.749 Y156.231 E39.40317
G1 X144.946 Y155.79 E39.41924
G1 X145.118 Y155.34 E39.43526
G1 X145.264 Y154.881 E39.45128
G1 X145.384 Y154.414 E39.46732
G1 X145.478 Y153.941 E39.48336
G1 X145.547 Y153.463 E39.49942
G1 X145.587 Y152.982 E39.51548
G1 X145.6 Y152.5 E39.53151
G1 X145.587 Y152.018 E39.54755
G1 X145.547 Y151.537 E39.5636
G1 X145.478 Y151.059 E39.57967
G1 X145.384 Y150.586 E39.59571
G1 X145.264 Y150.119 E39.61174
G1 X145.118 Y149.66 E39.62776
G1 X144.946 Y149.21 E39.64379
G1 X144.749 Y148.769 E39.65985
G1 X144.527 Y148.339 E39.67595
G1 X144.282 Y147.924 E39.69198
G1 X144.014 Y147.524 E39.70799
G1 X143.725 Y147.138 E39.72403
G1 X143.412 Y146.769 E39.74012
G1 X143.081 Y146.419 E39.75614
G1 X142.731 Y146.088 E39.77217
G1 X142.362 Y145.775 E39.78826
G1 X141.976 Y145.486 E39.8043
G1 X141.576 Y145.218 E39.82031
G1 X141.161 Y144.973 E39.83634
G1 X140.731 Y144.751 E39.85244
G1 X140.29 Y144.554 E39.8685
G1 X139.84 Y144.382 E39.88452
G1 X139.381 Y144.236 E39.90054
G1 X138.914 Y144.116 E39.91658
G1 X138.441 Y144.022 E39.93262
G1 X137.963 Y143.953 E39.94868
G1 X137.482 Y143.913 E39.96474
G1 X137 Y143.9 E39.98077
G1 X136.518 Y143.913 E39.99681
G1 X136.037 Y143.953 E40.01287
G1 X135.559 Y144.022 E40.02893
G1 X135.086 Y144.116 E40.04497
G1 X134.619 Y144.236 E40.061
G1 X134.16 Y144.382 E40.07703
G1 X133.71 Y144.554 E40.09305
G1 X133.269 Y144.751 E40.10911
G1 X132.839 Y144.973 E40.12521
G1 X132.424 Y145.218 E40.14124
G1 X132.024 Y145.486 E40.15725
G1 X131.638 Y145.775 E40.17329
G1 X131.269 Y146.088 E40.18938
G1 X130.919 Y146.419 E40.20541
G1 X130.588 Y146.769 E40.22143
G1 X130.275 Y147.138 E40.23752
G1 X129.986 Y147.524 E40.25356
G1 X129.718 Y147.924 E40.26957
G1 X129.473 Y148.339 E40.2856
G1 X129.251 Y148.769 E40.3017
G1 X129.054 Y149.21 E40.31776
G1 X128.882 Y149.66 E40.33379
G1 X128.736 Y150.119 E40.34981
G1 X128.616 Y150.586 E40.36584
G1 X128.522 Y151.059 E40.38188
G1 X128.453 Y151.537 E40.39795
G1 X128.413 Y152.018 E40.414
G1 X128.4 Y152.5 E40.43004
G1 X128.413 Y152.982 E40.44607
G1 X128.453 Y153.463 E40.46213
G1 X128.522 Y153.941 E40.47819
G1 X128.616 Y154.414 E40.49423
G1 X128.736 Y154.881 E40.51027
G1 X128.882 Y155.34 E40.52629
G1 X129.054 Y155.79 E40.54231
G1 X129.251 Y156.231 E40.55837
G1 X129.473 Y156.661 E40.57447
G1 X129.718 Y157.076 E40.5905
G1 X129.986 Y157.476 E40.60651
G1 X130.275 Y157.862 E40.62255
G1 X130.588 Y158.231 E40.63864
G1 X130.919 Y158.581 E40.65467
G1 X131.269 Y158.912 E40.67069
G1 X131.638 Y159.225 E40.68678
G1 X132.024 Y159.514 E40.70282
G1 X132.424 Y159.782 E40.71883
G1 X132.839 Y160.027 E40.73486
G1 X133.269 Y160.249 E40.75096
G1 X133.71 Y160.446 E40.76702
G1 X134.16 Y160.618 E40.78305
G1 X134.619 Y160.764 E40.79907
G1 X135.086 Y160.884 E40.8151
G1 X135.559 Y160.978 E40.83114
G1 X136.037 Y161.047 E40.84721
G1 X136.518 Y161.087 E40.86326
G1 X137 Y161.1 E40.8793
G1 X137.482 Y161.087 E40.89533
G1 X137.963 Y161.047 E40.91139
G1 X138.441 Y160.978 E40.92745
G1 X138.914 Y160.884 E40.94349
G1 X139.381 Y160.764 E40.95953
G1 X139.84 Y160.618 E40.97555
G1 X140.29 Y160.446 E40.99157
G1 X140.731 Y160.249 E41.00764
G1 X141.161 Y160.027 E41.02373
