;FLAVOR:Marlin
;TIME:4622
;Filament used: 4.39453m
;Layer height: 0.2
;Generated with Cura_SteamEngine 3.6.0
M140 S60
M105
M190 S60
M104 S200
M105
M109 S200
M82 ;absolute extrusion mode
G28 ;Home
G1 Z15.0 F6000 ;Move the platform down 15mm
;Prime the extruder
G92 E0
G1 F200 E3
G92 E0
G92 E0
G1 F2400 E-5
;LAYER_COUNT:171
;LAYER:0
M107
M204 S5000
M205 X30 Y30
G0 F3600 X125.9 Y125.949 Z0.2
M204 S500
M205 X20 Y20
;TYPE:SKIRT
G1 F2400 E0
G1 F1800 X126.439 Y125.479 E0.02379
G1 X126.74 Y125.259 E0.03619
G1 X132.466 Y121.315 E0.26744
G1 X136.719 Y118.036 E0.44605
G1 X138.9 Y116.221 E0.54043
G1 X139.475 Y115.794 E0.56425
G1 X140.093 Y115.435 E0.58802
G1 X140.525 Y115.235 E0.60385
G1 X141.142 Y114.977 E0.6261
G1 X141.816 Y114.739 E0.64987
G1 X142.523 Y114.575 E0.67401
G1 X142.894 Y114.511 E0.68653
G1 X143.605 Y114.429 E0.71034
G1 X143.976 Y114.418 E0.72268
G1 X153.184 Y114.41 E1.02894
G1 X153.899 Y114.449 E1.05276
G1 X154.47 Y114.539 E1.07198
G1 X155.21 Y114.69 E1.0971
G1 X155.901 Y114.872 E1.12087
G1 X156.814 Y115.248 E1.15371
G1 X157.226 Y115.456 E1.16906
G1 X158.038 Y115.944 E1.20057
G1 X160.135 Y117.428 E1.28602
G1 X164.632 Y120.36 E1.46457
G1 X169.265 Y123.022 E1.64229
G1 X172.451 Y124.705 E1.76213
G1 X173.064 Y125.074 E1.78593
G1 X173.632 Y125.509 E1.80972
G1 X174.148 Y126.004 E1.83351
G1 X174.527 Y126.452 E1.85302
G1 X174.907 Y126.944 E1.8737
G1 X175.312 Y127.534 E1.8975
G1 X175.649 Y128.165 E1.92129
G1 X175.982 Y129.051 E1.95278
G1 X176.114 Y129.5 E1.96834
G1 X176.277 Y130.196 E1.99212
G1 X176.362 Y130.907 E2.01593
G1 X176.374 Y131.306 E2.02921
G1 X176.366 Y168.744 E3.2744
G1 X176.326 Y169.459 E3.29822
G1 X176.206 Y170.164 E3.32201
G1 X176.061 Y170.695 E3.34031
G1 X175.923 Y171.126 E3.35537
G1 X175.667 Y171.794 E3.37916
G1 X175.339 Y172.429 E3.40293
G1 X174.942 Y173.022 E3.42667
G1 X174.632 Y173.434 E3.44382
G1 X174.171 Y173.981 E3.46761
G1 X173.651 Y174.472 E3.4914
G1 X173.08 Y174.903 E3.51519
G1 X172.547 Y175.224 E3.53588
G1 X170.145 Y176.514 E3.62657
G1 X165.415 Y179.168 E3.80696
G1 X160.926 Y182.03 E3.98403
G1 X157.999 Y184.087 E4.10302
G1 X157.228 Y184.552 E4.13296
G1 X156.793 Y184.774 E4.14921
G1 X156.139 Y185.063 E4.17299
G1 X155.457 Y185.277 E4.19676
G1 X154.553 Y185.438 E4.2273
G1 X153.344 Y185.565 E4.26774
G1 X152.67 Y185.6 E4.29018
G1 X144.422 Y185.594 E4.56451
G1 X143.565 Y185.536 E4.59308
G1 X142.506 Y185.392 E4.62863
G1 X141.803 Y185.256 E4.65244
G1 X141.121 Y185.042 E4.67622
G1 X140.466 Y184.754 E4.70002
G1 X139.988 Y184.485 E4.71826
G1 X139.287 Y184.049 E4.74572
G1 X138.626 Y183.577 E4.77273
G1 X134.379 Y180.119 E4.95489
G1 X130.061 Y176.993 E5.13219
G1 X126.999 Y174.968 E5.25429
G1 X126.426 Y174.541 E5.27806
G1 X125.903 Y174.052 E5.30187
G1 X125.347 Y173.385 E5.33075
G1 X124.942 Y172.826 E5.35371
G1 X124.556 Y172.224 E5.3775
G1 X124.239 Y171.583 E5.40128
G1 X123.995 Y170.91 E5.42509
G1 X123.892 Y170.523 E5.43841
G1 X123.79 Y170.085 E5.45337
G1 X123.667 Y169.38 E5.47717
G1 X123.623 Y168.631 E5.50213
G1 X123.634 Y131.256 E6.74522
G1 X123.674 Y130.542 E6.76901
G1 X123.794 Y129.837 E6.79279
G1 X123.899 Y129.437 E6.80655
G1 X124.013 Y129.053 E6.81987
G1 X124.254 Y128.379 E6.84368
G1 X124.569 Y127.737 E6.86746
G1 X124.773 Y127.4 E6.88057
G1 X124.996 Y127.055 E6.89423
G1 X125.417 Y126.477 E6.91801
G1 X125.9 Y125.949 E6.94181
M204 S5000
M205 X30 Y30
G0 F3600 X126.211 Y126.205
M204 S500
M205 X20 Y20
G1 F1800 X126.967 Y125.588 E6.97427
G1 X132.706 Y121.635 E7.20605
G1 X136.963 Y118.353 E7.38483
G1 X139.156 Y116.528 E7.47972
G1 X139.713 Y116.116 E7.50277
G1 X140.314 Y115.772 E7.5258
G1 X140.679 Y115.604 E7.53916
G1 X141.296 Y115.346 E7.56141
G1 X141.95 Y115.117 E7.58445
G1 X142.591 Y114.969 E7.60633
G1 X142.962 Y114.905 E7.61885
G1 X143.977 Y114.818 E7.65274
G1 X153.185 Y114.81 E7.959
G1 X153.876 Y114.849 E7.98202
G1 X154.39 Y114.931 E7.99933
G1 X155.13 Y115.082 E8.02445
G1 X155.799 Y115.26 E8.04747
G1 X156.634 Y115.605 E8.07752
G1 X157.046 Y115.813 E8.09287
G1 X157.807 Y116.271 E8.12241
G1 X159.896 Y117.749 E8.20753
G1 X164.415 Y120.696 E8.38697
G1 X169.102 Y123.389 E8.56676
G1 X172.264 Y125.059 E8.68569
G1 X172.857 Y125.417 E8.70873
G1 X173.404 Y125.841 E8.73175
G1 X173.899 Y126.325 E8.75477
G1 X174.211 Y126.696 E8.7709
G1 X174.591 Y127.188 E8.79157
G1 X174.982 Y127.76 E8.81462
G1 X175.304 Y128.373 E8.83765
G1 X175.598 Y129.164 E8.86572
G1 X175.73 Y129.613 E8.88128
G1 X175.887 Y130.287 E8.9043
G1 X175.974 Y131.306 E8.93832
G1 X175.966 Y168.744 E10.18351
G1 X175.926 Y169.436 E10.20656
G1 X175.806 Y170.118 E10.22959
G1 X175.68 Y170.573 E10.2453
G1 X175.542 Y171.004 E10.26035
G1 X175.293 Y171.65 E10.28338
G1 X174.972 Y172.263 E10.30639
G1 X174.622 Y172.781 E10.32718
G1 X174.312 Y173.193 E10.34433
G1 X173.865 Y173.722 E10.36737
G1 X173.359 Y174.195 E10.39041
G1 X172.803 Y174.607 E10.41342
G1 X172.358 Y174.871 E10.43063
G1 X169.96 Y176.16 E10.52118
G1 X165.218 Y178.82 E10.70202
G1 X160.703 Y181.698 E10.8801
G1 X157.769 Y183.76 E10.99938
G1 X157.046 Y184.195 E11.02744
G1 X156.611 Y184.417 E11.04369
G1 X155.977 Y184.696 E11.06672
G1 X155.316 Y184.9 E11.08973
G1 X154.511 Y185.04 E11.11691
G1 X153.302 Y185.167 E11.15734
G1 X152.671 Y185.2 E11.17836
G1 X144.423 Y185.194 E11.45269
G1 X143.619 Y185.139 E11.47949
G1 X142.56 Y184.995 E11.51504
G1 X141.88 Y184.863 E11.53808
G1 X141.22 Y184.652 E11.56112
G1 X140.589 Y184.368 E11.58414
G1 X140.199 Y184.145 E11.59908
G1 X139.498 Y183.709 E11.62654
G1 X138.879 Y183.267 E11.65183
G1 X134.621 Y179.8 E11.83446
G1 X130.284 Y176.66 E12.01255
G1 X127.22 Y174.634 E12.13472
G1 X126.665 Y174.22 E12.15775
G1 X126.162 Y173.744 E12.18079
G1 X125.671 Y173.15 E12.20642
G1 X125.266 Y172.591 E12.22938
G1 X124.893 Y172.008 E12.2524
G1 X124.589 Y171.385 E12.27545
G1 X124.281 Y170.432 E12.30877
G1 X124.179 Y169.994 E12.32372
G1 X124.061 Y169.311 E12.34678
G1 X124.023 Y168.631 E12.36943
G1 X124.034 Y131.256 E13.61253
G1 X124.074 Y130.565 E13.63555
G1 X124.282 Y129.55 E13.67001
G1 X124.396 Y129.166 E13.68333
G1 X124.631 Y128.515 E13.70635
G1 X125.109 Y127.617 E13.74019
G1 X125.332 Y127.272 E13.75385
G1 X125.741 Y126.713 E13.77689
G1 X126.211 Y126.205 E13.79991
M204 S5000
M205 X30 Y30
G0 F3600 X126.522 Y126.462
M204 S500
M205 X20 Y20
G1 F1800 X127.194 Y125.917 E13.82868
G1 X132.947 Y121.954 E14.06103
G1 X137.207 Y118.67 E14.23994
G1 X139.412 Y116.835 E14.33535
G1 X139.951 Y116.439 E14.35759
G1 X140.834 Y115.973 E14.3908
G1 X141.451 Y115.715 E14.41304
G1 X142.082 Y115.495 E14.43527
G1 X142.659 Y115.364 E14.45495
G1 X143.03 Y115.3 E14.46747
G1 X143.977 Y115.218 E14.49909
G1 X153.185 Y115.21 E14.80535
G1 X153.853 Y115.249 E14.8276
G1 X154.31 Y115.323 E14.843
G1 X155.05 Y115.474 E14.86812
G1 X155.696 Y115.647 E14.89036
G1 X156.454 Y115.962 E14.91766
G1 X156.866 Y116.17 E14.93301
G1 X157.576 Y116.597 E14.96057
G1 X159.686 Y118.09 E15.04654
G1 X164.202 Y121.035 E15.22586
G1 X168.885 Y123.725 E15.40549
G1 X172.078 Y125.412 E15.5256
G1 X172.649 Y125.76 E15.54784
G1 X173.176 Y126.173 E15.57011
G1 X173.649 Y126.645 E15.59233
G1 X173.894 Y126.941 E15.60511
G1 X174.274 Y127.433 E15.62579
G1 X174.651 Y127.986 E15.64805
G1 X174.959 Y128.58 E15.6703
G1 X175.215 Y129.277 E15.695
G1 X175.347 Y129.726 E15.71057
G1 X175.497 Y130.378 E15.73282
G1 X175.574 Y131.306 E15.76379
G1 X175.566 Y168.744 E17.00898
G1 X175.526 Y169.412 E17.03124
G1 X175.406 Y170.07 E17.05349
G1 X175.299 Y170.451 E17.06665
G1 X175.161 Y170.882 E17.0817
G1 X174.92 Y171.505 E17.10392
G1 X174.605 Y172.096 E17.12619
G1 X174.303 Y172.541 E17.14408
G1 X173.993 Y172.953 E17.16123
G1 X173.559 Y173.463 E17.1835
G1 X173.068 Y173.917 E17.20574
G1 X172.526 Y174.309 E17.22799
G1 X172.169 Y174.519 E17.24177
G1 X169.755 Y175.816 E17.33291
G1 X165.013 Y178.476 E17.51375
G1 X160.48 Y181.367 E17.69257
G1 X157.539 Y183.433 E17.81211
G1 X156.865 Y183.839 E17.83828
G1 X156.43 Y184.061 E17.85453
G1 X155.817 Y184.329 E17.87678
G1 X155.176 Y184.522 E17.89904
G1 X154.469 Y184.642 E17.9229
G1 X153.26 Y184.769 E17.96333
G1 X152.671 Y184.8 E17.98295
G1 X144.423 Y184.794 E18.25728
G1 X143.672 Y184.743 E18.28231
G1 X142.613 Y184.599 E18.31786
G1 X141.957 Y184.469 E18.3401
G1 X141.321 Y184.262 E18.36235
G1 X140.714 Y183.981 E18.38459
G1 X140.41 Y183.805 E18.39628
G1 X139.709 Y183.369 E18.42373
G1 X139.131 Y182.957 E18.44734
G1 X134.862 Y179.481 E18.63045
G1 X130.511 Y176.332 E18.80908
G1 X127.441 Y174.301 E18.93152
G1 X126.906 Y173.899 E18.95377
G1 X126.422 Y173.436 E18.97605
G1 X125.995 Y172.916 E18.99843
G1 X125.59 Y172.357 E19.02139
G1 X125.231 Y171.792 E19.04365
G1 X124.941 Y171.189 E19.06591
G1 X124.671 Y170.341 E19.09551
G1 X124.569 Y169.903 E19.11047
G1 X124.456 Y169.244 E19.1327
G1 X124.423 Y168.631 E19.15312
G1 X124.434 Y131.256 E20.39622
G1 X124.474 Y130.589 E20.41844
G1 X124.666 Y129.664 E20.44987
G1 X124.78 Y129.28 E20.46319
G1 X125.008 Y128.651 E20.48544
G1 X125.445 Y127.834 E20.51626
G1 X125.668 Y127.489 E20.52992
G1 X126.064 Y126.95 E20.55217
G1 X126.522 Y126.462 E20.57443
M204 S5000
M205 X30 Y30
G0 F3600 X126.831 Y126.72
M204 S500
M205 X20 Y20
G1 F1800 X127.421 Y126.247 E20.59958
G1 X133.175 Y122.283 E20.83197
G1 X137.467 Y118.975 E21.01221
G1 X139.668 Y117.143 E21.10745
G1 X140.188 Y116.762 E21.12889
G1 X140.988 Y116.343 E21.15893
G1 X141.605 Y116.085 E21.18117
G1 X142.214 Y115.873 E21.20262
G1 X142.727 Y115.758 E21.22011
G1 X143.098 Y115.694 E21.23263
G1 X143.977 Y115.618 E21.26197
G1 X153.185 Y115.61 E21.56823
G1 X153.829 Y115.649 E21.58969
G1 X154.23 Y115.715 E21.60321
G1 X154.97 Y115.866 E21.62833
G1 X155.592 Y116.034 E21.64976
G1 X156.274 Y116.319 E21.67434
G1 X156.686 Y116.527 E21.68969
G1 X157.345 Y116.924 E21.71528
G1 X159.446 Y118.411 E21.80089
G1 X164.006 Y121.384 E21.98195
G1 X168.688 Y124.074 E22.16154
G1 X171.891 Y125.766 E22.28202
G1 X172.441 Y126.102 E22.30346
G1 X172.945 Y126.503 E22.32488
G1 X173.577 Y127.185 E22.35581
G1 X173.957 Y127.677 E22.37648
G1 X174.319 Y128.211 E22.39794
G1 X174.612 Y128.785 E22.41938
G1 X174.831 Y129.389 E22.44075
G1 X174.963 Y129.838 E22.45631
G1 X175.106 Y130.467 E22.47777
G1 X175.174 Y131.306 E22.50576
G1 X175.166 Y168.744 E23.75096
G1 X175.126 Y169.388 E23.77242
G1 X174.918 Y170.329 E23.80447
G1 X174.78 Y170.76 E23.81952
G1 X174.546 Y171.36 E23.84094
G1 X174.239 Y171.927 E23.86239
G1 X173.983 Y172.3 E23.87743
G1 X173.673 Y172.712 E23.89458
G1 X173.254 Y173.203 E23.91605
G1 X172.778 Y173.637 E23.93748
G1 X171.979 Y174.167 E23.96937
G1 X169.55 Y175.472 E24.06108
G1 X164.802 Y178.135 E24.24214
G1 X160.272 Y181.024 E24.42084
G1 X157.309 Y183.106 E24.54128
G1 X156.683 Y183.483 E24.56559
G1 X156.248 Y183.705 E24.58183
G1 X155.656 Y183.962 E24.6033
G1 X155.038 Y184.143 E24.62472
G1 X154.427 Y184.245 E24.64532
G1 X153.218 Y184.372 E24.68575
G1 X152.671 Y184.4 E24.70397
G1 X144.423 Y184.394 E24.9783
G1 X143.726 Y184.347 E25.00153
G1 X142.667 Y184.203 E25.03708
G1 X142.035 Y184.076 E25.05852
G1 X141.423 Y183.873 E25.07997
G1 X140.622 Y183.466 E25.10985
G1 X139.921 Y183.03 E25.13731
G1 X139.384 Y182.646 E25.15927
G1 X135.115 Y179.171 E25.34235
G1 X130.745 Y176.007 E25.52179
G1 X127.661 Y173.967 E25.64478
G1 X127.147 Y173.579 E25.6662
G1 X126.684 Y173.13 E25.68765
G1 X126.319 Y172.681 E25.70689
G1 X125.914 Y172.122 E25.72985
G1 X125.569 Y171.577 E25.75131
G1 X125.294 Y170.994 E25.77274
G1 X125.061 Y170.25 E25.79868
G1 X124.959 Y169.812 E25.81363
G1 X124.851 Y169.177 E25.83506
G1 X124.823 Y168.631 E25.85324
G1 X124.834 Y131.256 E27.09634
G1 X124.874 Y130.613 E27.11777
G1 X125.049 Y129.778 E27.14614
G1 X125.163 Y129.394 E27.15946
G1 X125.384 Y128.789 E27.18089
G1 X125.781 Y128.051 E27.20876
G1 X126.004 Y127.706 E27.22242
G1 X126.387 Y127.188 E27.24385
G1 X126.831 Y126.72 E27.26531
M204 S5000
M205 X30 Y30
G0 F3600 X142.152 Y129.1
M204 S500
M205 X20 Y20
;TYPE:SUPPORT
G1 F1800 X142.152 Y123.047 E27.46663
G1 X142.173 Y122.722 E27.47746
G1 X142.218 Y122.493 E27.48522
G1 X142.293 Y122.264 E27.49324
G1 X142.405 Y122.027 E27.50196
G1 X142.519 Y121.836 E27.50935
G1 X142.649 Y121.676 E27.51621
G1 X142.817 Y121.507 E27.52414
G1 X142.988 Y121.365 E27.53153
G1 X143.22 Y121.232 E27.54042
G1 X143.435 Y121.133 E27.5483
G1 X143.652 Y121.067 E27.55584
G1 X143.923 Y121.015 E27.56502
G1 X144.171 Y121 E27.57328
G1 X153.197 Y121 E27.87349
G1 X153.431 Y121.018 E27.88129
G1 X153.574 Y121.04 E27.88611
G1 X153.874 Y121.145 E27.89668
G1 X154.077 Y121.235 E27.90406
G1 X154.332 Y121.386 E27.91392
G1 X154.481 Y121.499 E27.92014
G1 X154.594 Y121.61 E27.92541
G1 X154.793 Y121.861 E27.93606
G1 X154.897 Y122.017 E27.9423
G1 X155.033 Y122.312 E27.9531
G1 X155.095 Y122.505 E27.95984
G1 X155.14 Y122.745 E27.96797
G1 X155.152 Y122.933 E27.97423
G1 X155.152 Y129.1 E28.17935
G1 X142.152 Y129.1 E28.61173
M204 S5000
M205 X30 Y30
G0 F3600 X142.312 Y128.016
M204 S500
M205 X20 Y20
G1 F1800 X154.992 Y128.016 E29.03347
M204 S5000
M205 X30 Y30
G0 F3600 X154.686 Y128.94
M204 S500
M205 X20 Y20
G1 F1800 X154.686 Y121.989 E29.26466
M204 S5000
M205 X30 Y30
G0 F3600 X154.966 Y122.682
M204 S500
M205 X20 Y20
G1 F1800 X142.343 Y122.682 E29.6845
M204 S5000
M205 X30 Y30
G0 F3600 X144.018 Y121.17
M204 S500
M205 X20 Y20
G1 F1800 X144.018 Y128.94 E29.94293
M204 S5000
M205 X30 Y30
G0 F3600 X146.685 Y128.94
M204 S500
M205 X20 Y20
G1 F1800 X146.685 Y121.16 E30.2017
M204 S5000
M205 X30 Y30
G0 F3600 X149.352 Y121.16
M204 S500
M205 X20 Y20
G1 F1800 X149.352 Y128.94 E30.46046
M204 S5000
M205 X30 Y30
G0 F3600 X152.019 Y128.94
M204 S500
M205 X20 Y20
G1 F1800 X152.019 Y121.16 E30.71922
M204 S5000
M205 X30 Y30
G0 F3600 X154.992 Y125.349
M204 S500
M205 X20 Y20
G1 F1800 X142.312 Y125.349 E31.14096
M204 S5000
M205 X30 Y30
G1 F2400 E26.14096
G0 F3600 X130.612 Y129.525
G0 X130.085 Y129.859
G0 X129.683 Y130.323
G0 X129.425 Y130.879
G0 X129.336 Y131.478
G0 X129.355 Y168.802
G0 X129.525 Y169.388
G0 X129.859 Y169.915
G0 X130.323 Y170.317
G0 X130.879 Y170.575
G0 X131.219 Y170.625
G0 X142.152 Y170.9
M204 S500
M205 X20 Y20
G1 F2400 E31.14096
G1 F1800 X155.152 Y170.9 E31.57334
G1 X155.152 Y176.918 E31.7735
G1 X155.139 Y177.223 E31.78366
G1 X155.087 Y177.507 E31.79326
G1 X155.049 Y177.642 E31.79792
G1 X154.902 Y177.965 E31.80973
G1 X154.829 Y178.093 E31.81463
G1 X154.628 Y178.348 E31.82543
G1 X154.476 Y178.492 E31.83239
G1 X154.316 Y178.626 E31.83933
G1 X154.079 Y178.774 E31.84863
G1 X153.846 Y178.887 E31.85724
G1 X153.52 Y178.972 E31.86845
G1 X153.145 Y179 E31.88095
G1 X144.138 Y179 E32.18053
G1 X143.92 Y178.985 E32.18779
G1 X143.703 Y178.949 E32.19511
G1 X143.428 Y178.87 E32.20463
G1 X143.277 Y178.797 E32.21021
G1 X143.093 Y178.696 E32.21719
G1 X142.806 Y178.482 E32.22909
G1 X142.701 Y178.37 E32.2342
G1 X142.47 Y178.082 E32.24648
G1 X142.386 Y177.955 E32.25154
G1 X142.236 Y177.576 E32.2651
G1 X142.175 Y177.242 E32.27639
G1 X142.152 Y176.869 E32.28882
G1 X142.152 Y170.9 E32.48735
M204 S5000
M205 X30 Y30
G0 F3600 X144.018 Y171.06
M204 S500
M205 X20 Y20
G1 F1800 X144.018 Y178.83 E32.74578
M204 S5000
M205 X30 Y30
G0 F3600 X143.426 Y178.689
M204 S500
M205 X20 Y20
G1 F1800 X153.887 Y178.689 E33.09372
M204 S5000
M205 X30 Y30
G0 F3600 X152.019 Y178.84
M204 S500
M205 X20 Y20
G1 F1800 X152.019 Y171.06 E33.35248
M204 S5000
M205 X30 Y30
G0 F3600 X149.352 Y171.06
M204 S500
M205 X20 Y20
G1 F1800 X149.352 Y178.84 E33.61125
M204 S5000
M205 X30 Y30
G0 F3600 X146.685 Y178.84
M204 S500
M205 X20 Y20
G1 F1800 X146.685 Y171.06 E33.87001
M204 S5000
M205 X30 Y30
G0 F3600 X142.312 Y173.355
M204 S500
M205 X20 Y20
G1 F1800 X154.992 Y173.355 E34.29175
M204 S5000
M205 X30 Y30
G0 F3600 X154.686 Y171.06
M204 S500
M205 X20 Y20
G1 F1800 X154.686 Y178.016 E34.52311
M204 S5000
M205 X30 Y30
G0 F3600 X154.992 Y176.022
M204 S500
M205 X20 Y20
G1 F1800 X142.312 Y176.022 E34.94484
M204 S5000
M205 X30 Y30
G1 F2400 E29.94484
;MESH:Base para Servo.stl
G0 F3600 X142.312 Y170.665
G0 X142.312 Y169.38
G0 X132.662 Y168.893
G0 X132.097 Y168.67
G0 X131.623 Y168.291
G0 X131.313 Y167.838
G0 X131.014 Y166.902
G0 X131.115 Y166.902
M204 S500
M205 X20 Y20
;TYPE:WALL-INNER
G1 F2400 E34.94484
G1 F1800 X131.139 Y167.201 E34.95482
G1 X131.205 Y167.491 E34.96471
G1 X131.314 Y167.77 E34.97468
G1 X131.464 Y168.029 E34.98463
