;FLAVOR:Marlin
;TIME:2191
;Filament used: 2.20036m
;Layer height: 0.2
;Generated with Cura_SteamEngine 3.6.0
M140 S60
M105
M190 S60
M104 S200
M105
M109 S200
M82 ;absolute extrusion mode
G28 ;Home
G1 Z15.0 F6000 ;Move the platform down 15mm
;Prime the extruder
G92 E0
G1 F200 E3
G92 E0
G92 E0
G1 F2400 E-5
;LAYER_COUNT:16
;LAYER:0
M107
M204 S5000
M205 X30 Y30
G0 F3600 X117.548 Y112.218 Z0.2
M204 S500
M205 X20 Y20
;TYPE:SKIRT
G1 F2400 E0
G1 F1800 X118.08 Y111.74 E0.02379
G1 X118.662 Y111.324 E0.04758
G1 X119.286 Y110.976 E0.07135
G1 X119.946 Y110.699 E0.09515
G1 X120.632 Y110.498 E0.11893
G1 X121.337 Y110.375 E0.14273
G1 X122.082 Y110.331 E0.16755
G1 X137.907 Y110.322 E0.69389
G1 X138.43 Y110.343 E0.7113
G1 X143.459 Y110.752 E0.87912
G1 X148.806 Y110.981 E1.05713
G1 X154.065 Y110.91 E1.23206
G1 X161.155 Y110.351 E1.4686
G1 X161.658 Y110.331 E1.48535
G1 X177.914 Y110.332 E2.02602
G1 X178.629 Y110.372 E2.04984
G1 X179.334 Y110.491 E2.07362
G1 X180.021 Y110.689 E2.0974
G1 X180.682 Y110.962 E2.12119
G1 X181.309 Y111.307 E2.14499
G1 X181.893 Y111.719 E2.16876
G1 X182.428 Y112.195 E2.19258
G1 X182.906 Y112.727 E2.21637
G1 X183.322 Y113.309 E2.24016
G1 X183.67 Y113.934 E2.26395
G1 X183.946 Y114.593 E2.28772
G1 X184.147 Y115.28 E2.31152
G1 X184.27 Y115.984 E2.33529
G1 X184.314 Y116.732 E2.36021
G1 X184.314 Y183.269 E4.57324
G1 X184.274 Y183.983 E4.59703
G1 X184.155 Y184.688 E4.62081
G1 X183.957 Y185.376 E4.64462
G1 X183.684 Y186.037 E4.66841
G1 X183.34 Y186.664 E4.69219
G1 X182.927 Y187.248 E4.71598
G1 X182.452 Y187.782 E4.73975
G1 X181.92 Y188.261 E4.76356
G1 X181.338 Y188.676 E4.78734
G1 X180.713 Y189.025 E4.81115
G1 X180.053 Y189.301 E4.83494
G1 X179.367 Y189.502 E4.85872
G1 X178.662 Y189.625 E4.88252
G1 X177.914 Y189.669 E4.90744
G1 X122.086 Y189.669 E6.76429
G1 X121.372 Y189.629 E6.78807
G1 X120.667 Y189.51 E6.81185
G1 X119.979 Y189.312 E6.83567
G1 X119.318 Y189.039 E6.85945
G1 X118.691 Y188.695 E6.88324
G1 X118.107 Y188.282 E6.90703
G1 X117.573 Y187.807 E6.9308
G1 X117.094 Y187.275 E6.95461
G1 X116.679 Y186.693 E6.97838
G1 X116.33 Y186.068 E7.00219
G1 X116.054 Y185.408 E7.02599
G1 X115.853 Y184.722 E7.04976
G1 X115.73 Y184.017 E7.07356
G1 X115.686 Y183.267 E7.09855
G1 X115.688 Y174.94 E7.37551
G1 X115.728 Y174.226 E7.39929
G1 X115.865 Y173.447 E7.4256
G1 X116.981 Y168.805 E7.58439
G1 X117.502 Y166.217 E7.6722
G1 X117.932 Y163.687 E7.75755
G1 X118.608 Y158.393 E7.93506
G1 X118.983 Y153.1 E8.11155
G1 X119.057 Y147.815 E8.28735
G1 X118.832 Y142.531 E8.46325
G1 X118.308 Y137.255 E8.6396
G1 X117.48 Y131.978 E8.81726
G1 X116.975 Y129.465 E8.90251
G1 X115.865 Y124.851 E9.06035
G1 X115.736 Y124.148 E9.08412
G1 X115.687 Y123.355 E9.11055
G1 X115.686 Y116.732 E9.33083
G1 X115.726 Y116.018 E9.35462
G1 X115.845 Y115.313 E9.3784
G1 X116.042 Y114.625 E9.4022
G1 X116.315 Y113.964 E9.42599
G1 X116.66 Y113.337 E9.44979
G1 X117.073 Y112.753 E9.47358
G1 X117.548 Y112.218 E9.49737
M204 S5000
M205 X30 Y30
G0 F3600 X117.941 Y112.393
M204 S500
M205 X20 Y20
G1 F1800 X118.469 Y111.944 E9.52043
G1 X119.045 Y111.559 E9.54347
G1 X119.661 Y111.243 E9.5665
G1 X120.309 Y111 E9.58951
G1 X120.982 Y110.834 E9.61257
G1 X121.669 Y110.746 E9.63561
G1 X122.083 Y110.731 E9.64938
G1 X137.908 Y110.722 E10.17573
G1 X138.398 Y110.742 E10.19204
G1 X143.411 Y111.15 E10.35932
G1 X148.812 Y111.381 E10.53912
G1 X154.087 Y111.31 E10.71459
G1 X161.186 Y110.75 E10.95143
G1 X161.658 Y110.731 E10.96715
G1 X177.914 Y110.732 E11.50782
G1 X178.606 Y110.772 E11.53088
G1 X179.288 Y110.891 E11.5539
G1 X179.952 Y111.089 E11.57695
G1 X180.588 Y111.361 E11.59996
G1 X181.19 Y111.705 E11.62302
G1 X181.747 Y112.116 E11.64604
G1 X182.253 Y112.588 E11.66905
G1 X182.702 Y113.116 E11.69211
G1 X183.087 Y113.692 E11.71515
G1 X183.403 Y114.308 E11.73818
G1 X183.645 Y114.957 E11.76122
G1 X183.812 Y115.629 E11.78425
G1 X183.9 Y116.316 E11.80728
G1 X183.914 Y116.732 E11.82113
G1 X183.914 Y183.269 E14.03416
G1 X183.874 Y183.96 E14.05718
G1 X183.755 Y184.643 E14.08024
G1 X183.557 Y185.306 E14.10325
G1 X183.285 Y185.943 E14.12629
G1 X182.941 Y186.544 E14.14932
G1 X182.53 Y187.102 E14.17237
G1 X182.058 Y187.608 E14.19538
G1 X181.53 Y188.057 E14.21844
G1 X180.955 Y188.442 E14.24145
G1 X180.338 Y188.757 E14.26449
G1 X179.69 Y189 E14.28751
G1 X179.017 Y189.167 E14.31057
G1 X178.331 Y189.255 E14.33358
G1 X177.914 Y189.269 E14.34746
G1 X122.086 Y189.269 E16.2043
G1 X121.395 Y189.229 E16.22732
G1 X120.712 Y189.11 E16.25038
G1 X120.049 Y188.912 E16.2734
G1 X119.412 Y188.64 E16.29643
G1 X118.811 Y188.296 E16.31947
G1 X118.253 Y187.885 E16.34252
G1 X117.747 Y187.413 E16.36553
G1 X117.298 Y186.885 E16.38858
G1 X116.913 Y186.31 E16.4116
G1 X116.598 Y185.693 E16.43464
G1 X116.355 Y185.045 E16.45766
G1 X116.188 Y184.372 E16.48072
G1 X116.1 Y183.686 E16.50372
G1 X116.086 Y183.268 E16.51764
G1 X116.088 Y174.941 E16.79459
G1 X116.128 Y174.249 E16.81765
G1 X116.254 Y173.54 E16.8416
G1 X117.371 Y168.893 E17.00056
G1 X117.894 Y166.292 E17.0888
G1 X118.325 Y163.762 E17.17416
G1 X119.008 Y158.417 E17.35338
G1 X119.382 Y153.116 E17.53013
G1 X119.457 Y147.822 E17.70623
G1 X119.23 Y142.493 E17.88363
G1 X118.703 Y137.188 E18.06095
G1 X117.878 Y131.93 E18.23797
G1 X117.365 Y129.377 E18.32458
G1 X116.254 Y124.758 E18.48259
G1 X116.131 Y124.076 E18.50564
G1 X116.087 Y123.355 E18.52966
G1 X116.086 Y116.732 E18.74995
G1 X116.126 Y116.041 E18.77297
G1 X116.245 Y115.358 E18.79603
G1 X116.442 Y114.694 E18.81906
G1 X116.714 Y114.058 E18.84207
G1 X117.058 Y113.457 E18.8651
G1 X117.469 Y112.899 E18.88815
G1 X117.941 Y112.393 E18.91117
M204 S5000
M205 X30 Y30
G0 F3600 X118.334 Y112.574
M204 S500
M205 X20 Y20
G1 F1800 X118.857 Y112.156 E18.93343
G1 X119.425 Y111.803 E18.95568
G1 X120.032 Y111.521 E18.97794
G1 X120.668 Y111.314 E19.00018
G1 X121.324 Y111.183 E19.02243
G1 X122.083 Y111.131 E19.04774
G1 X137.908 Y111.122 E19.57408
G1 X138.365 Y111.14 E19.58929
G1 X143.412 Y111.551 E19.75771
G1 X148.801 Y111.782 E19.93711
G1 X154.093 Y111.71 E20.11314
G1 X161.218 Y111.148 E20.35086
G1 X161.658 Y111.131 E20.3655
G1 X177.914 Y111.132 E20.90618
G1 X178.582 Y111.172 E20.92844
G1 X179.24 Y111.291 E20.95068
G1 X179.88 Y111.488 E20.97295
G1 X180.491 Y111.76 E20.99519
G1 X181.066 Y112.103 E21.01746
G1 X181.595 Y112.512 E21.0397
G1 X182.072 Y112.981 E21.06195
G1 X182.49 Y113.504 E21.08422
G1 X182.842 Y114.072 E21.10645
G1 X183.124 Y114.679 E21.12871
G1 X183.332 Y115.315 E21.15096
G1 X183.462 Y115.971 E21.17321
G1 X183.514 Y116.732 E21.19858
G1 X183.514 Y183.269 E23.41161
G1 X183.474 Y183.937 E23.43386
G1 X183.355 Y184.595 E23.4561
G1 X183.158 Y185.235 E23.47837
G1 X182.886 Y185.846 E23.50062
G1 X182.543 Y186.42 E23.52286
G1 X182.134 Y186.95 E23.54513
G1 X181.665 Y187.427 E23.56738
G1 X181.143 Y187.845 E23.58962
G1 X180.574 Y188.197 E23.61187
G1 X179.967 Y188.479 E23.63413
G1 X179.331 Y188.687 E23.65639
G1 X178.675 Y188.817 E23.67863
G1 X177.914 Y188.869 E23.704
G1 X122.086 Y188.869 E25.56085
G1 X121.418 Y188.829 E25.58311
G1 X120.76 Y188.71 E25.60535
G1 X120.12 Y188.513 E25.62762
G1 X119.509 Y188.241 E25.64986
G1 X118.935 Y187.898 E25.6721
G1 X118.405 Y187.489 E25.69437
G1 X117.928 Y187.02 E25.71662
G1 X117.51 Y186.498 E25.73886
G1 X117.158 Y185.929 E25.76111
G1 X116.876 Y185.322 E25.78338
G1 X116.668 Y184.686 E25.80563
G1 X116.538 Y184.03 E25.82787
G1 X116.486 Y183.268 E25.85328
G1 X116.488 Y174.941 E26.13024
G1 X116.528 Y174.273 E26.15249
G1 X116.643 Y173.633 E26.17412
G1 X117.761 Y168.982 E26.33322
G1 X118.286 Y166.372 E26.42177
G1 X118.722 Y163.806 E26.50834
G1 X119.405 Y158.462 E26.68752
G1 X119.782 Y153.132 E26.86524
G1 X119.858 Y147.81 E27.04227
G1 X119.63 Y142.471 E27.22001
G1 X119.101 Y137.14 E27.39819
G1 X118.268 Y131.836 E27.57676
G1 X117.765 Y129.333 E27.66168
G1 X116.642 Y124.664 E27.8214
G1 X116.525 Y124.005 E27.84366
G1 X116.487 Y123.355 E27.86532
G1 X116.486 Y116.732 E28.0856
G1 X116.526 Y116.064 E28.10786
G1 X116.645 Y115.406 E28.1301
G1 X116.842 Y114.766 E28.15237
G1 X117.114 Y114.155 E28.17461
G1 X117.456 Y113.58 E28.19686
G1 X117.865 Y113.051 E28.2191
G1 X118.334 Y112.574 E28.24135
M204 S5000
M205 X30 Y30
G0 F3600 X118.261 Y113.209
M204 S500
M205 X20 Y20
G1 F1800 X118.726 Y112.762 E28.26281
G1 X119.243 Y112.377 E28.28425
G1 X119.803 Y112.059 E28.30567
G1 X120.399 Y111.812 E28.32712
G1 X121.021 Y111.641 E28.34858
G1 X121.659 Y111.549 E28.37002
G1 X122.083 Y111.531 E28.38413
G1 X137.908 Y111.522 E28.91048
G1 X138.333 Y111.539 E28.92462
G1 X143.39 Y111.951 E29.09338
G1 X148.771 Y112.181 E29.27251
G1 X154.13 Y112.108 E29.45077
G1 X161.249 Y111.547 E29.68828
G1 X161.658 Y111.531 E29.7019
G1 X177.914 Y111.532 E30.24257
G1 X178.558 Y111.572 E30.26403
G1 X179.191 Y111.691 E30.28546
G1 X179.805 Y111.888 E30.3069
G1 X180.39 Y112.159 E30.32835
G1 X180.937 Y112.501 E30.3498
G1 X181.437 Y112.907 E30.37123
G1 X181.883 Y113.373 E30.39268
G1 X182.268 Y113.89 E30.41412
G1 X182.587 Y114.45 E30.43555
G1 X182.833 Y115.046 E30.457
G1 X183.004 Y115.668 E30.47846
G1 X183.096 Y116.306 E30.49989
G1 X183.114 Y116.732 E30.51408
G1 X183.114 Y183.269 E32.72711
G1 X183.074 Y183.912 E32.74853
G1 X182.955 Y184.546 E32.76999
G1 X182.758 Y185.16 E32.79144
G1 X182.487 Y185.745 E32.81288
G1 X182.145 Y186.292 E32.83434
G1 X181.739 Y186.792 E32.85576
G1 X181.274 Y187.238 E32.87719
G1 X180.757 Y187.623 E32.89863
G1 X180.196 Y187.942 E32.92009
G1 X179.6 Y188.188 E32.94154
G1 X178.979 Y188.359 E32.96296
G1 X178.341 Y188.451 E32.9844
G1 X177.914 Y188.469 E32.99861
G1 X122.086 Y188.469 E34.85546
G1 X121.443 Y188.429 E34.87689
G1 X120.809 Y188.31 E34.89834
G1 X120.195 Y188.113 E34.91979
G1 X119.61 Y187.842 E34.94124
G1 X119.063 Y187.5 E34.96269
G1 X118.563 Y187.094 E34.98411
G1 X118.117 Y186.629 E35.00554
G1 X117.732 Y186.112 E35.02698
G1 X117.413 Y185.551 E35.04845
G1 X117.167 Y184.955 E35.06989
G1 X116.996 Y184.334 E35.09132
G1 X116.904 Y183.696 E35.11276
G1 X116.886 Y183.268 E35.127
G1 X116.888 Y174.941 E35.40396
G1 X116.928 Y174.297 E35.42542
G1 X117.032 Y173.727 E35.44469
G1 X118.15 Y169.076 E35.60379
G1 X118.684 Y166.421 E35.69387
G1 X119.117 Y163.874 E35.7798
G1 X119.803 Y158.506 E35.95979
G1 X120.182 Y153.148 E36.13844
G1 X120.258 Y147.799 E36.31637
G1 X120.03 Y142.451 E36.4944
G1 X119.497 Y137.091 E36.67356
G1 X118.661 Y131.764 E36.8529
G1 X118.156 Y129.244 E36.93839
G1 X117.031 Y124.571 E37.09825
G1 X116.92 Y123.936 E37.11969
G1 X116.887 Y123.355 E37.13905
G1 X116.886 Y116.732 E37.35933
G1 X116.926 Y116.088 E37.38079
G1 X117.045 Y115.455 E37.40221
G1 X117.242 Y114.841 E37.42366
G1 X117.513 Y114.256 E37.4451
G1 X117.854 Y113.709 E37.46654
G1 X118.261 Y113.209 E37.48798
M204 S5000
M205 X30 Y30
G1 F2400 E32.48798
;MESH:Base Radar.stl
G0 F3600 X121.412 Y117.336
G0 X122.691 Y117.336
G0 X125.579 Y118.1
G0 X125.579 Y118.2
M204 S500
M205 X20 Y20
;TYPE:WALL-INNER
G1 F2400 E37.48798
G1 F1800 X125.265 Y118.226 E37.49846
G1 X124.96 Y118.298 E37.50889
G1 X124.67 Y118.419 E37.51934
G1 X124.403 Y118.583 E37.52976
G1 X124.164 Y118.786 E37.54019
G1 X123.958 Y119.027 E37.55073
G1 X123.795 Y119.295 E37.56117
G1 X123.676 Y119.584 E37.57156
G1 X123.602 Y119.888 E37.58197
G1 X123.577 Y120.202 E37.59245
G1 X123.602 Y120.516 E37.60292
G1 X123.676 Y120.821 E37.61336
G1 X123.795 Y121.111 E37.62379
G1 X123.959 Y121.379 E37.63424
G1 X124.163 Y121.618 E37.64469
G1 X124.402 Y121.822 E37.65514
G1 X124.67 Y121.986 E37.66559
G1 X124.96 Y122.107 E37.67604
G1 X125.267 Y122.179 E37.68653
G1 X125.579 Y122.204 E37.69694
G1 X125.891 Y122.179 E37.70735
G1 X126.197 Y122.107 E37.71781
G1 X126.489 Y121.986 E37.72832
G1 X126.756 Y121.821 E37.73876
G1 X126.995 Y121.618 E37.74919
G1 X127.198 Y121.379 E37.75962
G1 X127.363 Y121.112 E37.77006
G1 X127.484 Y120.82 E37.78057
G1 X127.556 Y120.514 E37.79102
G1 X127.581 Y120.202 E37.80143
G1 X127.556 Y119.889 E37.81188
G1 X127.484 Y119.584 E37.8223
G1 X127.363 Y119.293 E37.83278
G1 X127.199 Y119.026 E37.84321
G1 X126.995 Y118.786 E37.85368
G1 X126.756 Y118.583 E37.86411
G1 X126.489 Y118.419 E37.87453
G1 X126.198 Y118.298 E37.88502
G1 X125.893 Y118.226 E37.89544
G1 X125.579 Y118.2 E37.90592
M204 S5000
M205 X30 Y30
G0 F3600 X125.579 Y118.1
G0 X137.984 Y121.399
G0 X137.99 Y124.983
G0 X162.276 Y124.983
G0 X172.279 Y120.211
G0 X172.379 Y120.211
M204 S500
M205 X20 Y20
G1 F1800 X172.405 Y120.525 E37.9164
G1 X172.477 Y120.83 E37.92682
G1 X172.598 Y121.121 E37.9373
G1 X172.762 Y121.388 E37.94772
G1 X172.965 Y121.627 E37.95815
G1 X173.205 Y121.831 E37.96863
G1 X173.472 Y121.995 E37.97905
G1 X173.763 Y122.116 E37.98953
G1 X174.068 Y122.188 E37.99996
G1 X174.381 Y122.213 E38.0104
G1 X174.693 Y122.188 E38.02081
G1 X174.999 Y122.116 E38.03127
G1 X175.291 Y121.995 E38.04178
G1 X175.558 Y121.83 E38.05222
G1 X175.797 Y121.627 E38.06265
G1 X176 Y121.388 E38.07308
G1 X176.165 Y121.121 E38.08352
G1 X176.286 Y120.829 E38.09403
G1 X176.358 Y120.523 E38.10449
G1 X176.383 Y120.211 E38.1149
G1 X176.358 Y119.898 E38.12534
G1 X176.286 Y119.593 E38.13576
G1 X176.165 Y119.303 E38.14621
G1 X176.001 Y119.034 E38.15669
G1 X175.796 Y118.795 E38.16717
G1 X175.558 Y118.592 E38.17757
G1 X175.291 Y118.428 E38.18799
G1 X175 Y118.307 E38.19847
G1 X174.695 Y118.235 E38.2089
G1 X174.381 Y118.209 E38.21938
G1 X174.067 Y118.235 E38.22986
G1 X173.763 Y118.307 E38.24025
G1 X173.472 Y118.428 E38.25073
G1 X173.206 Y118.592 E38.26112
G1 X172.966 Y118.795 E38.27158
G1 X172.762 Y119.035 E38.28205
G1 X172.598 Y119.303 E38.2925
G1 X172.477 Y119.593 E38.30296
G1 X172.405 Y119.897 E38.31335
G1 X172.379 Y120.211 E38.32383
M204 S5000
M205 X30 Y30
G0 F3600 X172.279 Y120.211
G0 X152.948 Y158.167
G0 X153.018 Y158.237
M204 S500
M205 X20 Y20
G1 F1800 X153.018 Y164.955 E38.54727
G1 X177.323 Y164.955 E39.35566
G1 X177.323 Y182.678 E39.94512
G1 X122.677 Y182.678 E41.76266
G1 X122.677 Y175.542 E42
G1 X129.218 Y175.542 E42.21756
G1 X129.218 Y122.755 E43.97326
G1 X122.677 Y122.755 E44.19081
G1 X122.677 Y117.322 E44.37152
G1 X138.018 Y117.322 E44.88176
G1 X138.018 Y124.955 E45.13563
G1 X162.248 Y124.955 E45.94153
G1 X162.248 Y117.322 E46.1954
G1 X177.323 Y117.322 E46.6968
G1 X177.323 Y158.237 E48.05764
G1 X153.018 Y158.237 E48.86602
M204 S5000
M205 X30 Y30
G0 F3600 X152.948 Y158.167
G0 X152.99 Y164.983
G0 X175.03 Y175.984
G0 X175 Y176.079
M204 S500
M205 X20 Y20
G1 F1800 X174.693 Y176.007 E48.87651
G1 X174.381 Y175.982 E48.88692
G1 X174.068 Y176.007 E48.89737
G1 X173.763 Y176.079 E48.90779
G1 X173.473 Y176.201 E48.91825
G1 X173.206 Y176.363 E48.92864
G1 X172.965 Y176.569 E48.93919
G1 X172.762 Y176.807 E48.94959
G1 X172.598 Y177.074 E48.96001
G1 X172.477 Y177.365 E48.97049
G1 X172.405 Y177.67 E48.98092
G1 X172.379 Y177.984 E48.9914
G1 X172.405 Y178.298 E49.00188
G1 X172.477 Y178.603 E49.0123
G1 X172.598 Y178.894 E49.02278
G1 X172.762 Y179.161 E49.0332
G1 X172.965 Y179.399 E49.04361
G1 X173.206 Y179.605 E49.05415
G1 X173.474 Y179.768 E49.06459
G1 X173.763 Y179.887 E49.07498
G1 X174.067 Y179.961 E49.08539
G1 X174.381 Y179.986 E49.09586
G1 X174.695 Y179.961 E49.10634
G1 X175 Y179.887 E49.11678
G1 X175.29 Y179.768 E49.12721
G1 X175.558 Y179.604 E49.13766
G1 X175.797 Y179.4 E49.14811
G1 X176 Y179.161 E49.15854
G1 X176.165 Y178.894 E49.16898
G1 X176.286 Y178.602 E49.17949
G1 X176.358 Y178.296 E49.18994
G1 X176.383 Y177.984 E49.20035
G1 X176.358 Y177.672 E49.21076
G1 X176.286 Y177.366 E49.22122
G1 X176.165 Y177.074 E49.23173
G1 X176 Y176.807 E49.24217
G1 X175.797 Y176.568 E49.2526
G1 X175.558 Y176.364 E49.26305
G1 X175.291 Y176.201 E49.27346
G1 X175 Y176.079 E49.28395
M204 S5000
M205 X30 Y30
G0 F3600 X175.03 Y175.984
G0 X174.381 Y175.942
G0 X130.443 Y175.942
G0 X124.912 Y175.984
G0 X124.942 Y176.079
M204 S500
M205 X20 Y20
G1 F1800 X124.651 Y176.201 E49.29445
G1 X124.384 Y176.364 E49.30485
G1 X124.145 Y176.568 E49.3153
G1 X123.941 Y176.807 E49.32575
G1 X123.778 Y177.074 E49.33616
G1 X123.656 Y177.365 E49.34665
G1 X123.584 Y177.672 E49.35714
G1 X123.559 Y177.984 E49.36755
G1 X123.584 Y178.296 E49.37796
G1 X123.656 Y178.603 E49.38845
G1 X123.778 Y178.894 E49.39895
G1 X123.941 Y179.161 E49.40935
G1 X124.145 Y179.4 E49.4198
G1 X124.384 Y179.604 E49.43025
G1 X124.652 Y179.768 E49.4407
G1 X124.942 Y179.887 E49.45113
