( PCB drills )
( Generated by Rapid-PCB.com )
( Material Size)
( X= 127.000, Y= 101.600, Z= 1.550)
()
G00
G17
G21
G40
G49
G54
G80
G90
G94
G00 F3000 Z3.000
M03 S9000
G00 F3000 X9.725 Y51.420
G00 F1500 Z0
G01 F60 Z-1.800
G00 F3000 Z3.000
G00 F3000 X9.725 Y48.880
G00 F1500 Z0
G01 F60 Z-1.800
G00 F3000 Z3.000
G00 F3000 X10.395 Y62.500
G00 F1500 Z0
G01 F60 Z-1.800
G00 F3000 Z3.000
G00 F3000 X20.555 Y62.500
G00 F1500 Z0
G01 F60 Z-1.800
G00 F3000 Z3.000
G00 F3000 X10.395 Y57.100
G00 F1500 Z0
G01 F60 Z-1.800
G00 F3000 Z3.000
G00 F3000 X20.555 Y57.100
G00 F1500 Z0
G01 F60 Z-1.800
G00 F3000 Z3.000
G00 F3000 X15.895 Y46.150
G00 F1500 Z0
G01 F60 Z-1.800
G00 F3000 Z3.000
G00 F3000 X18.435 Y46.150
G00 F1500 Z0
G01 F60 Z-1.800
G00 F3000 Z3.000
G00 F3000 X20.975 Y46.150
G00 F1500 Z0
G01 F60 Z-1.800
G00 F3000 Z3.000
G00 F3000 X23.515 Y46.150
G00 F1500 Z0
G01 F60 Z-1.800
G00 F3000 Z3.000
G00 F3000 X26.055 Y46.150
G00 F1500 Z0
G01 F60 Z-1.800
G00 F3000 Z3.000
G00 F3000 X28.595 Y46.150
G00 F1500 Z0
G01 F60 Z-1.800
G00 F3000 Z3.000
G00 F3000 X31.135 Y46.150
G00 F1500 Z0
G01 F60 Z-1.800
G00 F3000 Z3.000
G00 F3000 X33.675 Y46.150
G00 F1500 Z0
G01 F60 Z-1.800
G00 F3000 Z3.000
G00 F3000 X36.215 Y46.150
G00 F1500 Z0
G01 F60 Z-1.800
G00 F3000 Z3.000
G00 F3000 X38.755 Y46.150
G00 F1500 Z0
G01 F60 Z-1.800
G00 F3000 Z3.000
G00 F3000 X41.295 Y46.150
G00 F1500 Z0
G01 F60 Z-1.800
G00 F3000 Z3.000
G00 F3000 X43.835 Y46.150
G00 F1500 Z0
G01 F60 Z-1.800
G00 F3000 Z3.000
G00 F3000 X46.375 Y46.150
G00 F1500 Z0
G01 F60 Z-1.800
G00 F3000 Z3.000
G00 F3000 X48.915 Y46.150
G00 F1500 Z0
G01 F60 Z-1.800
G00 F3000 Z3.000
G00 F3000 X51.455 Y46.150
G00 F1500 Z0
G01 F60 Z-1.800
G00 F3000 Z3.000
G00 F3000 X51.455 Y30.900
G00 F1500 Z0
G01 F60 Z-1.800
G00 F3000 Z3.000
G00 F3000 X48.915 Y30.900
G00 F1500 Z0
G01 F60 Z-1.800
G00 F3000 Z3.000
G00 F3000 X46.375 Y30.900
G00 F1500 Z0
G01 F60 Z-1.800
G00 F3000 Z3.000
G00 F3000 X43.835 Y30.900
G00 F1500 Z0
G01 F60 Z-1.800
G00 F3000 Z3.000
G00 F3000 X41.295 Y30.900
G00 F1500 Z0
G01 F60 Z-1.800
G00 F3000 Z3.000
G00 F3000 X38.755 Y30.900
G00 F1500 Z0
G01 F60 Z-1.800
G00 F3000 Z3.000
G00 F3000 X36.215 Y30.900
G00 F1500 Z0
G01 F60 Z-1.800
G00 F3000 Z3.000
G00 F3000 X33.675 Y30.900
G00 F1500 Z0
G01 F60 Z-1.800
G00 F3000 Z3.000
G00 F3000 X31.135 Y30.900
G00 F1500 Z0
G01 F60 Z-1.800
G00 F3000 Z3.000
G00 F3000 X28.595 Y30.900
G00 F1500 Z0
G01 F60 Z-1.800
G00 F3000 Z3.000
G00 F3000 X26.055 Y30.900
G00 F1500 Z0
G01 F60 Z-1.800
G00 F3000 Z3.000
G00 F3000 X23.515 Y30.900
G00 F1500 Z0
G01 F60 Z-1.800
G00 F3000 Z3.000
G00 F3000 X20.975 Y30.900
G00 F1500 Z0
G01 F60 Z-1.800
G00 F3000 Z3.000
G00 F3000 X18.435 Y30.900
G00 F1500 Z0
G01 F60 Z-1.800
G00 F3000 Z3.000
G00 F3000 X15.895 Y30.900
G00 F1500 Z0
G01 F60 Z-1.800
G00 F3000 Z3.000
G00 F3000 X8.535 Y22.360
G00 F1500 Z0
G01 F60 Z-1.800
G00 F3000 Z3.000
G00 F3000 X11.075 Y22.360
G00 F1500 Z0
G01 F60 Z-1.800
G00 F3000 Z3.000
G00 F3000 X7.415 Y14.770
G00 F1500 Z0
G01 F60 Z-1.800
G00 F3000 Z3.000
G00 F3000 X9.955 Y14.770
G00 F1500 Z0
G01 F60 Z-1.800
G00 F3000 Z3.000
G00 F3000 X12.495 Y14.770
G00 F1500 Z0
G01 F60 Z-1.800
G00 F3000 Z3.000
G00 F3000 X43.205 Y8.700
G00 F1500 Z0
G01 F60 Z-1.800
G00 F3000 Z3.000
G00 F3000 X45.745 Y8.700
G00 F1500 Z0
G01 F60 Z-1.800
G00 F3000 Z3.000
G00 F3000 X48.285 Y8.700
G00 F1500 Z0
G01 F60 Z-1.800
G00 F3000 Z3.000
G00 F3000 X8.845 Y36.620
G00 F1500 Z0
G01 F60 Z-1.800
G00 F3000 Z3.000
G00 F3000 X8.845 Y39.160
G00 F1500 Z0
G01 F60 Z-1.800
G00 F3000 Z3.000
G00 F3000 X44.475 Y20.420
G00 F1500 Z0
G01 F60 Z-1.800
G00 F3000 Z3.000
G00 F3000 X47.015 Y20.420
G00 F1500 Z0
G01 F60 Z-1.800
G00 F3000 Z3.000
G00 F3000 X49.555 Y20.420
G00 F1500 Z0
G01 F60 Z-1.800
G00 F3000 Z3.000
G00 F3000 X41.935 Y20.420
G00 F1500 Z0
G01 F60 Z-1.800
G00 F3000 Z3.000
G00 F3000 X8.635 Y6.370
G00 F1500 Z0
G01 F60 Z-1.800
G00 F3000 Z3.000
G00 F3000 X11.175 Y6.370
G00 F1500 Z0
G01 F60 Z-1.800
G00 F3000 Z3.000
G00 F3000 X26.245 Y20.610
G00 F1500 Z0
G01 F60 Z-1.800
G00 F3000 Z3.000
G00 F3000 X28.785 Y20.610
G00 F1500 Z0
G01 F60 Z-1.800
G00 F3000 Z3.000
G00 F3000 X31.325 Y20.610
G00 F1500 Z0
G01 F60 Z-1.800
G00 F3000 Z3.000
G00 F3000 X23.705 Y20.610
G00 F1500 Z0
G01 F60 Z-1.800
G00 F3000 Z3.000
G00 F3000 X26.145 Y9.020
G00 F1500 Z0
G01 F60 Z-1.800
G00 F3000 Z3.000
G00 F3000 X28.685 Y9.020
G00 F1500 Z0
G01 F60 Z-1.800
G00 F3000 Z3.000
G00 F3000 X31.225 Y9.020
G00 F1500 Z0
G01 F60 Z-1.800
G00 F3000 Z3.000
G00 F3000 X23.605 Y9.020
G00 F1500 Z0
G01 F60 Z-1.800
G00 F3000 Z3.000
G00 F3000 X45.426 Y62.761
G00 F1500 Z0
G01 F60 Z-1.800
G00 F3000 Z3.000
G00 F3000 X38.924 Y62.761
G00 F1500 Z0
G01 F60 Z-1.800
G00 F3000 Z3.000
G00 F3000 X45.426 Y58.239
G00 F1500 Z0
G01 F60 Z-1.800
G00 F3000 Z3.000
G00 F3000 X38.924 Y58.239
G00 F1500 Z0
G01 F60 Z-1.800
G00 F3000 Z3.000
G00 F3000 X33.326 Y62.761
G00 F1500 Z0
G01 F60 Z-1.800
G00 F3000 Z3.000
G00 F3000 X26.824 Y62.761
G00 F1500 Z0
G01 F60 Z-1.800
G00 F3000 Z3.000
G00 F3000 X33.326 Y58.239
G00 F1500 Z0
G01 F60 Z-1.800
G00 F3000 Z3.000
G00 F3000 X26.824 Y58.239
G00 F1500 Z0
G01 F60 Z-1.800
G00 F3000 Z3.000
G00 F3000 X40.905 Y51.700
G00 F1500 Z0
G01 F60 Z-1.800
G00 F3000 Z3.000
G00 F3000 X43.445 Y51.700
G00 F1500 Z0
G01 F60 Z-1.800
G00 F3000 Z3.000
G00 F3000 X45.985 Y51.700
G00 F1500 Z0
G01 F60 Z-1.800
G00 F3000 Z3.000
G00 F3000 X38.365 Y51.700
G00 F1500 Z0
G01 F60 Z-1.800
G00 F3000 Z3.000
G00 F3000 Z3.000
G00 F3000 X0.000 Y0.000
M05
M30
%