( PCB Contour )
( Generated by Rapid-PCB.com )
( Material Size)
( X= 127.000, Y= 101.600, Z= 1.550)
()
G00
G17
G21
G40
G49
G54
G80
G90
G94
G00 F3000 Z3.000
M03 S9000
G00 F3000 X20.318 Y65.646
G00 F1500 Z0
G01 F600 Z-0.110
G01 F600 X20.205 Y65.622
G01 F600 X20.101 Y65.575
G01 F600 X20.011 Y65.511
G01 F600 X17.674 Y63.173
G01 F600 X17.606 Y63.098
G01 F600 X17.549 Y62.998
G01 F600 X17.513 Y62.889
G01 F600 X17.502 Y62.784
G01 F600 X17.502 Y61.991
G01 F600 X17.513 Y61.886
G01 F600 X17.549 Y61.777
G01 F600 X17.606 Y61.677
G01 F600 X17.674 Y61.602
G01 F600 X19.827 Y59.449
G01 F600 X19.827 Y57.506
G01 F600 X19.662 Y57.226
G01 F600 X19.835 Y56.557
G01 F600 X20.430 Y56.207
G01 F600 X21.098 Y56.380
G01 F600 X21.448 Y56.975
G01 F600 X21.275 Y57.643
G01 F600 X20.923 Y57.851
G01 F600 X20.923 Y59.684
G01 F600 X20.912 Y59.789
G01 F600 X20.877 Y59.898
G01 F600 X20.819 Y59.998
G01 F600 X20.752 Y60.073
G01 F600 X18.598 Y62.226
G01 F600 X18.598 Y62.549
G01 F600 X20.603 Y64.554
G01 F600 X42.622 Y64.554
G01 F600 X44.322 Y62.854
G01 F600 X44.312 Y62.761
G01 F600 X44.337 Y62.529
G01 F600 X44.409 Y62.308
G01 F600 X44.525 Y62.106
G01 F600 X44.681 Y61.933
G01 F600 X44.869 Y61.796
G01 F600 X45.082 Y61.701
G01 F600 X45.310 Y61.653
G01 F600 X45.543 Y61.653
G01 F600 X45.770 Y61.701
G01 F600 X45.983 Y61.796
G01 F600 X46.171 Y61.933
G01 F600 X46.327 Y62.106
G01 F600 X46.444 Y62.308
G01 F600 X46.516 Y62.529
G01 F600 X46.540 Y62.761
G01 F600 X46.516 Y62.992
G01 F600 X46.444 Y63.214
G01 F600 X46.327 Y63.415
G01 F600 X46.171 Y63.588
G01 F600 X45.983 Y63.725
G01 F600 X45.770 Y63.820
G01 F600 X45.543 Y63.868
G01 F600 X45.310 Y63.868
G01 F600 X45.082 Y63.820
G01 F600 X44.959 Y63.765
G01 F600 X43.214 Y65.511
G01 F600 X43.125 Y65.575
G01 F600 X43.020 Y65.622
G01 F600 X42.907 Y65.646
G01 F600 X20.318 Y65.646
G00 F3000 Z3.000
G00 F3000 X26.707 Y63.868
G00 F1500 Z0
G01 F600 Z-0.110
G01 F600 X26.480 Y63.820
G01 F600 X26.267 Y63.725
G01 F600 X26.079 Y63.588
G01 F600 X25.923 Y63.415
G01 F600 X25.806 Y63.214
G01 F600 X25.734 Y62.992
G01 F600 X25.710 Y62.761
G01 F600 X25.734 Y62.529
G01 F600 X25.806 Y62.308
G01 F600 X25.923 Y62.106
G01 F600 X26.079 Y61.933
G01 F600 X26.267 Y61.796
G01 F600 X26.480 Y61.701
G01 F600 X26.707 Y61.653
G01 F600 X26.940 Y61.653
G01 F600 X27.168 Y61.701
G01 F600 X27.381 Y61.796
G01 F600 X27.569 Y61.933
G01 F600 X27.725 Y62.106
G01 F600 X27.841 Y62.308
G01 F600 X27.913 Y62.529
G01 F600 X27.938 Y62.761
G01 F600 X27.913 Y62.992
G01 F600 X27.841 Y63.214
G01 F600 X27.725 Y63.415
G01 F600 X27.569 Y63.588
G01 F600 X27.381 Y63.725
G01 F600 X27.168 Y63.820
G01 F600 X26.940 Y63.868
G01 F600 X26.707 Y63.868
G00 F3000 Z3.000
G00 F3000 X33.210 Y63.868
G00 F1500 Z0
G01 F600 Z-0.110
G01 F600 X32.982 Y63.820
G01 F600 X32.769 Y63.725
G01 F600 X32.581 Y63.588
G01 F600 X32.425 Y63.415
G01 F600 X32.309 Y63.214
G01 F600 X32.237 Y62.992
G01 F600 X32.212 Y62.761
G01 F600 X32.237 Y62.529
G01 F600 X32.309 Y62.308
G01 F600 X30.997 Y60.996
G01 F600 X26.028 Y60.996
G01 F600 X23.839 Y63.186
G01 F600 X23.750 Y63.250
G01 F600 X23.645 Y63.297
G01 F600 X23.532 Y63.321
G01 F600 X21.093 Y63.321
G01 F600 X20.980 Y63.297
G01 F600 X20.903 Y63.263
G01 F600 X20.681 Y63.393
G01 F600 X20.012 Y63.220
G01 F600 X19.662 Y62.626
G01 F600 X19.835 Y61.957
G01 F600 X20.430 Y61.607
G01 F600 X21.098 Y61.780
G01 F600 X21.362 Y62.229
G01 F600 X23.247 Y62.229
G01 F600 X25.436 Y60.039
G01 F600 X25.526 Y59.975
G01 F600 X25.630 Y59.928
G01 F600 X25.743 Y59.904
G01 F600 X31.282 Y59.904
G01 F600 X31.395 Y59.928
G01 F600 X31.500 Y59.975
G01 F600 X31.589 Y60.039
G01 F600 X33.151 Y61.602
G01 F600 X33.199 Y61.655
G01 F600 X33.210 Y61.653
G01 F600 X33.443 Y61.653
G01 F600 X33.670 Y61.701
G01 F600 X33.883 Y61.796
G01 F600 X34.071 Y61.933
G01 F600 X34.227 Y62.106
G01 F600 X34.344 Y62.308
G01 F600 X34.416 Y62.529
G01 F600 X34.440 Y62.761
G01 F600 X34.416 Y62.992
G01 F600 X34.344 Y63.214
G01 F600 X34.227 Y63.415
G01 F600 X34.071 Y63.588
G01 F600 X33.883 Y63.725
G01 F600 X33.670 Y63.820
G01 F600 X33.443 Y63.868
G01 F600 X33.210 Y63.868
G00 F3000 Z3.000
G00 F3000 X38.807 Y63.868
G00 F1500 Z0
G01 F600 Z-0.110
G01 F600 X38.580 Y63.820
G01 F600 X38.367 Y63.725
G01 F600 X38.179 Y63.588
G01 F600 X38.023 Y63.415
G01 F600 X37.906 Y63.214
G01 F600 X37.834 Y62.992
G01 F600 X37.810 Y62.761
G01 F600 X37.834 Y62.529
G01 F600 X37.906 Y62.308
G01 F600 X38.023 Y62.106
G01 F600 X38.179 Y61.933
G01 F600 X38.367 Y61.796
G01 F600 X38.580 Y61.701
G01 F600 X38.807 Y61.653
G01 F600 X39.040 Y61.653
G01 F600 X39.268 Y61.701
G01 F600 X39.481 Y61.796
G01 F600 X39.669 Y61.933
G01 F600 X39.825 Y62.106
G01 F600 X39.941 Y62.308
G01 F600 X40.013 Y62.529
G01 F600 X40.038 Y62.761
G01 F600 X40.013 Y62.992
G01 F600 X39.941 Y63.214
G01 F600 X39.825 Y63.415
G01 F600 X39.669 Y63.588
G01 F600 X39.481 Y63.725
G01 F600 X39.268 Y63.820
G01 F600 X39.040 Y63.868
G01 F600 X38.807 Y63.868
G00 F3000 Z3.000
G00 F3000 X10.521 Y63.393
G00 F1500 Z0
G01 F600 Z-0.110
G01 F600 X9.852 Y63.220
G01 F600 X9.502 Y62.626
G01 F600 X9.673 Y61.964
G01 F600 X9.752 Y61.909
G01 F600 X9.752 Y57.651
G01 F600 X9.502 Y57.226
G01 F600 X9.640 Y56.690
G01 F600 X2.949 Y49.998
G01 F600 X2.881 Y49.923
G01 F600 X2.824 Y49.823
G01 F600 X2.788 Y49.714
G01 F600 X2.777 Y49.609
G01 F600 X2.777 Y7.741
G01 F600 X2.788 Y7.636
G01 F600 X2.824 Y7.527
G01 F600 X2.881 Y7.427
G01 F600 X2.949 Y7.352
G01 F600 X7.611 Y2.689
G01 F600 X7.701 Y2.625
G01 F600 X7.805 Y2.578
G01 F600 X7.918 Y2.554
G01 F600 X46.782 Y2.554
G01 F600 X46.895 Y2.578
G01 F600 X47.000 Y2.625
G01 F600 X47.089 Y2.689
G01 F600 X55.627 Y11.227
G01 F600 X55.694 Y11.302
G01 F600 X55.752 Y11.402
G01 F600 X55.787 Y11.511
G01 F600 X55.798 Y11.616
G01 F600 X55.798 Y48.059
G01 F600 X55.787 Y48.164
G01 F600 X55.752 Y48.273
G01 F600 X55.694 Y48.373
G01 F600 X55.627 Y48.448
G01 F600 X52.514 Y51.561
G01 F600 X52.425 Y51.625
G01 F600 X52.320 Y51.672
G01 F600 X52.207 Y51.696
G01 F600 X46.920 Y51.696
G01 F600 X46.920 Y52.471
G01 F600 X46.901 Y52.657
G01 F600 X46.840 Y52.843
G01 F600 X46.742 Y53.012
G01 F600 X46.611 Y53.158
G01 F600 X46.453 Y53.273
G01 F600 X46.274 Y53.352
G01 F600 X46.083 Y53.393
G01 F600 X45.887 Y53.393
G01 F600 X45.696 Y53.352
G01 F600 X45.517 Y53.273
G01 F600 X45.359 Y53.158
G01 F600 X45.228 Y53.012
G01 F600 X45.130 Y52.843
G01 F600 X45.070 Y52.657
G01 F600 X45.050 Y52.471
G01 F600 X45.050 Y50.929
G01 F600 X45.070 Y50.743
G01 F600 X45.130 Y50.557
G01 F600 X45.228 Y50.388
G01 F600 X45.359 Y50.242
G01 F600 X45.517 Y50.127
G01 F600 X45.696 Y50.048
G01 F600 X45.887 Y50.007
G01 F600 X46.083 Y50.007
G01 F600 X46.274 Y50.048
G01 F600 X46.453 Y50.127
G01 F600 X46.611 Y50.242
G01 F600 X46.742 Y50.388
G01 F600 X46.840 Y50.557
G01 F600 X46.855 Y50.604
G01 F600 X51.922 Y50.604
G01 F600 X54.702 Y47.824
G01 F600 X54.702 Y11.851
G01 F600 X46.497 Y3.646
G01 F600 X8.203 Y3.646
G01 F600 X3.873 Y7.976
G01 F600 X3.873 Y49.374
G01 F600 X10.677 Y56.177
G01 F600 X10.744 Y56.252
G01 F600 X10.796 Y56.343
G01 F600 X10.938 Y56.380
G01 F600 X11.288 Y56.975
G01 F600 X11.115 Y57.643
G01 F600 X10.848 Y57.800
G01 F600 X10.848 Y61.756
G01 F600 X10.938 Y61.780
G01 F600 X11.288 Y62.375
G01 F600 X11.115 Y63.043
G01 F600 X10.521 Y63.393
G00 F3000 Z3.000
G00 F3000 X26.707 Y59.347
G00 F1500 Z0
G01 F600 Z-0.110
G01 F600 X26.480 Y59.299
G01 F600 X26.267 Y59.204
G01 F600 X26.079 Y59.067
G01 F600 X25.923 Y58.894
G01 F600 X25.806 Y58.692
G01 F600 X25.734 Y58.471
G01 F600 X25.710 Y58.239
G01 F600 X25.734 Y58.008
G01 F600 X25.806 Y57.786
G01 F600 X25.923 Y57.585
G01 F600 X26.079 Y57.412
G01 F600 X26.267 Y57.275
G01 F600 X26.480 Y57.180
G01 F600 X26.707 Y57.132
G01 F600 X26.940 Y57.132
G01 F600 X27.168 Y57.180
G01 F600 X27.381 Y57.275
G01 F600 X27.569 Y57.412
G01 F600 X27.725 Y57.585
G01 F600 X27.841 Y57.786
G01 F600 X27.913 Y58.008
G01 F600 X27.938 Y58.239
G01 F600 X27.913 Y58.471
G01 F600 X27.841 Y58.692
G01 F600 X27.725 Y58.894
G01 F600 X27.569 Y59.067
G01 F600 X27.381 Y59.204
G01 F600 X27.168 Y59.299
G01 F600 X26.940 Y59.347
G01 F600 X26.707 Y59.347
G00 F3000 Z3.000
G00 F3000 X33.210 Y59.347
G00 F1500 Z0
G01 F600 Z-0.110
G01 F600 X32.982 Y59.299
G01 F600 X32.769 Y59.204
G01 F600 X32.581 Y59.067
G01 F600 X32.425 Y58.894
G01 F600 X32.309 Y58.692
G01 F600 X32.237 Y58.471
G01 F600 X32.212 Y58.239
G01 F600 X32.237 Y58.008
G01 F600 X32.309 Y57.786
G01 F600 X32.425 Y57.585
G01 F600 X32.581 Y57.412
G01 F600 X32.769 Y57.275
G01 F600 X32.982 Y57.180
G01 F600 X33.210 Y57.132
G01 F600 X33.443 Y57.132
G01 F600 X33.670 Y57.180
G01 F600 X33.883 Y57.275
G01 F600 X34.071 Y57.412
G01 F600 X34.222 Y57.579
G01 F600 X35.647 Y57.579
G01 F600 X39.977 Y53.249
G01 F600 X39.977 Y52.538
G01 F600 X39.970 Y52.471
G01 F600 X39.970 Y50.929
G01 F600 X39.989 Y50.743
G01 F600 X40.050 Y50.557
G01 F600 X40.148 Y50.388
G01 F600 X40.279 Y50.242
G01 F600 X40.437 Y50.127
G01 F600 X40.616 Y50.048
G01 F600 X40.807 Y50.007
G01 F600 X41.003 Y50.007
G01 F600 X41.194 Y50.048
G01 F600 X41.373 Y50.127
G01 F600 X41.531 Y50.242
G01 F600 X41.662 Y50.388
G01 F600 X41.760 Y50.557
G01 F600 X41.821 Y50.743
G01 F600 X41.840 Y50.929
G01 F600 X41.840 Y52.471
G01 F600 X41.821 Y52.657
G01 F600 X41.760 Y52.843
G01 F600 X41.662 Y53.012
G01 F600 X41.531 Y53.158
G01 F600 X41.373 Y53.273
G01 F600 X41.194 Y53.352
G01 F600 X41.073 Y53.378
G01 F600 X41.073 Y53.484
G01 F600 X41.062 Y53.589
G01 F600 X41.026 Y53.698
G01 F600 X40.969 Y53.798
G01 F600 X40.901 Y53.873
G01 F600 X36.239 Y58.536
G01 F600 X36.150 Y58.600
G01 F600 X36.045 Y58.647
G01 F600 X35.932 Y58.671
G01 F600 X34.351 Y58.671
G01 F600 X34.344 Y58.692
G01 F600 X34.227 Y58.894
G01 F600 X34.071 Y59.067
G01 F600 X33.883 Y59.204
G01 F600 X33.670 Y59.299
G01 F600 X33.443 Y59.347
G01 F600 X33.210 Y59.347
G00 F3000 Z3.000
G00 F3000 X38.807 Y59.347
G00 F1500 Z0
G01 F600 Z-0.110
G01 F600 X38.580 Y59.299
G01 F600 X38.367 Y59.204
G01 F600 X38.179 Y59.067
G01 F600 X38.023 Y58.894
G01 F600 X37.906 Y58.692
G01 F600 X37.834 Y58.471
G01 F600 X37.810 Y58.239
G01 F600 X37.834 Y58.008
G01 F600 X37.906 Y57.786
G01 F600 X38.023 Y57.585
G01 F600 X38.179 Y57.412
G01 F600 X38.367 Y57.275
G01 F600 X38.580 Y57.180
G01 F600 X38.807 Y57.132
G01 F600 X39.040 Y57.132
G01 F600 X39.268 Y57.180
G01 F600 X39.481 Y57.275
G01 F600 X39.669 Y57.412
G01 F600 X39.825 Y57.585
G01 F600 X39.941 Y57.786
G01 F600 X40.013 Y58.008
G01 F600 X40.038 Y58.239
G01 F600 X40.013 Y58.471
G01 F600 X39.941 Y58.692
G01 F600 X39.825 Y58.894
G01 F600 X39.669 Y59.067
G01 F600 X39.481 Y59.204
G01 F600 X39.268 Y59.299
G01 F600 X39.040 Y59.347
G01 F600 X38.807 Y59.347
G00 F3000 Z3.000
G00 F3000 X45.310 Y59.347
G00 F1500 Z0
G01 F600 Z-0.110
G01 F600 X45.082 Y59.299
G01 F600 X44.869 Y59.204
G01 F600 X44.681 Y59.067
G01 F600 X44.525 Y58.894
G01 F600 X44.409 Y58.692
G01 F600 X44.337 Y58.471
G01 F600 X44.312 Y58.239
G01 F600 X44.332 Y58.056
G01 F600 X43.248 Y56.973
G01 F600 X43.181 Y56.898
G01 F600 X43.123 Y56.798
G01 F600 X43.088 Y56.689
G01 F600 X43.077 Y56.584
G01 F600 X43.077 Y53.317
G01 F600 X42.977 Y53.273
G01 F600 X42.819 Y53.158
G01 F600 X42.688 Y53.012
G01 F600 X42.590 Y52.843
G01 F600 X42.529 Y52.657
G01 F600 X42.510 Y52.471
G01 F600 X42.510 Y50.929
G01 F600 X42.529 Y50.743
G01 F600 X42.590 Y50.557
G01 F600 X42.688 Y50.388
G01 F600 X42.819 Y50.242
G01 F600 X42.977 Y50.127
G01 F600 X43.156 Y50.048
G01 F600 X43.347 Y50.007
G01 F600 X43.543 Y50.007
G01 F600 X43.734 Y50.048
G01 F600 X43.913 Y50.127
G01 F600 X44.071 Y50.242
G01 F600 X44.202 Y50.388
G01 F600 X44.300 Y50.557
G01 F600 X44.361 Y50.743
G01 F600 X44.380 Y50.929
G01 F600 X44.380 Y52.471
G01 F600 X44.361 Y52.657
G01 F600 X44.300 Y52.843
G01 F600 X44.202 Y53.012
G01 F600 X44.173 Y53.045
G01 F600 X44.173 Y56.349
G01 F600 X45.028 Y57.204
G01 F600 X45.082 Y57.180
G01 F600 X45.310 Y57.132
G01 F600 X45.543 Y57.132
G01 F600 X45.770 Y57.180
G01 F600 X45.983 Y57.275
G01 F600 X46.171 Y57.412
G01 F600 X46.327 Y57.585
G01 F600 X46.444 Y57.786
G01 F600 X46.516 Y58.008
G01 F600 X46.540 Y58.239
G01 F600 X46.516 Y58.471
G01 F600 X46.444 Y58.692
G01 F600 X46.327 Y58.894
G01 F600 X46.171 Y59.067
G01 F600 X45.983 Y59.204
G01 F600 X45.770 Y59.299
G01 F600 X45.543 Y59.347
G01 F600 X45.310 Y59.347
G00 F3000 Z3.000
G00 F3000 X38.267 Y53.393
G00 F1500 Z0
G01 F600 Z-0.110
G01 F600 X38.076 Y53.352
G01 F600 X37.897 Y53.273
G01 F600 X37.739 Y53.158
G01 F600 X37.608 Y53.012
G01 F600 X37.510 Y52.843
G01 F600 X37.450 Y52.657
G01 F600 X37.430 Y52.471
G01 F600 X37.430 Y51.696
G01 F600 X10.514 Y51.698
G01 F600 X10.445 Y51.963
G01 F600 X9.851 Y52.313
G01 F600 X9.182 Y52.140
G01 F600 X8.832 Y51.546
G01 F600 X9.005 Y50.877
G01 F600 X9.597 Y50.528
G01 F600 X10.095 Y50.644
G01 F600 X10.130 Y50.628
G01 F600 X10.243 Y50.604
G01 F600 X37.495 Y50.604
G01 F600 X37.510 Y50.557
G01 F600 X37.608 Y50.388
G01 F600 X37.739 Y50.242
G01 F600 X37.897 Y50.127
G01 F600 X38.076 Y50.048
G01 F600 X38.267 Y50.007
G01 F600 X38.463 Y50.007
G01 F600 X38.654 Y50.048
G01 F600 X38.833 Y50.127
G01 F600 X38.991 Y50.242
G01 F600 X39.122 Y50.388
G01 F600 X39.220 Y50.557
G01 F600 X39.281 Y50.743
G01 F600 X39.300 Y50.929
G01 F600 X39.300 Y52.471
G01 F600 X39.281 Y52.657
G01 F600 X39.220 Y52.843
G01 F600 X39.122 Y53.012
G01 F600 X38.991 Y53.158
G01 F600 X38.833 Y53.273
G01 F600 X38.654 Y53.352
G01 F600 X38.463 Y53.393
G01 F600 X38.267 Y53.393
G00 F3000 Z3.000
G00 F3000 X9.851 Y49.773
G00 F1500 Z0
G01 F600 Z-0.110
G01 F600 X9.182 Y49.600
G01 F600 X8.832 Y49.006
G01 F600 X8.852 Y48.926
G01 F600 X4.498 Y44.573
G01 F600 X4.431 Y44.498
G01 F600 X4.373 Y44.398
G01 F600 X4.338 Y44.289
G01 F600 X4.327 Y44.184
G01 F600 X4.327 Y20.141
G01 F600 X4.338 Y20.036
G01 F600 X4.373 Y19.927
G01 F600 X4.431 Y19.827
G01 F600 X4.499 Y19.752
G01 F600 X6.652 Y17.599
G01 F600 X6.652 Y16.072
G01 F600 X6.560 Y15.913
G01 F600 X6.500 Y15.727
G01 F600 X6.480 Y15.541
G01 F600 X6.480 Y13.999
G01 F600 X6.500 Y13.813
G01 F600 X6.560 Y13.627
G01 F600 X6.658 Y13.458
G01 F600 X6.789 Y13.313
G01 F600 X6.947 Y13.197
G01 F600 X7.126 Y13.118
G01 F600 X7.317 Y13.077
G01 F600 X7.427 Y13.077
G01 F600 X7.427 Y6.966
G01 F600 X7.438 Y6.861
G01 F600 X7.474 Y6.752
G01 F600 X7.531 Y6.652
G01 F600 X7.601 Y6.574
G01 F600 X7.700 Y6.484
G01 F600 X7.700 Y5.599
G01 F600 X7.720 Y5.413
G01 F600 X7.780 Y5.227
G01 F600 X7.878 Y5.058
G01 F600 X8.009 Y4.913
G01 F600 X8.167 Y4.797
G01 F600 X8.346 Y4.718
G01 F600 X8.537 Y4.677
G01 F600 X8.733 Y4.677
G01 F600 X8.924 Y4.718
G01 F600 X9.103 Y4.797
G01 F600 X9.261 Y4.913
G01 F600 X9.392 Y5.058
G01 F600 X9.490 Y5.227
G01 F600 X9.551 Y5.413
G01 F600 X9.570 Y5.599
G01 F600 X9.570 Y7.141
G01 F600 X9.551 Y7.327
G01 F600 X9.490 Y7.513
G01 F600 X9.392 Y7.682
G01 F600 X9.261 Y7.828
G01 F600 X9.103 Y7.943
G01 F600 X8.924 Y8.022
G01 F600 X8.733 Y8.063
G01 F600 X8.537 Y8.063
G01 F600 X8.523 Y8.060
G01 F600 X8.523 Y14.734
G01 F600 X8.512 Y14.839
G01 F600 X8.476 Y14.948
G01 F600 X8.419 Y15.048
G01 F600 X8.350 Y15.124
G01 F600 X8.350 Y15.541
G01 F600 X8.331 Y15.727
G01 F600 X8.270 Y15.913
G01 F600 X8.172 Y16.082
G01 F600 X8.041 Y16.227
G01 F600 X7.883 Y16.343
G01 F600 X7.748 Y16.403
G01 F600 X7.748 Y17.834
G01 F600 X7.737 Y17.939
G01 F600 X7.702 Y18.048
G01 F600 X7.644 Y18.148
G01 F600 X7.577 Y18.223
G01 F600 X5.423 Y20.376
G01 F600 X5.423 Y43.949
G01 F600 X9.512 Y48.038
G01 F600 X9.600 Y47.987
G01 F600 X10.258 Y48.157
G01 F600 X10.348 Y48.279
G01 F600 X21.697 Y48.279
G01 F600 X22.780 Y47.196
G01 F600 X22.753 Y47.150
G01 F600 X22.699 Y46.984
G01 F600 X22.682 Y46.820
G01 F600 X22.682 Y45.480
G01 F600 X22.699 Y45.316
G01 F600 X22.753 Y45.150
G01 F600 X22.840 Y44.999
G01 F600 X22.957 Y44.870
G01 F600 X23.098 Y44.767
G01 F600 X23.257 Y44.696
G01 F600 X23.428 Y44.660
G01 F600 X23.602 Y44.660
G01 F600 X23.773 Y44.696
G01 F600 X23.932 Y44.767
G01 F600 X24.073 Y44.870
G01 F600 X24.190 Y44.999
G01 F600 X24.277 Y45.150
G01 F600 X24.331 Y45.316
G01 F600 X24.348 Y45.480
G01 F600 X24.348 Y46.820
G01 F600 X24.331 Y46.984
G01 F600 X24.277 Y47.150
G01 F600 X24.190 Y47.301
G01 F600 X24.072 Y47.432
G01 F600 X23.977 Y47.498
G01 F600 X23.977 Y47.498
G01 F600 X23.919 Y47.598
G01 F600 X23.852 Y47.673
G01 F600 X22.289 Y49.236
G01 F600 X22.200 Y49.300
G01 F600 X22.095 Y49.347
G01 F600 X21.982 Y49.371
G01 F600 X10.459 Y49.372
G01 F600 X10.446 Y49.423
G01 F600 X9.851 Y49.773
G00 F3000 Z3.000
G00 F3000 X32.718 Y49.371
G00 F1500 Z0
G01 F600 Z-0.110
G01 F600 X32.605 Y49.347
G01 F600 X32.501 Y49.300
G01 F600 X32.411 Y49.236
G01 F600 X30.849 Y47.673
G01 F600 X30.779 Y47.596
G01 F600 X30.754 Y47.549
G01 F600 X30.718 Y47.533
G01 F600 X30.577 Y47.430
G01 F600 X30.460 Y47.301
G01 F600 X30.373 Y47.150
G01 F600 X30.319 Y46.984
G01 F600 X30.302 Y46.820
G01 F600 X30.302 Y45.480
G01 F600 X30.319 Y45.316
G01 F600 X30.373 Y45.150
G01 F600 X30.460 Y44.999
G01 F600 X30.577 Y44.870
G01 F600 X30.718 Y44.767
G01 F600 X30.877 Y44.696
G01 F600 X31.048 Y44.660
G01 F600 X31.222 Y44.660
G01 F600 X31.393 Y44.696
G01 F600 X31.552 Y44.767
G01 F600 X31.693 Y44.870
G01 F600 X31.810 Y44.999
G01 F600 X31.897 Y45.150
G01 F600 X31.951 Y45.316
G01 F600 X31.968 Y45.480
G01 F600 X31.968 Y46.820
G01 F600 X31.951 Y46.984
G01 F600 X31.897 Y47.150
G01 F600 X31.889 Y47.165
G01 F600 X33.003 Y48.279
G01 F600 X51.922 Y48.279
G01 F600 X53.152 Y47.049
G01 F600 X53.152 Y14.951
G01 F600 X48.557 Y10.356
G01 F600 X48.383 Y10.393
G01 F600 X48.187 Y10.393
G01 F600 X47.996 Y10.352
G01 F600 X47.817 Y10.273
G01 F600 X47.659 Y10.158
G01 F600 X47.528 Y10.012
G01 F600 X47.430 Y9.843
G01 F600 X47.370 Y9.657
G01 F600 X47.350 Y9.471
G01 F600 X47.350 Y7.929
G01 F600 X47.370 Y7.743
G01 F600 X47.430 Y7.557
G01 F600 X47.528 Y7.388
G01 F600 X47.659 Y7.243
G01 F600 X47.817 Y7.127
G01 F600 X47.996 Y7.048
G01 F600 X48.187 Y7.007
G01 F600 X48.383 Y7.007
G01 F600 X48.574 Y7.048
G01 F600 X48.753 Y7.127
G01 F600 X48.911 Y7.243
G01 F600 X49.042 Y7.388
G01 F600 X49.140 Y7.557
G01 F600 X49.201 Y7.743
G01 F600 X49.220 Y7.929
G01 F600 X49.220 Y9.471
G01 F600 X54.077 Y14.327
G01 F600 X54.144 Y14.402
G01 F600 X54.202 Y14.502
G01 F600 X54.237 Y14.611
G01 F600 X54.248 Y14.716
G01 F600 X54.248 Y47.284
G01 F600 X54.237 Y47.389
G01 F600 X54.202 Y47.498
G01 F600 X54.144 Y47.598
G01 F600 X54.077 Y47.673
G01 F600 X52.514 Y49.236
G01 F600 X52.425 Y49.300
G01 F600 X52.320 Y49.347
G01 F600 X52.207 Y49.371
G01 F600 X32.718 Y49.371
G00 F3000 Z3.000
G00 F3000 X43.748 Y47.640
G00 F1500 Z0
G01 F600 Z-0.110
G01 F600 X43.577 Y47.604
G01 F600 X43.418 Y47.533
G01 F600 X43.277 Y47.430
G01 F600 X43.160 Y47.301
G01 F600 X43.073 Y47.150
G01 F600 X43.019 Y46.984
G01 F600 X43.002 Y46.820
G01 F600 X43.002 Y45.480
G01 F600 X43.019 Y45.316
G01 F600 X43.073 Y45.150
G01 F600 X43.160 Y44.999
G01 F600 X43.277 Y44.870
G01 F600 X43.418 Y44.767
G01 F600 X43.577 Y44.696
G01 F600 X43.748 Y44.660
G01 F600 X43.922 Y44.660
G01 F600 X44.093 Y44.696
G01 F600 X44.252 Y44.767
G01 F600 X44.393 Y44.870
G01 F600 X44.510 Y44.999
G01 F600 X44.597 Y45.150
G01 F600 X44.651 Y45.316
G01 F600 X44.668 Y45.480
G01 F600 X44.668 Y46.820
G01 F600 X44.651 Y46.984
G01 F600 X44.597 Y47.150
G01 F600 X44.510 Y47.301
G01 F600 X44.393 Y47.430
G01 F600 X44.252 Y47.533
G01 F600 X44.093 Y47.604
G01 F600 X43.922 Y47.640
G01 F600 X43.748 Y47.640
G00 F3000 Z3.000
G00 F3000 X41.208 Y47.640
G00 F1500 Z0
G01 F600 Z-0.110
G01 F600 X41.037 Y47.604
G01 F600 X40.878 Y47.533
G01 F600 X40.737 Y47.430
G01 F600 X40.620 Y47.301
G01 F600 X40.533 Y47.150
G01 F600 X40.479 Y46.984
G01 F600 X40.462 Y46.820
G01 F600 X40.462 Y45.480
G01 F600 X40.479 Y45.316
G01 F600 X40.533 Y45.150
G01 F600 X40.620 Y44.999
G01 F600 X40.737 Y44.870
G01 F600 X40.878 Y44.767
G01 F600 X41.037 Y44.696
G01 F600 X41.208 Y44.660
G01 F600 X41.382 Y44.660
G01 F600 X41.553 Y44.696
G01 F600 X41.712 Y44.767
G01 F600 X41.853 Y44.870
G01 F600 X41.970 Y44.999
G01 F600 X42.057 Y45.150
G01 F600 X42.111 Y45.316
G01 F600 X42.128 Y45.480
G01 F600 X42.128 Y46.820
G01 F600 X42.111 Y46.984
G01 F600 X42.057 Y47.150
G01 F600 X41.970 Y47.301
G01 F600 X41.853 Y47.430
G01 F600 X41.712 Y47.533
G01 F600 X41.553 Y47.604
G01 F600 X41.382 Y47.640
G01 F600 X41.208 Y47.640
G00 F3000 Z3.000
G00 F3000 X48.828 Y47.640
G00 F1500 Z0
G01 F600 Z-0.110
G01 F600 X48.657 Y47.604
G01 F600 X48.498 Y47.533
G01 F600 X48.357 Y47.430
G01 F600 X48.240 Y47.301
G01 F600 X48.153 Y47.150
G01 F600 X48.099 Y46.984
G01 F600 X48.082 Y46.820
G01 F600 X48.082 Y45.480
G01 F600 X48.099 Y45.316
G01 F600 X48.153 Y45.150
G01 F600 X48.240 Y44.999
G01 F600 X48.357 Y44.870
G01 F600 X48.498 Y44.767
G01 F600 X48.657 Y44.696
G01 F600 X48.828 Y44.660
G01 F600 X49.002 Y44.660
G01 F600 X49.173 Y44.696
G01 F600 X49.332 Y44.767
G01 F600 X49.473 Y44.870
G01 F600 X49.590 Y44.999
G01 F600 X49.677 Y45.150
G01 F600 X49.731 Y45.316
G01 F600 X49.748 Y45.480
G01 F600 X49.748 Y46.820
G01 F600 X49.731 Y46.984
G01 F600 X49.677 Y47.150
G01 F600 X49.590 Y47.301
G01 F600 X49.473 Y47.430
G01 F600 X49.332 Y47.533
G01 F600 X49.173 Y47.604
G01 F600 X49.002 Y47.640
G01 F600 X48.828 Y47.640
G00 F3000 Z3.000
G00 F3000 X46.288 Y47.640
G00 F1500 Z0
G01 F600 Z-0.110
G01 F600 X46.117 Y47.604
G01 F600 X45.958 Y47.533
G01 F600 X45.817 Y47.430
G01 F600 X45.700 Y47.301
G01 F600 X45.613 Y47.150
G01 F600 X45.559 Y46.984
G01 F600 X45.542 Y46.820
G01 F600 X45.542 Y45.480
G01 F600 X45.559 Y45.316
G01 F600 X45.613 Y45.150
G01 F600 X45.700 Y44.999
G01 F600 X45.817 Y44.870
G01 F600 X45.958 Y44.767
G01 F600 X46.117 Y44.696
G01 F600 X46.288 Y44.660
G01 F600 X46.462 Y44.660
G01 F600 X46.633 Y44.696
G01 F600 X46.792 Y44.767
G01 F600 X46.933 Y44.870
G01 F600 X47.050 Y44.999
G01 F600 X47.137 Y45.150
G01 F600 X47.191 Y45.316
G01 F600 X47.208 Y45.480
G01 F600 X47.208 Y46.820
G01 F600 X47.191 Y46.984
G01 F600 X47.137 Y47.150
G01 F600 X47.050 Y47.301
G01 F600 X46.933 Y47.430
G01 F600 X46.792 Y47.533
G01 F600 X46.633 Y47.604
G01 F600 X46.462 Y47.640
G01 F600 X46.288 Y47.640
G00 F3000 Z3.000
G00 F3000 X33.588 Y47.640
G00 F1500 Z0
G01 F600 Z-0.110
G01 F600 X33.417 Y47.604
G01 F600 X33.258 Y47.533
G01 F600 X33.117 Y47.430
G01 F600 X33.000 Y47.301
G01 F600 X32.913 Y47.150
G01 F600 X32.859 Y46.984
G01 F600 X32.842 Y46.820
G01 F600 X32.842 Y45.480
G01 F600 X32.859 Y45.316
G01 F600 X32.914 Y45.148
G01 F600 X32.937 Y45.111
G01 F600 X22.472 Y34.646
G01 F600 X15.668 Y34.646
G01 F600 X15.555 Y34.622
G01 F600 X15.450 Y34.575
G01 F600 X15.361 Y34.511
G01 F600 X6.049 Y25.198
G01 F600 X5.981 Y25.123
G01 F600 X5.924 Y25.023
G01 F600 X5.888 Y24.914
G01 F600 X5.877 Y24.809
G01 F600 X5.877 Y20.916
G01 F600 X5.888 Y20.811
G01 F600 X5.924 Y20.702
G01 F600 X5.981 Y20.602
G01 F600 X6.049 Y20.527
G01 F600 X9.161 Y17.414
G01 F600 X9.251 Y17.350
G01 F600 X9.355 Y17.303
G01 F600 X9.468 Y17.279
G01 F600 X10.847 Y17.279
G01 F600 X11.886 Y16.240
G01 F600 X11.869 Y16.227
G01 F600 X11.738 Y16.082
G01 F600 X11.640 Y15.913
G01 F600 X11.580 Y15.727
G01 F600 X11.560 Y15.541
G01 F600 X11.560 Y13.999
G01 F600 X11.580 Y13.813
G01 F600 X11.640 Y13.627
G01 F600 X11.738 Y13.458
G01 F600 X11.869 Y13.313
G01 F600 X12.027 Y13.197
G01 F600 X12.206 Y13.118
G01 F600 X12.397 Y13.077
G01 F600 X12.593 Y13.077
G01 F600 X12.784 Y13.118
G01 F600 X12.963 Y13.197
G01 F600 X13.121 Y13.313
G01 F600 X13.252 Y13.458
G01 F600 X13.350 Y13.627
G01 F600 X13.411 Y13.813
G01 F600 X13.430 Y13.999
G01 F600 X13.430 Y15.541
G01 F600 X13.411 Y15.727
G01 F600 X13.350 Y15.913
G01 F600 X13.252 Y16.083
G01 F600 X13.173 Y16.169
G01 F600 X13.173 Y16.284
G01 F600 X13.162 Y16.389
G01 F600 X13.127 Y16.498
G01 F600 X13.069 Y16.598
G01 F600 X13.002 Y16.673
G01 F600 X11.439 Y18.236
G01 F600 X11.350 Y18.300
G01 F600 X11.245 Y18.347
G01 F600 X11.132 Y18.371
G01 F600 X9.753 Y18.371
G01 F600 X6.973 Y21.151
G01 F600 X6.973 Y24.574
G01 F600 X15.953 Y33.554
G01 F600 X22.757 Y33.554
G01 F600 X22.870 Y33.578
G01 F600 X22.975 Y33.625
G01 F600 X23.064 Y33.689
G01 F600 X33.927 Y44.552
G01 F600 X33.994 Y44.627
G01 F600 X34.052 Y44.728
G01 F600 X34.060 Y44.753
G01 F600 X34.092 Y44.767
G01 F600 X34.233 Y44.870
G01 F600 X34.350 Y44.999
G01 F600 X34.437 Y45.150
G01 F600 X34.491 Y45.316
G01 F600 X34.508 Y45.480
G01 F600 X34.508 Y46.820
G01 F600 X34.491 Y46.984
G01 F600 X34.437 Y47.150
G01 F600 X34.350 Y47.301
G01 F600 X34.233 Y47.430
G01 F600 X34.092 Y47.533
G01 F600 X33.933 Y47.604
G01 F600 X33.762 Y47.640
G01 F600 X33.588 Y47.640
G00 F3000 Z3.000
G00 F3000 X38.668 Y47.640
G00 F1500 Z0
G01 F600 Z-0.110
G01 F600 X38.497 Y47.604
G01 F600 X38.338 Y47.533
G01 F600 X38.197 Y47.430
G01 F600 X38.080 Y47.301
G01 F600 X37.993 Y47.150
G01 F600 X37.939 Y46.984
G01 F600 X37.922 Y46.820
G01 F600 X37.922 Y45.480
G01 F600 X37.939 Y45.316
G01 F600 X37.993 Y45.150
G01 F600 X38.080 Y44.999
G01 F600 X38.197 Y44.870
G01 F600 X38.338 Y44.767
G01 F600 X38.497 Y44.696
G01 F600 X38.668 Y44.660
G01 F600 X38.842 Y44.660
G01 F600 X39.013 Y44.696
G01 F600 X39.172 Y44.767
G01 F600 X39.313 Y44.870
G01 F600 X39.430 Y44.999
G01 F600 X39.517 Y45.150
G01 F600 X39.571 Y45.316
G01 F600 X39.588 Y45.480
G01 F600 X39.588 Y46.820
G01 F600 X39.571 Y46.984
G01 F600 X39.517 Y47.150
G01 F600 X39.430 Y47.301
G01 F600 X39.313 Y47.430
G01 F600 X39.172 Y47.533
G01 F600 X39.013 Y47.604
G01 F600 X38.842 Y47.640
G01 F600 X38.668 Y47.640
G00 F3000 Z3.000
G00 F3000 X36.128 Y47.640
G00 F1500 Z0
G01 F600 Z-0.110
G01 F600 X35.957 Y47.604
G01 F600 X35.798 Y47.533
G01 F600 X35.657 Y47.430
G01 F600 X35.540 Y47.301
G01 F600 X35.453 Y47.150
G01 F600 X35.399 Y46.984
G01 F600 X35.382 Y46.820
G01 F600 X35.382 Y45.480
G01 F600 X35.399 Y45.316
G01 F600 X35.453 Y45.150
G01 F600 X35.540 Y44.999
G01 F600 X35.657 Y44.870
G01 F600 X35.798 Y44.767
G01 F600 X35.957 Y44.696
G01 F600 X36.128 Y44.660
G01 F600 X36.302 Y44.660
G01 F600 X36.473 Y44.696
G01 F600 X36.632 Y44.767
G01 F600 X36.773 Y44.870
G01 F600 X36.890 Y44.999
G01 F600 X36.977 Y45.150
G01 F600 X37.031 Y45.316
G01 F600 X37.048 Y45.480
G01 F600 X37.048 Y46.820
G01 F600 X37.031 Y46.984
G01 F600 X36.977 Y47.150
G01 F600 X36.890 Y47.301
G01 F600 X36.773 Y47.430
G01 F600 X36.632 Y47.533
G01 F600 X36.473 Y47.604
G01 F600 X36.302 Y47.640
G01 F600 X36.128 Y47.640
G00 F3000 Z3.000
G00 F3000 X51.368 Y47.640
G00 F1500 Z0
G01 F600 Z-0.110
G01 F600 X51.197 Y47.604
G01 F600 X51.038 Y47.533
G01 F600 X50.897 Y47.430
G01 F600 X50.780 Y47.301
G01 F600 X50.693 Y47.150
G01 F600 X50.639 Y46.984
G01 F600 X50.622 Y46.820
G01 F600 X50.622 Y45.480
G01 F600 X50.639 Y45.316
G01 F600 X50.693 Y45.150
G01 F600 X50.780 Y44.999
G01 F600 X50.897 Y44.870
G01 F600 X51.038 Y44.767
G01 F600 X51.197 Y44.696
G01 F600 X51.368 Y44.660
G01 F600 X51.542 Y44.660
G01 F600 X51.713 Y44.696
G01 F600 X51.872 Y44.767
G01 F600 X52.013 Y44.870
G01 F600 X52.130 Y44.999
G01 F600 X52.217 Y45.150
G01 F600 X52.271 Y45.316
G01 F600 X52.288 Y45.480
G01 F600 X52.288 Y46.820
G01 F600 X52.271 Y46.984
G01 F600 X52.217 Y47.150
G01 F600 X52.130 Y47.301
G01 F600 X52.013 Y47.430
G01 F600 X51.872 Y47.533
G01 F600 X51.713 Y47.604
G01 F600 X51.542 Y47.640
G01 F600 X51.368 Y47.640
G00 F3000 Z3.000
G00 F3000 X20.888 Y47.640
G00 F1500 Z0
G01 F600 Z-0.110
G01 F600 X20.717 Y47.604
G01 F600 X20.558 Y47.533
G01 F600 X20.417 Y47.430
G01 F600 X20.300 Y47.301
G01 F600 X20.213 Y47.150
G01 F600 X20.159 Y46.984
G01 F600 X20.142 Y46.820
G01 F600 X20.142 Y45.480
G01 F600 X20.159 Y45.316
G01 F600 X20.213 Y45.150
G01 F600 X20.300 Y44.999
G01 F600 X20.417 Y44.870
G01 F600 X20.558 Y44.767
G01 F600 X20.717 Y44.696
G01 F600 X20.888 Y44.660
G01 F600 X21.062 Y44.660
G01 F600 X21.233 Y44.696
G01 F600 X21.392 Y44.767
G01 F600 X21.533 Y44.870
G01 F600 X21.650 Y44.999
G01 F600 X21.737 Y45.150
G01 F600 X21.791 Y45.316
G01 F600 X21.808 Y45.480
G01 F600 X21.808 Y46.820
G01 F600 X21.791 Y46.984
G01 F600 X21.737 Y47.150
G01 F600 X21.650 Y47.301
G01 F600 X21.533 Y47.430
G01 F600 X21.392 Y47.533
G01 F600 X21.233 Y47.604
G01 F600 X21.062 Y47.640
G01 F600 X20.888 Y47.640
G00 F3000 Z3.000
G00 F3000 X28.508 Y47.640
G00 F1500 Z0
G01 F600 Z-0.110
G01 F600 X28.337 Y47.604
G01 F600 X28.178 Y47.533
G01 F600 X28.037 Y47.430
G01 F600 X27.920 Y47.301
G01 F600 X27.833 Y47.150
G01 F600 X27.779 Y46.984
G01 F600 X27.762 Y46.820
G01 F600 X27.762 Y45.480
G01 F600 X27.779 Y45.316
G01 F600 X27.833 Y45.150
G01 F600 X27.920 Y44.999
G01 F600 X28.037 Y44.870
G01 F600 X28.178 Y44.767
G01 F600 X28.337 Y44.696
G01 F600 X28.508 Y44.660
G01 F600 X28.682 Y44.660
G01 F600 X28.853 Y44.696
G01 F600 X29.012 Y44.767
G01 F600 X29.153 Y44.870
G01 F600 X29.270 Y44.999
G01 F600 X29.357 Y45.150
G01 F600 X29.411 Y45.316
G01 F600 X29.428 Y45.480
G01 F600 X29.428 Y46.820
G01 F600 X29.411 Y46.984
G01 F600 X29.357 Y47.150
G01 F600 X29.270 Y47.301
G01 F600 X29.153 Y47.430
G01 F600 X29.012 Y47.533
G01 F600 X28.853 Y47.604
G01 F600 X28.682 Y47.640
G01 F600 X28.508 Y47.640
G00 F3000 Z3.000
G00 F3000 X25.968 Y47.640
G00 F1500 Z0
G01 F600 Z-0.110
G01 F600 X25.797 Y47.604
G01 F600 X25.638 Y47.533
G01 F600 X25.497 Y47.430
G01 F600 X25.380 Y47.301
G01 F600 X25.293 Y47.150
G01 F600 X25.239 Y46.984
G01 F600 X25.222 Y46.820
G01 F600 X25.222 Y45.480
G01 F600 X25.239 Y45.316
G01 F600 X25.293 Y45.150
G01 F600 X25.380 Y44.999
G01 F600 X25.497 Y44.870
G01 F600 X25.638 Y44.767
G01 F600 X25.797 Y44.696
G01 F600 X25.968 Y44.660
G01 F600 X26.142 Y44.660
G01 F600 X26.313 Y44.696
G01 F600 X26.472 Y44.767
G01 F600 X26.613 Y44.870
G01 F600 X26.730 Y44.999
G01 F600 X26.817 Y45.150
G01 F600 X26.871 Y45.316
G01 F600 X26.888 Y45.480
G01 F600 X26.888 Y46.820
G01 F600 X26.871 Y46.984
G01 F600 X26.817 Y47.150
G01 F600 X26.730 Y47.301
G01 F600 X26.613 Y47.430
G01 F600 X26.472 Y47.533
G01 F600 X26.313 Y47.604
G01 F600 X26.142 Y47.640
G01 F600 X25.968 Y47.640
G00 F3000 Z3.000
G00 F3000 X18.348 Y47.640
G00 F1500 Z0
G01 F600 Z-0.110
G01 F600 X18.177 Y47.604
G01 F600 X18.018 Y47.533
G01 F600 X17.877 Y47.430
G01 F600 X17.760 Y47.301
G01 F600 X17.673 Y47.150
G01 F600 X17.619 Y46.984
G01 F600 X17.602 Y46.820
G01 F600 X17.602 Y46.040
G01 F600 X17.549 Y45.948
G01 F600 X17.513 Y45.839
G01 F600 X17.502 Y45.734
G01 F600 X17.502 Y44.401
G01 F600 X10.847 Y37.746
G01 F600 X9.468 Y37.746
G01 F600 X9.355 Y37.722
G01 F600 X9.251 Y37.675
G01 F600 X9.167 Y37.615
G01 F600 X9.092 Y37.551
G01 F600 X7.985 Y37.551
G01 F600 X7.794 Y37.510
G01 F600 X7.615 Y37.431
G01 F600 X7.457 Y37.316
G01 F600 X7.326 Y37.170
G01 F600 X7.228 Y37.001
G01 F600 X7.168 Y36.815
G01 F600 X7.147 Y36.620
G01 F600 X7.168 Y36.425
G01 F600 X7.228 Y36.239
G01 F600 X7.326 Y36.070
G01 F600 X7.457 Y35.925
G01 F600 X7.615 Y35.809
G01 F600 X7.794 Y35.730
G01 F600 X7.985 Y35.689
G01 F600 X9.705 Y35.689
G01 F600 X9.896 Y35.730
G01 F600 X10.075 Y35.809
G01 F600 X10.233 Y35.925
G01 F600 X10.364 Y36.070
G01 F600 X10.462 Y36.239
G01 F600 X10.523 Y36.425
G01 F600 X10.543 Y36.620
G01 F600 X10.539 Y36.654
G01 F600 X11.132 Y36.654
G01 F600 X11.245 Y36.678
G01 F600 X11.350 Y36.725
G01 F600 X11.439 Y36.789
G01 F600 X18.427 Y43.777
G01 F600 X18.494 Y43.852
G01 F600 X18.552 Y43.952
G01 F600 X18.587 Y44.061
G01 F600 X18.598 Y44.166
G01 F600 X18.598 Y44.676
G01 F600 X18.693 Y44.696
G01 F600 X18.852 Y44.767
G01 F600 X18.993 Y44.870
G01 F600 X19.110 Y44.999
G01 F600 X19.197 Y45.150
G01 F600 X19.251 Y45.316
G01 F600 X19.268 Y45.480
G01 F600 X19.268 Y46.820
G01 F600 X19.251 Y46.984
G01 F600 X19.197 Y47.150
G01 F600 X19.110 Y47.301
G01 F600 X18.993 Y47.430
G01 F600 X18.852 Y47.533
G01 F600 X18.693 Y47.604
G01 F600 X18.522 Y47.640
G01 F600 X18.348 Y47.640
G00 F3000 Z3.000
G00 F3000 X15.808 Y47.640
G00 F1500 Z0
G01 F600 Z-0.110
G01 F600 X15.637 Y47.604
G01 F600 X15.478 Y47.533
G01 F600 X15.337 Y47.430
G01 F600 X15.220 Y47.301
G01 F600 X15.133 Y47.150
G01 F600 X15.079 Y46.984
G01 F600 X15.062 Y46.820
G01 F600 X15.062 Y45.836
G01 F600 X9.316 Y40.091
G01 F600 X7.985 Y40.091
G01 F600 X7.794 Y40.050
G01 F600 X7.615 Y39.971
G01 F600 X7.457 Y39.855
G01 F600 X7.326 Y39.710
G01 F600 X7.228 Y39.541
G01 F600 X7.168 Y39.355
G01 F600 X7.147 Y39.160
G01 F600 X7.168 Y38.965
G01 F600 X7.228 Y38.779
G01 F600 X7.326 Y38.610
G01 F600 X7.457 Y38.465
G01 F600 X7.615 Y38.349
G01 F600 X7.794 Y38.270
G01 F600 X7.985 Y38.229
G01 F600 X9.705 Y38.229
G01 F600 X9.896 Y38.270
G01 F600 X10.075 Y38.349
G01 F600 X10.233 Y38.465
G01 F600 X10.364 Y38.610
G01 F600 X10.462 Y38.779
G01 F600 X10.523 Y38.965
G01 F600 X10.543 Y39.160
G01 F600 X10.523 Y39.355
G01 F600 X10.462 Y39.541
G01 F600 X10.408 Y39.634
G01 F600 X15.522 Y44.748
G01 F600 X15.637 Y44.696
G01 F600 X15.808 Y44.660
G01 F600 X15.982 Y44.660
G01 F600 X16.153 Y44.696
G01 F600 X16.312 Y44.767
G01 F600 X16.453 Y44.870
G01 F600 X16.570 Y44.999
G01 F600 X16.657 Y45.150
G01 F600 X16.711 Y45.316
G01 F600 X16.728 Y45.480
G01 F600 X16.728 Y46.820
G01 F600 X16.711 Y46.984
G01 F600 X16.657 Y47.150
G01 F600 X16.570 Y47.301
G01 F600 X16.453 Y47.430
G01 F600 X16.312 Y47.533
G01 F600 X16.153 Y47.604
G01 F600 X15.982 Y47.640
G01 F600 X15.808 Y47.640
G00 F3000 Z3.000
G00 F3000 X20.888 Y32.390
G00 F1500 Z0
G01 F600 Z-0.110
G01 F600 X20.717 Y32.354
G01 F600 X20.558 Y32.283
G01 F600 X20.417 Y32.180
G01 F600 X20.300 Y32.051
G01 F600 X20.213 Y31.900
G01 F600 X20.159 Y31.734
G01 F600 X20.142 Y31.570
G01 F600 X20.142 Y30.231
G01 F600 X20.159 Y30.066
G01 F600 X20.213 Y29.900
G01 F600 X20.300 Y29.749
G01 F600 X20.417 Y29.620
G01 F600 X20.558 Y29.517
G01 F600 X20.717 Y29.446
G01 F600 X20.888 Y29.410
G01 F600 X21.062 Y29.410
G01 F600 X21.233 Y29.446
G01 F600 X21.392 Y29.517
G01 F600 X21.533 Y29.620
G01 F600 X21.650 Y29.749
G01 F600 X21.737 Y29.900
G01 F600 X21.791 Y30.066
G01 F600 X21.808 Y30.231
G01 F600 X21.808 Y31.570
G01 F600 X21.791 Y31.734
G01 F600 X21.737 Y31.900
G01 F600 X21.650 Y32.051
G01 F600 X21.533 Y32.180
G01 F600 X21.392 Y32.283
G01 F600 X21.233 Y32.354
G01 F600 X21.062 Y32.390
G01 F600 X20.888 Y32.390
G00 F3000 Z3.000
G00 F3000 X23.428 Y32.390
G00 F1500 Z0
G01 F600 Z-0.110
G01 F600 X23.257 Y32.354
G01 F600 X23.098 Y32.283
G01 F600 X22.957 Y32.180
G01 F600 X22.840 Y32.051
G01 F600 X22.753 Y31.900
G01 F600 X22.699 Y31.734
G01 F600 X22.682 Y31.570
G01 F600 X22.682 Y30.231
G01 F600 X22.699 Y30.066
G01 F600 X22.753 Y29.900
G01 F600 X22.840 Y29.749
G01 F600 X22.957 Y29.620
G01 F600 X23.098 Y29.517
G01 F600 X23.257 Y29.446
G01 F600 X23.428 Y29.410
G01 F600 X23.602 Y29.410
G01 F600 X23.773 Y29.446
G01 F600 X23.932 Y29.517
G01 F600 X24.073 Y29.620
G01 F600 X24.190 Y29.749
G01 F600 X24.277 Y29.900
G01 F600 X24.331 Y30.066
G01 F600 X24.348 Y30.231
G01 F600 X24.348 Y31.570
G01 F600 X24.331 Y31.734
G01 F600 X24.277 Y31.900
G01 F600 X24.190 Y32.051
G01 F600 X24.073 Y32.180
G01 F600 X23.932 Y32.283
G01 F600 X23.773 Y32.354
G01 F600 X23.602 Y32.390
G01 F600 X23.428 Y32.390
G00 F3000 Z3.000
G00 F3000 X15.808 Y32.390
G00 F1500 Z0
G01 F600 Z-0.110
G01 F600 X15.637 Y32.354
G01 F600 X15.478 Y32.283
G01 F600 X15.337 Y32.180
G01 F600 X15.220 Y32.051
G01 F600 X15.133 Y31.900
G01 F600 X15.079 Y31.734
G01 F600 X15.062 Y31.570
G01 F600 X15.062 Y30.231
G01 F600 X15.079 Y30.066
G01 F600 X15.133 Y29.900
G01 F600 X15.177 Y29.824
G01 F600 X15.177 Y27.351
G01 F600 X11.668 Y23.842
G01 F600 X11.543 Y23.933
G01 F600 X11.364 Y24.012
G01 F600 X11.173 Y24.053
G01 F600 X10.977 Y24.053
G01 F600 X10.786 Y24.012
G01 F600 X10.607 Y23.933
G01 F600 X10.449 Y23.818
G01 F600 X10.318 Y23.672
G01 F600 X10.220 Y23.503
G01 F600 X10.160 Y23.317
G01 F600 X10.140 Y23.131
G01 F600 X10.140 Y21.589
G01 F600 X10.160 Y21.403
G01 F600 X10.220 Y21.217
G01 F600 X10.318 Y21.048
G01 F600 X10.449 Y20.902
G01 F600 X10.607 Y20.787
G01 F600 X10.786 Y20.708
G01 F600 X10.977 Y20.667
G01 F600 X11.173 Y20.667
G01 F600 X11.364 Y20.708
G01 F600 X11.543 Y20.787
G01 F600 X11.701 Y20.902
G01 F600 X11.832 Y21.048
G01 F600 X11.930 Y21.217
G01 F600 X11.991 Y21.403
G01 F600 X12.010 Y21.589
G01 F600 X12.010 Y22.636
G01 F600 X16.102 Y26.727
G01 F600 X16.169 Y26.802
G01 F600 X16.227 Y26.902
G01 F600 X16.262 Y27.011
G01 F600 X16.273 Y27.116
G01 F600 X16.273 Y29.500
G01 F600 X16.312 Y29.517
G01 F600 X16.453 Y29.620
G01 F600 X16.570 Y29.749
G01 F600 X16.657 Y29.900
G01 F600 X16.711 Y30.066
G01 F600 X16.728 Y30.231
G01 F600 X16.728 Y31.570
G01 F600 X16.711 Y31.734
G01 F600 X16.657 Y31.900
G01 F600 X16.570 Y32.051
G01 F600 X16.453 Y32.180
G01 F600 X16.312 Y32.283
G01 F600 X16.153 Y32.354
G01 F600 X15.982 Y32.390
G01 F600 X15.808 Y32.390
G00 F3000 Z3.000
G00 F3000 X18.348 Y32.390
G00 F1500 Z0
G01 F600 Z-0.110
G01 F600 X18.177 Y32.354
G01 F600 X18.018 Y32.283
G01 F600 X17.877 Y32.180
G01 F600 X17.760 Y32.051
G01 F600 X17.673 Y31.900
G01 F600 X17.619 Y31.734
G01 F600 X17.602 Y31.570
G01 F600 X17.602 Y30.231
G01 F600 X17.619 Y30.066
G01 F600 X17.673 Y29.900
G01 F600 X17.760 Y29.749
G01 F600 X17.877 Y29.620
G01 F600 X18.018 Y29.517
G01 F600 X18.177 Y29.446
G01 F600 X18.277 Y29.425
G01 F600 X18.277 Y25.566
G01 F600 X18.288 Y25.461
G01 F600 X18.323 Y25.352
G01 F600 X18.381 Y25.252
G01 F600 X18.449 Y25.177
G01 F600 X22.770 Y20.856
G01 F600 X22.770 Y19.839
G01 F600 X22.790 Y19.653
G01 F600 X22.851 Y19.466
G01 F600 X22.927 Y19.339
G01 F600 X22.922 Y10.415
G01 F600 X22.848 Y10.332
G01 F600 X22.750 Y10.163
G01 F600 X22.690 Y9.977
G01 F600 X22.670 Y9.791
G01 F600 X22.670 Y8.249
G01 F600 X22.690 Y8.063
G01 F600 X22.750 Y7.877
G01 F600 X22.848 Y7.708
G01 F600 X22.979 Y7.563
G01 F600 X23.137 Y7.447
G01 F600 X23.316 Y7.368
G01 F600 X23.507 Y7.327
G01 F600 X23.703 Y7.327
G01 F600 X23.894 Y7.368
G01 F600 X24.073 Y7.447
G01 F600 X24.231 Y7.563
G01 F600 X24.362 Y7.708
G01 F600 X24.460 Y7.877
G01 F600 X24.521 Y8.063
G01 F600 X24.540 Y8.249
G01 F600 X24.540 Y9.791
G01 F600 X24.521 Y9.977
G01 F600 X24.460 Y10.163
G01 F600 X24.362 Y10.332
G01 F600 X24.231 Y10.478
G01 F600 X24.073 Y10.593
G01 F600 X24.023 Y10.615
G01 F600 X24.023 Y18.971
G01 F600 X24.173 Y19.037
G01 F600 X24.331 Y19.152
G01 F600 X24.462 Y19.298
G01 F600 X24.560 Y19.467
G01 F600 X24.620 Y19.653
G01 F600 X24.640 Y19.839
G01 F600 X24.640 Y21.381
G01 F600 X24.620 Y21.567
G01 F600 X24.560 Y21.753
G01 F600 X24.462 Y21.922
G01 F600 X24.331 Y22.068
G01 F600 X24.173 Y22.183
G01 F600 X23.994 Y22.262
G01 F600 X23.803 Y22.303
G01 F600 X23.607 Y22.303
G01 F600 X23.416 Y22.262
G01 F600 X23.237 Y22.183
G01 F600 X23.095 Y22.079
G01 F600 X19.373 Y25.801
G01 F600 X19.373 Y30.234
G01 F600 X19.362 Y30.339
G01 F600 X19.326 Y30.448
G01 F600 X19.278 Y30.532
G01 F600 X19.268 Y30.549
G01 F600 X19.268 Y31.570
G01 F600 X19.251 Y31.734
G01 F600 X19.197 Y31.900
G01 F600 X19.110 Y32.051
G01 F600 X18.993 Y32.180
G01 F600 X18.852 Y32.283
G01 F600 X18.693 Y32.354
G01 F600 X18.522 Y32.390
G01 F600 X18.348 Y32.390
G00 F3000 Z3.000
G00 F3000 X31.048 Y32.390
G00 F1500 Z0
G01 F600 Z-0.110
G01 F600 X30.877 Y32.354
G01 F600 X30.718 Y32.283
G01 F600 X30.577 Y32.180
G01 F600 X30.460 Y32.051
G01 F600 X30.373 Y31.900
G01 F600 X30.319 Y31.734
G01 F600 X30.302 Y31.570
G01 F600 X30.302 Y30.231
G01 F600 X30.319 Y30.066
G01 F600 X30.373 Y29.900
G01 F600 X30.460 Y29.749
G01 F600 X30.577 Y29.620
G01 F600 X30.677 Y29.547
G01 F600 X30.677 Y22.044
G01 F600 X30.568 Y21.922
G01 F600 X30.470 Y21.753
G01 F600 X30.410 Y21.567
G01 F600 X30.390 Y21.381
G01 F600 X30.390 Y19.839
G01 F600 X30.410 Y19.653
G01 F600 X30.470 Y19.467
G01 F600 X30.568 Y19.298
G01 F600 X30.677 Y19.177
G01 F600 X30.671 Y10.530
G01 F600 X30.599 Y10.478
G01 F600 X30.468 Y10.332
G01 F600 X30.370 Y10.163
G01 F600 X30.309 Y9.977
G01 F600 X30.290 Y9.791
G01 F600 X30.290 Y8.249
G01 F600 X30.309 Y8.063
G01 F600 X30.370 Y7.877
G01 F600 X30.468 Y7.708
G01 F600 X30.599 Y7.563
G01 F600 X30.757 Y7.447
G01 F600 X30.936 Y7.368
G01 F600 X31.127 Y7.327
G01 F600 X31.323 Y7.327
G01 F600 X31.514 Y7.368
G01 F600 X31.693 Y7.447
G01 F600 X31.851 Y7.563
G01 F600 X31.982 Y7.708
G01 F600 X32.080 Y7.877
G01 F600 X32.141 Y8.063
G01 F600 X32.160 Y8.249
G01 F600 X32.160 Y9.791
G01 F600 X32.141 Y9.977
G01 F600 X32.080 Y10.163
G01 F600 X31.982 Y10.332
G01 F600 X31.851 Y10.478
G01 F600 X31.773 Y10.534
G01 F600 X31.773 Y19.029
G01 F600 X31.793 Y19.037
G01 F600 X31.951 Y19.152
G01 F600 X32.082 Y19.298
G01 F600 X32.180 Y19.467
G01 F600 X32.241 Y19.653
G01 F600 X32.260 Y19.839
G01 F600 X32.260 Y21.381
G01 F600 X32.241 Y21.567
G01 F600 X32.180 Y21.753
G01 F600 X32.082 Y21.922
G01 F600 X31.951 Y22.068
G01 F600 X31.793 Y22.183
G01 F600 X31.773 Y22.192
G01 F600 X31.773 Y29.708
G01 F600 X31.810 Y29.749
G01 F600 X31.897 Y29.900
G01 F600 X31.951 Y30.066
G01 F600 X31.968 Y30.231
G01 F600 X31.968 Y31.570
G01 F600 X31.951 Y31.734
G01 F600 X31.897 Y31.900
G01 F600 X31.810 Y32.051
G01 F600 X31.693 Y32.180
G01 F600 X31.552 Y32.283
G01 F600 X31.393 Y32.354
G01 F600 X31.222 Y32.390
G01 F600 X31.048 Y32.390
G00 F3000 Z3.000
G00 F3000 X33.588 Y32.390
G00 F1500 Z0
G01 F600 Z-0.110
G01 F600 X33.417 Y32.354
G01 F600 X33.258 Y32.283
G01 F600 X33.117 Y32.180
G01 F600 X33.000 Y32.051
G01 F600 X32.913 Y31.900
G01 F600 X32.859 Y31.734
G01 F600 X32.842 Y31.570
G01 F600 X32.842 Y30.231
G01 F600 X32.859 Y30.066
G01 F600 X32.913 Y29.900
G01 F600 X33.000 Y29.749
G01 F600 X33.002 Y29.747
G01 F600 X33.002 Y7.976
G01 F600 X31.772 Y6.746
G01 F600 X30.678 Y6.746
G01 F600 X29.542 Y7.883
G01 F600 X29.601 Y8.063
G01 F600 X29.620 Y8.249
G01 F600 X29.620 Y9.791
G01 F600 X29.601 Y9.977
G01 F600 X29.540 Y10.163
G01 F600 X29.448 Y10.322
G01 F600 X29.468 Y19.215
G01 F600 X29.542 Y19.298
G01 F600 X29.640 Y19.467
G01 F600 X29.701 Y19.653
G01 F600 X29.720 Y19.839
G01 F600 X29.720 Y21.381
G01 F600 X29.701 Y21.567
G01 F600 X29.640 Y21.753
G01 F600 X29.542 Y21.922
G01 F600 X29.411 Y22.068
G01 F600 X29.253 Y22.183
G01 F600 X29.074 Y22.262
G01 F600 X28.883 Y22.303
G01 F600 X28.687 Y22.303
G01 F600 X28.496 Y22.262
G01 F600 X28.317 Y22.183
G01 F600 X28.159 Y22.068
G01 F600 X28.028 Y21.922
G01 F600 X27.930 Y21.753
G01 F600 X27.870 Y21.567
G01 F600 X27.850 Y21.381
G01 F600 X27.850 Y19.839
G01 F600 X27.870 Y19.653
G01 F600 X27.930 Y19.467
G01 F600 X28.028 Y19.298
G01 F600 X28.159 Y19.152
G01 F600 X28.317 Y19.037
G01 F600 X28.352 Y19.022
G01 F600 X28.352 Y10.653
G01 F600 X28.217 Y10.593
G01 F600 X28.059 Y10.478
G01 F600 X27.928 Y10.332
G01 F600 X27.830 Y10.163
G01 F600 X27.770 Y9.977
G01 F600 X27.750 Y9.791
G01 F600 X27.750 Y8.925
G01 F600 X27.681 Y8.848
G01 F600 X27.623 Y8.748
G01 F600 X27.588 Y8.639
G01 F600 X27.576 Y8.525
G01 F600 X27.588 Y8.411
G01 F600 X27.623 Y8.302
G01 F600 X27.681 Y8.202
G01 F600 X27.749 Y8.127
G01 F600 X27.765 Y8.111
G01 F600 X27.770 Y8.063
G01 F600 X27.830 Y7.877
G01 F600 X27.928 Y7.708
G01 F600 X28.059 Y7.563
G01 F600 X28.217 Y7.447
G01 F600 X28.397 Y7.367
G01 F600 X28.535 Y7.340
G01 F600 X30.086 Y5.789
G01 F600 X30.176 Y5.725
G01 F600 X30.280 Y5.678
G01 F600 X30.393 Y5.654
G01 F600 X32.057 Y5.654
G01 F600 X32.170 Y5.678
G01 F600 X32.275 Y5.725
G01 F600 X32.364 Y5.789
G01 F600 X33.927 Y7.352
G01 F600 X33.994 Y7.427
G01 F600 X34.052 Y7.527
G01 F600 X34.087 Y7.636
G01 F600 X34.098 Y7.741
G01 F600 X34.098 Y29.521
G01 F600 X34.233 Y29.620
G01 F600 X34.350 Y29.749
G01 F600 X34.437 Y29.900
G01 F600 X34.491 Y30.066
G01 F600 X34.508 Y30.231
G01 F600 X34.508 Y31.570
G01 F600 X34.491 Y31.734
G01 F600 X34.437 Y31.900
G01 F600 X34.350 Y32.051
G01 F600 X34.233 Y32.180
G01 F600 X34.092 Y32.283
G01 F600 X33.933 Y32.354
G01 F600 X33.762 Y32.390
G01 F600 X33.588 Y32.390
G00 F3000 Z3.000
G00 F3000 X25.968 Y32.390
G00 F1500 Z0
G01 F600 Z-0.110
G01 F600 X25.797 Y32.354
G01 F600 X25.638 Y32.283
G01 F600 X25.497 Y32.180
G01 F600 X25.380 Y32.051
G01 F600 X25.293 Y31.900
G01 F600 X25.239 Y31.734
G01 F600 X25.222 Y31.570
G01 F600 X25.222 Y30.231
G01 F600 X25.239 Y30.066
G01 F600 X25.293 Y29.900
G01 F600 X25.380 Y29.749
G01 F600 X25.497 Y29.620
G01 F600 X25.638 Y29.517
G01 F600 X25.797 Y29.446
G01 F600 X25.968 Y29.410
G01 F600 X26.142 Y29.410
G01 F600 X26.313 Y29.446
G01 F600 X26.472 Y29.517
G01 F600 X26.613 Y29.620
G01 F600 X26.730 Y29.749
G01 F600 X26.817 Y29.900
G01 F600 X26.871 Y30.066
G01 F600 X26.888 Y30.231
G01 F600 X26.888 Y31.570
G01 F600 X26.871 Y31.734
G01 F600 X26.817 Y31.900
G01 F600 X26.730 Y32.051
G01 F600 X26.613 Y32.180
G01 F600 X26.472 Y32.283
G01 F600 X26.313 Y32.354
G01 F600 X26.142 Y32.390
G01 F600 X25.968 Y32.390
G00 F3000 Z3.000
G00 F3000 X28.508 Y32.390
G00 F1500 Z0
G01 F600 Z-0.110
G01 F600 X28.337 Y32.354
G01 F600 X28.178 Y32.283
G01 F600 X28.037 Y32.180
G01 F600 X27.920 Y32.051
G01 F600 X27.833 Y31.900
G01 F600 X27.779 Y31.734
G01 F600 X27.762 Y31.570
G01 F600 X27.762 Y30.231
G01 F600 X27.779 Y30.066
G01 F600 X27.833 Y29.900
G01 F600 X27.920 Y29.749
G01 F600 X28.037 Y29.620
G01 F600 X28.178 Y29.517
G01 F600 X28.337 Y29.446
G01 F600 X28.508 Y29.410
G01 F600 X28.682 Y29.410
G01 F600 X28.853 Y29.446
G01 F600 X29.012 Y29.517
G01 F600 X29.153 Y29.620
G01 F600 X29.270 Y29.749
G01 F600 X29.357 Y29.900
G01 F600 X29.411 Y30.066
G01 F600 X29.428 Y30.231
G01 F600 X29.428 Y31.570
G01 F600 X29.411 Y31.734
G01 F600 X29.357 Y31.900
G01 F600 X29.270 Y32.051
G01 F600 X29.153 Y32.180
G01 F600 X29.012 Y32.283
G01 F600 X28.853 Y32.354
G01 F600 X28.682 Y32.390
G01 F600 X28.508 Y32.390
G00 F3000 Z3.000
G00 F3000 X41.208 Y32.390
G00 F1500 Z0
G01 F600 Z-0.110
G01 F600 X41.037 Y32.354
G01 F600 X40.878 Y32.283
G01 F600 X40.737 Y32.180
G01 F600 X40.620 Y32.051
G01 F600 X40.533 Y31.900
G01 F600 X40.479 Y31.734
G01 F600 X40.462 Y31.570
G01 F600 X40.462 Y30.231
G01 F600 X40.479 Y30.066
G01 F600 X40.533 Y29.900
G01 F600 X40.620 Y29.749
G01 F600 X40.737 Y29.620
G01 F600 X40.752 Y29.609
G01 F600 X40.752 Y24.251
G01 F600 X39.373 Y22.873
G01 F600 X39.306 Y22.798
G01 F600 X39.248 Y22.698
G01 F600 X39.213 Y22.589
G01 F600 X39.202 Y22.484
G01 F600 X39.202 Y18.591
G01 F600 X39.213 Y18.486
G01 F600 X39.248 Y18.377
G01 F600 X39.306 Y18.277
G01 F600 X39.374 Y18.202
G01 F600 X40.936 Y16.639
G01 F600 X41.026 Y16.575
G01 F600 X41.130 Y16.528
G01 F600 X41.243 Y16.504
G01 F600 X45.232 Y16.504
G01 F600 X45.345 Y16.528
G01 F600 X45.450 Y16.575
G01 F600 X45.539 Y16.639
G01 F600 X47.102 Y18.202
G01 F600 X47.169 Y18.277
G01 F600 X47.227 Y18.377
G01 F600 X47.262 Y18.486
G01 F600 X47.273 Y18.591
G01 F600 X47.273 Y18.761
G01 F600 X47.304 Y18.768
G01 F600 X47.483 Y18.847
G01 F600 X47.641 Y18.963
G01 F600 X47.772 Y19.108
G01 F600 X47.870 Y19.277
G01 F600 X47.931 Y19.463
G01 F600 X47.950 Y19.649
G01 F600 X47.950 Y21.191
G01 F600 X47.931 Y21.377
G01 F600 X47.870 Y21.563
G01 F600 X47.772 Y21.732
G01 F600 X47.641 Y21.878
G01 F600 X47.483 Y21.993
G01 F600 X47.304 Y22.072
G01 F600 X47.113 Y22.113
G01 F600 X46.917 Y22.113
G01 F600 X46.726 Y22.072
G01 F600 X46.547 Y21.993
G01 F600 X46.389 Y21.878
G01 F600 X46.258 Y21.732
G01 F600 X46.160 Y21.563
G01 F600 X46.099 Y21.377
G01 F600 X46.080 Y21.191
G01 F600 X46.080 Y19.649
G01 F600 X46.099 Y19.463
G01 F600 X46.160 Y19.277
G01 F600 X46.177 Y19.248
G01 F600 X46.177 Y18.826
G01 F600 X44.947 Y17.596
G01 F600 X41.528 Y17.596
G01 F600 X40.298 Y18.826
G01 F600 X40.298 Y22.249
G01 F600 X41.677 Y23.627
G01 F600 X41.744 Y23.702
G01 F600 X41.802 Y23.802
G01 F600 X41.837 Y23.911
G01 F600 X41.848 Y24.016
G01 F600 X41.848 Y29.616
G01 F600 X41.853 Y29.620
G01 F600 X41.970 Y29.749
G01 F600 X42.057 Y29.900
G01 F600 X42.111 Y30.066
G01 F600 X42.128 Y30.231
G01 F600 X42.128 Y31.570
G01 F600 X42.111 Y31.734
G01 F600 X42.057 Y31.900
G01 F600 X41.970 Y32.051
G01 F600 X41.853 Y32.180
G01 F600 X41.712 Y32.283
G01 F600 X41.553 Y32.354
G01 F600 X41.382 Y32.390
G01 F600 X41.208 Y32.390
G00 F3000 Z3.000
G00 F3000 X43.748 Y32.390
G00 F1500 Z0
G01 F600 Z-0.110
G01 F600 X43.577 Y32.354
G01 F600 X43.418 Y32.283
G01 F600 X43.277 Y32.180
G01 F600 X43.160 Y32.051
G01 F600 X43.073 Y31.900
G01 F600 X43.019 Y31.734
G01 F600 X43.002 Y31.570
G01 F600 X43.002 Y30.231
G01 F600 X43.019 Y30.066
G01 F600 X43.073 Y29.900
G01 F600 X43.160 Y29.749
G01 F600 X43.277 Y29.620
G01 F600 X43.418 Y29.517
G01 F600 X43.577 Y29.446
G01 F600 X43.748 Y29.410
G01 F600 X43.852 Y29.410
G01 F600 X43.852 Y21.880
G01 F600 X43.849 Y21.878
G01 F600 X43.718 Y21.732
G01 F600 X43.620 Y21.563
G01 F600 X43.559 Y21.377
G01 F600 X43.540 Y21.191
G01 F600 X43.540 Y19.649
G01 F600 X43.559 Y19.463
G01 F600 X43.620 Y19.277
G01 F600 X43.718 Y19.108
G01 F600 X43.849 Y18.963
G01 F600 X44.007 Y18.847
G01 F600 X44.186 Y18.768
G01 F600 X44.377 Y18.727
G01 F600 X44.573 Y18.727
G01 F600 X44.764 Y18.768
G01 F600 X44.943 Y18.847
G01 F600 X45.101 Y18.963
G01 F600 X45.232 Y19.108
G01 F600 X45.330 Y19.277
G01 F600 X45.391 Y19.463
G01 F600 X45.410 Y19.649
G01 F600 X45.410 Y21.191
G01 F600 X45.391 Y21.377
G01 F600 X45.330 Y21.563
G01 F600 X45.232 Y21.732
G01 F600 X45.101 Y21.878
G01 F600 X44.948 Y21.989
G01 F600 X44.948 Y30.234
G01 F600 X44.937 Y30.339
G01 F600 X44.901 Y30.448
G01 F600 X44.846 Y30.545
G01 F600 X44.668 Y30.757
G01 F600 X44.668 Y31.570
G01 F600 X44.651 Y31.734
G01 F600 X44.597 Y31.900
G01 F600 X44.510 Y32.051
G01 F600 X44.393 Y32.180
G01 F600 X44.252 Y32.283
G01 F600 X44.093 Y32.354
G01 F600 X43.922 Y32.390
G01 F600 X43.748 Y32.390
G00 F3000 Z3.000
G00 F3000 X36.128 Y32.390
G00 F1500 Z0
G01 F600 Z-0.110
G01 F600 X35.957 Y32.354
G01 F600 X35.798 Y32.283
G01 F600 X35.657 Y32.180
G01 F600 X35.540 Y32.051
G01 F600 X35.453 Y31.900
G01 F600 X35.399 Y31.734
G01 F600 X35.382 Y31.570
G01 F600 X35.382 Y30.231
G01 F600 X35.399 Y30.066
G01 F600 X35.453 Y29.900
G01 F600 X35.540 Y29.749
G01 F600 X35.657 Y29.620
G01 F600 X35.798 Y29.517
G01 F600 X35.957 Y29.446
G01 F600 X36.128 Y29.410
G01 F600 X36.302 Y29.410
G01 F600 X36.473 Y29.446
G01 F600 X36.632 Y29.517
G01 F600 X36.773 Y29.620
G01 F600 X36.890 Y29.749
G01 F600 X36.977 Y29.900
G01 F600 X37.031 Y30.066
G01 F600 X37.048 Y30.231
G01 F600 X37.048 Y31.570
G01 F600 X37.031 Y31.734
G01 F600 X36.977 Y31.900
G01 F600 X36.890 Y32.051
G01 F600 X36.773 Y32.180
G01 F600 X36.632 Y32.283
G01 F600 X36.473 Y32.354
G01 F600 X36.302 Y32.390
G01 F600 X36.128 Y32.390
G00 F3000 Z3.000
G00 F3000 X38.668 Y32.390
G00 F1500 Z0
G01 F600 Z-0.110
G01 F600 X38.497 Y32.354
G01 F600 X38.338 Y32.283
G01 F600 X38.197 Y32.180
G01 F600 X38.080 Y32.051
G01 F600 X37.993 Y31.900
G01 F600 X37.939 Y31.734
G01 F600 X37.922 Y31.570
G01 F600 X37.922 Y30.231
G01 F600 X37.939 Y30.066
G01 F600 X37.993 Y29.900
G01 F600 X38.080 Y29.749
G01 F600 X38.197 Y29.620
G01 F600 X38.338 Y29.517
G01 F600 X38.497 Y29.446
G01 F600 X38.668 Y29.410
G01 F600 X38.842 Y29.410
G01 F600 X39.013 Y29.446
G01 F600 X39.172 Y29.517
G01 F600 X39.313 Y29.620
G01 F600 X39.430 Y29.749
G01 F600 X39.517 Y29.900
G01 F600 X39.571 Y30.066
G01 F600 X39.588 Y30.231
G01 F600 X39.588 Y31.570
G01 F600 X39.571 Y31.734
G01 F600 X39.517 Y31.900
G01 F600 X39.430 Y32.051
G01 F600 X39.313 Y32.180
G01 F600 X39.172 Y32.283
G01 F600 X39.013 Y32.354
G01 F600 X38.842 Y32.390
G01 F600 X38.668 Y32.390
G00 F3000 Z3.000
G00 F3000 X51.368 Y32.390
G00 F1500 Z0
G01 F600 Z-0.110
G01 F600 X51.197 Y32.354
G01 F600 X51.038 Y32.283
G01 F600 X50.897 Y32.180
G01 F600 X50.780 Y32.051
G01 F600 X50.693 Y31.900
G01 F600 X50.639 Y31.734
G01 F600 X50.622 Y31.570
G01 F600 X50.622 Y30.231
G01 F600 X50.639 Y30.066
G01 F600 X50.693 Y29.900
G01 F600 X50.780 Y29.749
G01 F600 X50.897 Y29.620
G01 F600 X51.038 Y29.517
G01 F600 X51.197 Y29.446
G01 F600 X51.368 Y29.410
G01 F600 X51.542 Y29.410
G01 F600 X51.713 Y29.446
G01 F600 X51.872 Y29.517
G01 F600 X52.013 Y29.620
G01 F600 X52.130 Y29.749
G01 F600 X52.217 Y29.900
G01 F600 X52.271 Y30.066
G01 F600 X52.288 Y30.231
G01 F600 X52.288 Y31.570
G01 F600 X52.271 Y31.734
G01 F600 X52.217 Y31.900
G01 F600 X52.130 Y32.051
G01 F600 X52.013 Y32.180
G01 F600 X51.872 Y32.283
G01 F600 X51.713 Y32.354
G01 F600 X51.542 Y32.390
G01 F600 X51.368 Y32.390
G00 F3000 Z3.000
G00 F3000 X46.288 Y32.390
G00 F1500 Z0
G01 F600 Z-0.110
G01 F600 X46.117 Y32.354
G01 F600 X45.958 Y32.283
G01 F600 X45.817 Y32.180
G01 F600 X45.700 Y32.051
G01 F600 X45.613 Y31.900
G01 F600 X45.559 Y31.734
G01 F600 X45.542 Y31.570
G01 F600 X45.542 Y30.231
G01 F600 X45.559 Y30.066
G01 F600 X45.613 Y29.900
G01 F600 X45.700 Y29.749
G01 F600 X45.817 Y29.620
G01 F600 X45.958 Y29.517
G01 F600 X46.117 Y29.446
G01 F600 X46.288 Y29.410
G01 F600 X46.462 Y29.410
G01 F600 X46.633 Y29.446
G01 F600 X46.792 Y29.517
G01 F600 X46.933 Y29.620
G01 F600 X47.050 Y29.749
G01 F600 X47.137 Y29.900
G01 F600 X47.191 Y30.066
G01 F600 X47.208 Y30.231
G01 F600 X47.208 Y31.570
G01 F600 X47.191 Y31.734
G01 F600 X47.137 Y31.900
G01 F600 X47.050 Y32.051
G01 F600 X46.933 Y32.180
G01 F600 X46.792 Y32.283
G01 F600 X46.633 Y32.354
G01 F600 X46.462 Y32.390
G01 F600 X46.288 Y32.390
G00 F3000 Z3.000
G00 F3000 X48.828 Y32.390
G00 F1500 Z0
G01 F600 Z-0.110
G01 F600 X48.657 Y32.354
G01 F600 X48.498 Y32.283
G01 F600 X48.357 Y32.180
G01 F600 X48.240 Y32.051
G01 F600 X48.153 Y31.900
G01 F600 X48.099 Y31.734
G01 F600 X48.082 Y31.570
G01 F600 X48.082 Y30.231
G01 F600 X48.099 Y30.066
G01 F600 X48.153 Y29.900
G01 F600 X48.240 Y29.749
G01 F600 X48.357 Y29.620
G01 F600 X48.367 Y29.612
G01 F600 X48.367 Y25.551
G01 F600 X48.378 Y25.446
G01 F600 X48.413 Y25.337
G01 F600 X48.471 Y25.237
G01 F600 X48.539 Y25.162
G01 F600 X51.177 Y22.524
G01 F600 X51.177 Y16.776
G01 F600 X48.947 Y14.546
G01 F600 X37.818 Y14.546
G01 F600 X37.705 Y14.522
G01 F600 X37.601 Y14.475
G01 F600 X37.511 Y14.411
G01 F600 X36.949 Y13.848
G01 F600 X36.881 Y13.773
G01 F600 X36.824 Y13.673
G01 F600 X36.788 Y13.564
G01 F600 X36.777 Y13.459
G01 F600 X36.777 Y5.626
G01 F600 X36.347 Y5.196
G01 F600 X27.123 Y5.196
G01 F600 X27.123 Y7.947
G01 F600 X27.112 Y8.052
G01 F600 X27.094 Y8.106
G01 F600 X27.123 Y8.594
G01 F600 X27.112 Y8.708
G01 F600 X27.080 Y8.792
G01 F600 X27.080 Y9.791
G01 F600 X27.061 Y9.977
G01 F600 X27.000 Y10.163
G01 F600 X26.902 Y10.332
G01 F600 X26.771 Y10.478
G01 F600 X26.613 Y10.593
G01 F600 X26.434 Y10.672
G01 F600 X26.348 Y10.690
G01 F600 X26.348 Y18.918
G01 F600 X26.534 Y18.958
G01 F600 X26.713 Y19.037
G01 F600 X26.871 Y19.152
G01 F600 X27.002 Y19.298
G01 F600 X27.100 Y19.467
G01 F600 X27.161 Y19.653
G01 F600 X27.180 Y19.839
G01 F600 X27.180 Y21.381
G01 F600 X27.161 Y21.567
G01 F600 X27.100 Y21.753
G01 F600 X27.002 Y21.922
G01 F600 X26.871 Y22.068
G01 F600 X26.713 Y22.183
G01 F600 X26.534 Y22.262
G01 F600 X26.343 Y22.303
G01 F600 X26.147 Y22.303
G01 F600 X25.956 Y22.262
G01 F600 X25.777 Y22.183
G01 F600 X25.619 Y22.068
G01 F600 X25.488 Y21.922
G01 F600 X25.390 Y21.753
G01 F600 X25.329 Y21.567
G01 F600 X25.310 Y21.381
G01 F600 X25.310 Y20.393
G01 F600 X25.299 Y20.373
G01 F600 X25.263 Y20.264
G01 F600 X25.252 Y20.159
G01 F600 X25.252 Y10.046
G01 F600 X25.230 Y9.977
G01 F600 X25.210 Y9.791
G01 F600 X25.210 Y8.249
G01 F600 X25.230 Y8.063
G01 F600 X25.290 Y7.877
G01 F600 X25.388 Y7.708
G01 F600 X25.519 Y7.563
G01 F600 X25.677 Y7.447
G01 F600 X25.856 Y7.368
G01 F600 X26.027 Y7.332
G01 F600 X26.027 Y4.641
G01 F600 X26.038 Y4.536
G01 F600 X26.074 Y4.427
G01 F600 X26.131 Y4.327
G01 F600 X26.208 Y4.242
G01 F600 X26.300 Y4.175
G01 F600 X26.405 Y4.128
G01 F600 X26.518 Y4.104
G01 F600 X36.632 Y4.104
G01 F600 X36.745 Y4.128
G01 F600 X36.849 Y4.175
G01 F600 X36.939 Y4.239
G01 F600 X37.702 Y5.002
G01 F600 X37.769 Y5.077
G01 F600 X37.827 Y5.177
G01 F600 X37.862 Y5.286
G01 F600 X37.873 Y5.391
G01 F600 X37.873 Y13.224
G01 F600 X38.103 Y13.454
G01 F600 X49.232 Y13.454
G01 F600 X49.345 Y13.478
G01 F600 X49.450 Y13.525
G01 F600 X49.539 Y13.589
G01 F600 X52.102 Y16.152
G01 F600 X52.169 Y16.227
G01 F600 X52.227 Y16.327
G01 F600 X52.262 Y16.436
G01 F600 X52.273 Y16.541
G01 F600 X52.273 Y22.759
G01 F600 X52.262 Y22.864
G01 F600 X52.227 Y22.973
G01 F600 X52.169 Y23.073
G01 F600 X52.102 Y23.148
G01 F600 X49.463 Y25.786
G01 F600 X49.463 Y29.612
G01 F600 X49.473 Y29.620
G01 F600 X49.590 Y29.749
G01 F600 X49.677 Y29.900
G01 F600 X49.731 Y30.066
G01 F600 X49.748 Y30.231
G01 F600 X49.748 Y31.570
G01 F600 X49.731 Y31.734
G01 F600 X49.677 Y31.900
G01 F600 X49.590 Y32.051
G01 F600 X49.473 Y32.180
G01 F600 X49.332 Y32.283
G01 F600 X49.173 Y32.354
G01 F600 X49.002 Y32.390
G01 F600 X48.828 Y32.390
G00 F3000 Z3.000
G00 F3000 X8.437 Y24.053
G00 F1500 Z0
G01 F600 Z-0.110
G01 F600 X8.246 Y24.012
G01 F600 X8.067 Y23.933
G01 F600 X7.909 Y23.818
G01 F600 X7.778 Y23.672
G01 F600 X7.680 Y23.503
G01 F600 X7.620 Y23.317
G01 F600 X7.600 Y23.131
G01 F600 X7.600 Y21.589
G01 F600 X7.620 Y21.403
G01 F600 X7.680 Y21.217
G01 F600 X7.778 Y21.048
G01 F600 X7.909 Y20.902
G01 F600 X8.067 Y20.787
G01 F600 X8.246 Y20.708
G01 F600 X8.437 Y20.667
G01 F600 X8.633 Y20.667
G01 F600 X8.824 Y20.708
G01 F600 X9.003 Y20.787
G01 F600 X9.161 Y20.902
G01 F600 X9.292 Y21.048
G01 F600 X9.390 Y21.217
G01 F600 X9.450 Y21.403
G01 F600 X9.470 Y21.589
G01 F600 X9.470 Y23.131
G01 F600 X9.450 Y23.317
G01 F600 X9.390 Y23.503
G01 F600 X9.292 Y23.672
G01 F600 X9.161 Y23.818
G01 F600 X9.003 Y23.933
G01 F600 X8.824 Y24.012
G01 F600 X8.633 Y24.053
G01 F600 X8.437 Y24.053
G00 F3000 Z3.000
G00 F3000 X41.837 Y22.113
G00 F1500 Z0
G01 F600 Z-0.110
G01 F600 X41.646 Y22.072
G01 F600 X41.467 Y21.993
G01 F600 X41.309 Y21.878
G01 F600 X41.178 Y21.732
G01 F600 X41.080 Y21.563
G01 F600 X41.020 Y21.377
G01 F600 X41.000 Y21.191
G01 F600 X41.000 Y19.649
G01 F600 X41.020 Y19.463
G01 F600 X41.080 Y19.277
G01 F600 X41.178 Y19.108
G01 F600 X41.309 Y18.963
G01 F600 X41.467 Y18.847
G01 F600 X41.646 Y18.768
G01 F600 X41.837 Y18.727
G01 F600 X42.033 Y18.727
G01 F600 X42.224 Y18.768
G01 F600 X42.403 Y18.847
G01 F600 X42.561 Y18.963
G01 F600 X42.692 Y19.108
G01 F600 X42.790 Y19.277
G01 F600 X42.851 Y19.463
G01 F600 X42.870 Y19.649
G01 F600 X42.870 Y21.191
G01 F600 X42.851 Y21.377
G01 F600 X42.790 Y21.563
G01 F600 X42.692 Y21.732
G01 F600 X42.561 Y21.878
G01 F600 X42.403 Y21.993
G01 F600 X42.224 Y22.072
G01 F600 X42.033 Y22.113
G01 F600 X41.837 Y22.113
G00 F3000 Z3.000
G00 F3000 X49.457 Y22.113
G00 F1500 Z0
G01 F600 Z-0.110
G01 F600 X49.266 Y22.072
G01 F600 X49.087 Y21.993
G01 F600 X48.929 Y21.878
G01 F600 X48.798 Y21.732
G01 F600 X48.700 Y21.563
G01 F600 X48.640 Y21.377
G01 F600 X48.620 Y21.191
G01 F600 X48.620 Y19.649
G01 F600 X48.640 Y19.463
G01 F600 X48.700 Y19.277
G01 F600 X48.798 Y19.108
G01 F600 X48.929 Y18.963
G01 F600 X49.087 Y18.847
G01 F600 X49.266 Y18.768
G01 F600 X49.457 Y18.727
G01 F600 X49.653 Y18.727
G01 F600 X49.844 Y18.768
G01 F600 X50.023 Y18.847
G01 F600 X50.181 Y18.963
G01 F600 X50.312 Y19.108
G01 F600 X50.410 Y19.277
G01 F600 X50.471 Y19.463
G01 F600 X50.490 Y19.649
G01 F600 X50.490 Y21.191
G01 F600 X50.471 Y21.377
G01 F600 X50.410 Y21.563
G01 F600 X50.312 Y21.732
G01 F600 X50.181 Y21.878
G01 F600 X50.023 Y21.993
G01 F600 X49.844 Y22.072
G01 F600 X49.653 Y22.113
G01 F600 X49.457 Y22.113
G00 F3000 Z3.000
G00 F3000 X9.857 Y16.463
G00 F1500 Z0
G01 F600 Z-0.110
G01 F600 X9.666 Y16.422
G01 F600 X9.487 Y16.343
G01 F600 X9.329 Y16.227
G01 F600 X9.198 Y16.082
G01 F600 X9.100 Y15.913
G01 F600 X9.040 Y15.727
G01 F600 X9.020 Y15.541
G01 F600 X9.020 Y13.999
G01 F600 X9.040 Y13.813
G01 F600 X9.100 Y13.627
G01 F600 X9.198 Y13.458
G01 F600 X9.329 Y13.313
G01 F600 X9.487 Y13.197
G01 F600 X9.666 Y13.118
G01 F600 X9.759 Y13.098
G01 F600 X9.763 Y13.061
G01 F600 X9.799 Y12.952
G01 F600 X9.856 Y12.852
G01 F600 X9.924 Y12.777
G01 F600 X10.527 Y12.174
G01 F600 X10.527 Y7.804
G01 F600 X10.418 Y7.682
G01 F600 X10.320 Y7.513
G01 F600 X10.260 Y7.327
G01 F600 X10.240 Y7.141
G01 F600 X10.240 Y5.599
G01 F600 X10.260 Y5.413
G01 F600 X10.320 Y5.227
G01 F600 X10.418 Y5.058
G01 F600 X10.549 Y4.913
G01 F600 X10.707 Y4.797
G01 F600 X10.886 Y4.718
G01 F600 X11.077 Y4.677
G01 F600 X11.273 Y4.677
G01 F600 X11.464 Y4.718
G01 F600 X11.643 Y4.797
G01 F600 X11.801 Y4.913
G01 F600 X11.932 Y5.058
G01 F600 X12.030 Y5.227
G01 F600 X12.091 Y5.413
G01 F600 X12.110 Y5.599
G01 F600 X12.110 Y7.141
G01 F600 X12.091 Y7.327
G01 F600 X12.030 Y7.513
G01 F600 X11.932 Y7.682
G01 F600 X11.801 Y7.828
G01 F600 X11.643 Y7.943
G01 F600 X11.623 Y7.952
G01 F600 X11.623 Y12.409
G01 F600 X11.612 Y12.514
G01 F600 X11.577 Y12.623
G01 F600 X11.519 Y12.723
G01 F600 X11.452 Y12.798
G01 F600 X10.848 Y13.401
G01 F600 X10.848 Y13.744
G01 F600 X10.870 Y13.813
G01 F600 X10.890 Y13.999
G01 F600 X10.890 Y15.541
G01 F600 X10.870 Y15.727
G01 F600 X10.810 Y15.913
G01 F600 X10.712 Y16.082
G01 F600 X10.581 Y16.227
G01 F600 X10.423 Y16.343
G01 F600 X10.244 Y16.422
G01 F600 X10.053 Y16.463
G01 F600 X9.857 Y16.463
G00 F3000 Z3.000
G00 F3000 X43.107 Y10.393
G00 F1500 Z0
G01 F600 Z-0.110
G01 F600 X42.916 Y10.352
G01 F600 X42.737 Y10.273
G01 F600 X42.579 Y10.158
G01 F600 X42.448 Y10.012
G01 F600 X42.350 Y9.843
G01 F600 X42.290 Y9.657
G01 F600 X42.270 Y9.471
G01 F600 X42.270 Y7.929
G01 F600 X42.290 Y7.743
G01 F600 X42.350 Y7.557
G01 F600 X42.448 Y7.388
G01 F600 X42.579 Y7.243
G01 F600 X42.737 Y7.127
G01 F600 X42.916 Y7.048
G01 F600 X43.107 Y7.007
G01 F600 X43.303 Y7.007
G01 F600 X43.494 Y7.048
G01 F600 X43.673 Y7.127
G01 F600 X43.831 Y7.243
G01 F600 X43.962 Y7.388
G01 F600 X44.060 Y7.557
G01 F600 X44.120 Y7.743
G01 F600 X44.140 Y7.929
G01 F600 X44.140 Y9.471
G01 F600 X44.120 Y9.657
G01 F600 X44.060 Y9.843
G01 F600 X43.962 Y10.012
G01 F600 X43.831 Y10.158
G01 F600 X43.673 Y10.273
G01 F600 X43.494 Y10.352
G01 F600 X43.303 Y10.393
G01 F600 X43.107 Y10.393
G00 F3000 Z3.000
G00 F3000 X45.647 Y10.393
G00 F1500 Z0
G01 F600 Z-0.110
G01 F600 X45.456 Y10.352
G01 F600 X45.277 Y10.273
G01 F600 X45.119 Y10.158
G01 F600 X44.988 Y10.012
G01 F600 X44.890 Y9.843
G01 F600 X44.830 Y9.657
G01 F600 X44.810 Y9.471
G01 F600 X44.810 Y7.929
G01 F600 X44.830 Y7.743
G01 F600 X44.890 Y7.557
G01 F600 X44.988 Y7.388
G01 F600 X45.119 Y7.243
G01 F600 X45.277 Y7.127
G01 F600 X45.456 Y7.048
G01 F600 X45.647 Y7.007
G01 F600 X45.843 Y7.007
G01 F600 X46.034 Y7.048
G01 F600 X46.213 Y7.127
G01 F600 X46.371 Y7.243
G01 F600 X46.502 Y7.388
G01 F600 X46.600 Y7.557
G01 F600 X46.660 Y7.743
G01 F600 X46.680 Y7.929
G01 F600 X46.680 Y9.471
G01 F600 X46.660 Y9.657
G01 F600 X46.600 Y9.843
G01 F600 X46.502 Y10.012
G01 F600 X46.371 Y10.158
G01 F600 X46.213 Y10.273
G01 F600 X46.034 Y10.352
G01 F600 X45.843 Y10.393
G01 F600 X45.647 Y10.393
G00 F3000 Z3.000
G00 F3000 X20.297 Y65.846
G00 F1500 Z0
G01 F600 Z-0.110
G01 F600 X20.143 Y65.813
G01 F600 X20.000 Y65.749
G01 F600 X19.881 Y65.663
G01 F600 X17.528 Y63.311
G01 F600 X17.443 Y63.216
G01 F600 X17.365 Y63.080
G01 F600 X17.316 Y62.931
G01 F600 X17.302 Y62.795
G01 F600 X17.302 Y61.981
G01 F600 X17.316 Y61.844
G01 F600 X17.365 Y61.695
G01 F600 X17.443 Y61.559
G01 F600 X17.529 Y61.464
G01 F600 X19.627 Y59.366
G01 F600 X19.627 Y57.561
G01 F600 X19.447 Y57.256
G01 F600 X19.662 Y56.427
G01 F600 X20.399 Y55.992
G01 F600 X21.228 Y56.207
G01 F600 X21.663 Y56.944
G01 F600 X21.448 Y57.773
G01 F600 X21.123 Y57.965
G01 F600 X21.123 Y59.695
G01 F600 X21.109 Y59.831
G01 F600 X21.060 Y59.980
G01 F600 X20.982 Y60.116
G01 F600 X20.897 Y60.211
G01 F600 X18.798 Y62.309
G01 F600 X18.798 Y62.466
G01 F600 X20.686 Y64.354
G01 F600 X42.539 Y64.354
G01 F600 X44.113 Y62.780
G01 F600 X44.111 Y62.761
G01 F600 X44.140 Y62.487
G01 F600 X44.225 Y62.226
G01 F600 X44.363 Y61.988
G01 F600 X44.546 Y61.784
G01 F600 X44.769 Y61.622
G01 F600 X45.020 Y61.510
G01 F600 X45.289 Y61.453
G01 F600 X45.564 Y61.453
G01 F600 X45.833 Y61.510
G01 F600 X46.084 Y61.622
G01 F600 X46.306 Y61.784
G01 F600 X46.490 Y61.988
G01 F600 X46.627 Y62.226
G01 F600 X46.712 Y62.487
G01 F600 X46.741 Y62.761
G01 F600 X46.712 Y63.034
G01 F600 X46.627 Y63.295
G01 F600 X46.490 Y63.533
G01 F600 X46.306 Y63.738
G01 F600 X46.084 Y63.899
G01 F600 X45.833 Y64.011
G01 F600 X45.564 Y64.068
G01 F600 X45.289 Y64.068
G01 F600 X45.020 Y64.011
G01 F600 X45.003 Y64.004
G01 F600 X43.344 Y65.663
G01 F600 X43.225 Y65.749
G01 F600 X43.082 Y65.813
G01 F600 X42.928 Y65.846
G01 F600 X20.297 Y65.846
G00 F3000 Z3.000
G00 F3000 X38.786 Y64.068
G00 F1500 Z0
G01 F600 Z-0.110
G01 F600 X38.517 Y64.011
G01 F600 X38.266 Y63.899
G01 F600 X38.044 Y63.738
G01 F600 X37.860 Y63.533
G01 F600 X37.723 Y63.295
G01 F600 X37.638 Y63.034
G01 F600 X37.609 Y62.761
G01 F600 X37.638 Y62.487
G01 F600 X37.723 Y62.226
G01 F600 X37.860 Y61.988
G01 F600 X38.044 Y61.784
G01 F600 X38.266 Y61.622
G01 F600 X38.517 Y61.510
G01 F600 X38.786 Y61.453
G01 F600 X39.061 Y61.453
G01 F600 X39.330 Y61.510
G01 F600 X39.581 Y61.622
G01 F600 X39.804 Y61.784
G01 F600 X39.988 Y61.988
G01 F600 X40.125 Y62.226
G01 F600 X40.210 Y62.487
G01 F600 X40.239 Y62.761
G01 F600 X40.210 Y63.034
G01 F600 X40.125 Y63.295
G01 F600 X39.988 Y63.533
G01 F600 X39.804 Y63.738
G01 F600 X39.581 Y63.899
G01 F600 X39.330 Y64.011
G01 F600 X39.061 Y64.068
G01 F600 X38.786 Y64.068
G00 F3000 Z3.000
G00 F3000 X33.189 Y64.068
G00 F1500 Z0
G01 F600 Z-0.110
G01 F600 X32.920 Y64.011
G01 F600 X32.669 Y63.899
G01 F600 X32.446 Y63.738
G01 F600 X32.263 Y63.533
G01 F600 X32.125 Y63.295
G01 F600 X32.040 Y63.034
G01 F600 X32.011 Y62.761
G01 F600 X32.040 Y62.487
G01 F600 X32.081 Y62.363
G01 F600 X30.914 Y61.196
G01 F600 X26.111 Y61.196
G01 F600 X23.969 Y63.338
G01 F600 X23.850 Y63.425
G01 F600 X23.707 Y63.488
G01 F600 X23.553 Y63.521
G01 F600 X21.072 Y63.521
G01 F600 X20.918 Y63.488
G01 F600 X20.915 Y63.487
G01 F600 X20.711 Y63.608
G01 F600 X19.882 Y63.393
G01 F600 X19.447 Y62.656
G01 F600 X19.662 Y61.827
G01 F600 X20.399 Y61.392
G01 F600 X21.229 Y61.607
G01 F600 X21.476 Y62.029
G01 F600 X23.164 Y62.029
G01 F600 X25.306 Y59.887
G01 F600 X25.425 Y59.800
G01 F600 X25.568 Y59.737
G01 F600 X25.722 Y59.704
G01 F600 X31.303 Y59.704
G01 F600 X31.457 Y59.737
G01 F600 X31.600 Y59.800
G01 F600 X31.719 Y59.887
G01 F600 X33.285 Y61.453
G01 F600 X33.464 Y61.453
G01 F600 X33.733 Y61.510
G01 F600 X33.984 Y61.622
G01 F600 X34.206 Y61.784
G01 F600 X34.390 Y61.988
G01 F600 X34.527 Y62.226
G01 F600 X34.612 Y62.487
G01 F600 X34.641 Y62.761
G01 F600 X34.612 Y63.034
G01 F600 X34.527 Y63.295
G01 F600 X34.390 Y63.533
G01 F600 X34.206 Y63.738
G01 F600 X33.984 Y63.899
G01 F600 X33.733 Y64.011
G01 F600 X33.464 Y64.068
G01 F600 X33.189 Y64.068
G00 F3000 Z3.000
G00 F3000 X26.686 Y64.068
G00 F1500 Z0
G01 F600 Z-0.110
G01 F600 X26.417 Y64.011
G01 F600 X26.166 Y63.899
G01 F600 X25.944 Y63.738
G01 F600 X25.760 Y63.533
G01 F600 X25.623 Y63.295
G01 F600 X25.538 Y63.034
G01 F600 X25.509 Y62.761
G01 F600 X25.538 Y62.487
G01 F600 X25.623 Y62.226
G01 F600 X25.760 Y61.988
G01 F600 X25.944 Y61.784
G01 F600 X26.166 Y61.622
G01 F600 X26.417 Y61.510
G01 F600 X26.686 Y61.453
G01 F600 X26.961 Y61.453
G01 F600 X27.230 Y61.510
G01 F600 X27.481 Y61.622
G01 F600 X27.704 Y61.784
G01 F600 X27.888 Y61.988
G01 F600 X28.025 Y62.226
G01 F600 X28.110 Y62.487
G01 F600 X28.139 Y62.761
G01 F600 X28.110 Y63.034
G01 F600 X28.025 Y63.295
G01 F600 X27.888 Y63.533
G01 F600 X27.704 Y63.738
G01 F600 X27.481 Y63.899
G01 F600 X27.230 Y64.011
G01 F600 X26.961 Y64.068
G01 F600 X26.686 Y64.068
G00 F3000 Z3.000
G00 F3000 X10.551 Y63.608
G00 F1500 Z0
G01 F600 Z-0.110
G01 F600 X9.722 Y63.393
G01 F600 X9.287 Y62.656
G01 F600 X9.498 Y61.842
G01 F600 X9.552 Y61.805
G01 F600 X9.552 Y57.705
G01 F600 X9.287 Y57.256
G01 F600 X9.418 Y56.750
G01 F600 X2.803 Y50.136
G01 F600 X2.718 Y50.041
G01 F600 X2.640 Y49.905
G01 F600 X2.591 Y49.756
G01 F600 X2.577 Y49.620
G01 F600 X2.577 Y7.731
G01 F600 X2.591 Y7.594
G01 F600 X2.640 Y7.445
G01 F600 X2.718 Y7.309
G01 F600 X2.804 Y7.214
G01 F600 X7.481 Y2.537
G01 F600 X7.600 Y2.450
G01 F600 X7.743 Y2.387
G01 F600 X7.897 Y2.354
G01 F600 X46.803 Y2.354
G01 F600 X46.957 Y2.387
G01 F600 X47.100 Y2.450
G01 F600 X47.219 Y2.537
G01 F600 X55.772 Y11.090
G01 F600 X55.857 Y11.184
G01 F600 X55.935 Y11.320
G01 F600 X55.984 Y11.469
G01 F600 X55.998 Y11.606
G01 F600 X55.998 Y48.070
G01 F600 X55.984 Y48.206
G01 F600 X55.935 Y48.355
G01 F600 X55.857 Y48.491
G01 F600 X55.772 Y48.586
G01 F600 X52.644 Y51.713
G01 F600 X52.525 Y51.800
G01 F600 X52.382 Y51.863
G01 F600 X52.228 Y51.896
G01 F600 X47.120 Y51.896
G01 F600 X47.120 Y52.482
G01 F600 X47.097 Y52.698
G01 F600 X47.024 Y52.925
G01 F600 X46.905 Y53.130
G01 F600 X46.746 Y53.307
G01 F600 X46.553 Y53.447
G01 F600 X46.336 Y53.543
G01 F600 X46.104 Y53.593
G01 F600 X45.866 Y53.593
G01 F600 X45.634 Y53.543
G01 F600 X45.416 Y53.447
G01 F600 X45.224 Y53.307
G01 F600 X45.065 Y53.130
G01 F600 X44.946 Y52.925
G01 F600 X44.873 Y52.698
G01 F600 X44.850 Y52.482
G01 F600 X44.850 Y50.918
G01 F600 X44.873 Y50.702
G01 F600 X44.946 Y50.476
G01 F600 X45.065 Y50.270
G01 F600 X45.224 Y50.093
G01 F600 X45.416 Y49.953
G01 F600 X45.634 Y49.857
G01 F600 X45.866 Y49.807
G01 F600 X46.104 Y49.807
G01 F600 X46.336 Y49.857
G01 F600 X46.553 Y49.953
G01 F600 X46.746 Y50.093
G01 F600 X46.905 Y50.270
G01 F600 X46.983 Y50.404
G01 F600 X51.839 Y50.404
G01 F600 X54.502 Y47.741
G01 F600 X54.502 Y11.934
G01 F600 X46.414 Y3.846
G01 F600 X8.286 Y3.846
G01 F600 X4.073 Y8.059
G01 F600 X4.073 Y49.291
G01 F600 X10.822 Y56.040
G01 F600 X10.907 Y56.134
G01 F600 X10.928 Y56.170
G01 F600 X11.068 Y56.207
G01 F600 X11.503 Y56.944
G01 F600 X11.288 Y57.773
G01 F600 X11.048 Y57.915
G01 F600 X11.048 Y61.602
G01 F600 X11.068 Y61.607
G01 F600 X11.503 Y62.344
G01 F600 X11.288 Y63.173
G01 F600 X10.551 Y63.608
G00 F3000 Z3.000
G00 F3000 X45.289 Y59.547
G00 F1500 Z0
G01 F600 Z-0.110
G01 F600 X45.020 Y59.490
G01 F600 X44.769 Y59.378
G01 F600 X44.546 Y59.217
G01 F600 X44.363 Y59.012
G01 F600 X44.225 Y58.774
G01 F600 X44.140 Y58.513
G01 F600 X44.111 Y58.239
G01 F600 X44.123 Y58.130
G01 F600 X43.103 Y57.111
G01 F600 X43.018 Y57.016
G01 F600 X42.940 Y56.880
G01 F600 X42.891 Y56.731
G01 F600 X42.877 Y56.595
G01 F600 X42.877 Y53.447
G01 F600 X42.876 Y53.447
G01 F600 X42.684 Y53.307
G01 F600 X42.525 Y53.130
G01 F600 X42.406 Y52.925
G01 F600 X42.333 Y52.698
G01 F600 X42.310 Y52.482
G01 F600 X42.310 Y50.918
G01 F600 X42.333 Y50.702
G01 F600 X42.406 Y50.476
G01 F600 X42.525 Y50.270
G01 F600 X42.684 Y50.093
G01 F600 X42.877 Y49.953
G01 F600 X43.094 Y49.857
G01 F600 X43.326 Y49.807
G01 F600 X43.564 Y49.807
G01 F600 X43.796 Y49.857
G01 F600 X44.014 Y49.953
G01 F600 X44.206 Y50.093
G01 F600 X44.365 Y50.270
G01 F600 X44.484 Y50.476
G01 F600 X44.557 Y50.702
G01 F600 X44.580 Y50.918
G01 F600 X44.580 Y52.482
G01 F600 X44.557 Y52.698
G01 F600 X44.484 Y52.925
G01 F600 X44.373 Y53.116
G01 F600 X44.373 Y56.266
G01 F600 X45.083 Y56.976
G01 F600 X45.289 Y56.932
G01 F600 X45.564 Y56.932
G01 F600 X45.833 Y56.989
G01 F600 X46.084 Y57.101
G01 F600 X46.306 Y57.262
G01 F600 X46.490 Y57.467
G01 F600 X46.627 Y57.705
G01 F600 X46.712 Y57.966
G01 F600 X46.741 Y58.239
G01 F600 X46.712 Y58.513
G01 F600 X46.627 Y58.774
G01 F600 X46.490 Y59.012
G01 F600 X46.306 Y59.217
G01 F600 X46.084 Y59.378
G01 F600 X45.833 Y59.490
G01 F600 X45.564 Y59.547
G01 F600 X45.289 Y59.547
G00 F3000 Z3.000
G00 F3000 X38.786 Y59.547
G00 F1500 Z0
G01 F600 Z-0.110
G01 F600 X38.517 Y59.490
G01 F600 X38.266 Y59.378
G01 F600 X38.044 Y59.217
G01 F600 X37.860 Y59.012
G01 F600 X37.723 Y58.774
G01 F600 X37.638 Y58.513
G01 F600 X37.609 Y58.239
G01 F600 X37.638 Y57.966
G01 F600 X37.723 Y57.705
G01 F600 X37.860 Y57.467
G01 F600 X38.044 Y57.262
G01 F600 X38.266 Y57.101
G01 F600 X38.517 Y56.989
G01 F600 X38.786 Y56.932
G01 F600 X39.061 Y56.932
G01 F600 X39.330 Y56.989
G01 F600 X39.581 Y57.101
G01 F600 X39.804 Y57.262
G01 F600 X39.988 Y57.467
G01 F600 X40.125 Y57.705
G01 F600 X40.210 Y57.966
G01 F600 X40.239 Y58.239
G01 F600 X40.210 Y58.513
G01 F600 X40.125 Y58.774
G01 F600 X39.988 Y59.012
G01 F600 X39.804 Y59.217
G01 F600 X39.581 Y59.378
G01 F600 X39.330 Y59.490
G01 F600 X39.061 Y59.547
G01 F600 X38.786 Y59.547
G00 F3000 Z3.000
G00 F3000 X33.189 Y59.547
G00 F1500 Z0
G01 F600 Z-0.110
G01 F600 X32.920 Y59.490
G01 F600 X32.669 Y59.378
G01 F600 X32.446 Y59.217
G01 F600 X32.263 Y59.012
G01 F600 X32.125 Y58.774
G01 F600 X32.040 Y58.513
G01 F600 X32.011 Y58.239
G01 F600 X32.040 Y57.966
G01 F600 X32.125 Y57.705
G01 F600 X32.263 Y57.467
G01 F600 X32.446 Y57.262
G01 F600 X32.669 Y57.101
G01 F600 X32.920 Y56.989
G01 F600 X33.189 Y56.932
G01 F600 X33.464 Y56.932
G01 F600 X33.733 Y56.989
G01 F600 X33.984 Y57.101
G01 F600 X34.206 Y57.262
G01 F600 X34.311 Y57.379
G01 F600 X35.564 Y57.379
G01 F600 X39.777 Y53.166
G01 F600 X39.777 Y52.548
G01 F600 X39.770 Y52.482
G01 F600 X39.770 Y50.918
G01 F600 X39.793 Y50.702
G01 F600 X39.866 Y50.476
G01 F600 X39.985 Y50.270
G01 F600 X40.144 Y50.093
G01 F600 X40.337 Y49.953
G01 F600 X40.554 Y49.857
G01 F600 X40.786 Y49.807
G01 F600 X41.024 Y49.807
G01 F600 X41.256 Y49.857
G01 F600 X41.474 Y49.953
G01 F600 X41.666 Y50.093
G01 F600 X41.825 Y50.270
G01 F600 X41.944 Y50.476
G01 F600 X42.017 Y50.702
G01 F600 X42.040 Y50.918
G01 F600 X42.040 Y52.482
G01 F600 X42.017 Y52.698
G01 F600 X41.944 Y52.925
G01 F600 X41.825 Y53.130
G01 F600 X41.666 Y53.307
G01 F600 X41.474 Y53.447
G01 F600 X41.268 Y53.538
G01 F600 X41.259 Y53.631
G01 F600 X41.210 Y53.780
G01 F600 X41.132 Y53.916
G01 F600 X41.047 Y54.011
G01 F600 X36.369 Y58.688
G01 F600 X36.250 Y58.775
G01 F600 X36.107 Y58.838
G01 F600 X35.953 Y58.871
G01 F600 X34.472 Y58.871
G01 F600 X34.390 Y59.012
G01 F600 X34.206 Y59.217
G01 F600 X33.984 Y59.378
G01 F600 X33.733 Y59.490
G01 F600 X33.464 Y59.547
G01 F600 X33.189 Y59.547
G00 F3000 Z3.000
G00 F3000 X26.686 Y59.547
G00 F1500 Z0
G01 F600 Z-0.110
G01 F600 X26.417 Y59.490
G01 F600 X26.166 Y59.378
G01 F600 X25.944 Y59.217
G01 F600 X25.760 Y59.012
G01 F600 X25.623 Y58.774
G01 F600 X25.538 Y58.513
G01 F600 X25.509 Y58.239
G01 F600 X25.538 Y57.966
G01 F600 X25.623 Y57.705
G01 F600 X25.760 Y57.467
G01 F600 X25.944 Y57.262
G01 F600 X26.166 Y57.101
G01 F600 X26.417 Y56.989
G01 F600 X26.686 Y56.932
G01 F600 X26.961 Y56.932
G01 F600 X27.230 Y56.989
G01 F600 X27.481 Y57.101
G01 F600 X27.704 Y57.262
G01 F600 X27.888 Y57.467
G01 F600 X28.025 Y57.705
G01 F600 X28.110 Y57.966
G01 F600 X28.139 Y58.239
G01 F600 X28.110 Y58.513
G01 F600 X28.025 Y58.774
G01 F600 X27.888 Y59.012
G01 F600 X27.704 Y59.217
G01 F600 X27.481 Y59.378
G01 F600 X27.230 Y59.490
G01 F600 X26.961 Y59.547
G01 F600 X26.686 Y59.547
G00 F3000 Z3.000
G00 F3000 X38.246 Y53.593
G00 F1500 Z0
G01 F600 Z-0.110
G01 F600 X38.014 Y53.543
G01 F600 X37.797 Y53.447
G01 F600 X37.604 Y53.307
G01 F600 X37.445 Y53.130
G01 F600 X37.326 Y52.925
G01 F600 X37.253 Y52.698
G01 F600 X37.230 Y52.482
G01 F600 X37.230 Y51.896
G01 F600 X10.669 Y51.898
G01 F600 X10.618 Y52.093
G01 F600 X9.881 Y52.528
G01 F600 X9.052 Y52.313
G01 F600 X8.617 Y51.576
G01 F600 X8.832 Y50.747
G01 F600 X9.565 Y50.315
G01 F600 X10.079 Y50.434
G01 F600 X10.222 Y50.404
G01 F600 X37.367 Y50.404
G01 F600 X37.445 Y50.270
G01 F600 X37.604 Y50.093
G01 F600 X37.797 Y49.953
G01 F600 X38.014 Y49.857
G01 F600 X38.246 Y49.807
G01 F600 X38.484 Y49.807
G01 F600 X38.716 Y49.857
G01 F600 X38.934 Y49.953
G01 F600 X39.126 Y50.093
G01 F600 X39.285 Y50.270
G01 F600 X39.404 Y50.476
G01 F600 X39.477 Y50.702
G01 F600 X39.500 Y50.918
G01 F600 X39.500 Y52.482
G01 F600 X39.477 Y52.698
G01 F600 X39.404 Y52.925
G01 F600 X39.285 Y53.130
G01 F600 X39.126 Y53.307
G01 F600 X38.934 Y53.447
G01 F600 X38.716 Y53.543
G01 F600 X38.484 Y53.593
G01 F600 X38.246 Y53.593
G00 F3000 Z3.000
G00 F3000 X9.881 Y49.988
G00 F1500 Z0
G01 F600 Z-0.110
G01 F600 X9.052 Y49.773
G01 F600 X8.617 Y49.036
G01 F600 X8.630 Y48.987
G01 F600 X4.353 Y44.711
G01 F600 X4.268 Y44.616
G01 F600 X4.190 Y44.480
G01 F600 X4.141 Y44.331
G01 F600 X4.127 Y44.195
G01 F600 X4.127 Y20.131
G01 F600 X4.141 Y19.994
G01 F600 X4.190 Y19.845
G01 F600 X4.268 Y19.709
G01 F600 X4.354 Y19.614
G01 F600 X6.452 Y17.516
G01 F600 X6.452 Y16.126
G01 F600 X6.376 Y15.995
G01 F600 X6.303 Y15.768
G01 F600 X6.280 Y15.552
G01 F600 X6.280 Y13.988
G01 F600 X6.303 Y13.772
G01 F600 X6.376 Y13.546
G01 F600 X6.495 Y13.340
G01 F600 X6.654 Y13.163
G01 F600 X6.847 Y13.023
G01 F600 X7.064 Y12.927
G01 F600 X7.227 Y12.892
G01 F600 X7.227 Y6.956
G01 F600 X7.241 Y6.819
G01 F600 X7.290 Y6.670
G01 F600 X7.368 Y6.534
G01 F600 X7.459 Y6.433
G01 F600 X7.500 Y6.396
G01 F600 X7.500 Y5.588
G01 F600 X7.523 Y5.372
G01 F600 X7.596 Y5.146
G01 F600 X7.715 Y4.940
G01 F600 X7.874 Y4.763
G01 F600 X8.066 Y4.623
G01 F600 X8.284 Y4.527
G01 F600 X8.516 Y4.477
G01 F600 X8.754 Y4.477
G01 F600 X8.986 Y4.527
G01 F600 X9.204 Y4.623
G01 F600 X9.396 Y4.763
G01 F600 X9.555 Y4.940
G01 F600 X9.674 Y5.146
G01 F600 X9.747 Y5.372
G01 F600 X9.770 Y5.588
G01 F600 X9.770 Y7.152
G01 F600 X9.747 Y7.368
G01 F600 X9.674 Y7.595
G01 F600 X9.555 Y7.800
G01 F600 X9.396 Y7.977
G01 F600 X9.204 Y8.117
G01 F600 X8.986 Y8.213
G01 F600 X8.754 Y8.263
G01 F600 X8.723 Y8.263
G01 F600 X8.723 Y14.745
G01 F600 X8.709 Y14.881
G01 F600 X8.660 Y15.030
G01 F600 X8.582 Y15.166
G01 F600 X8.550 Y15.201
G01 F600 X8.550 Y15.552
G01 F600 X8.527 Y15.768
G01 F600 X8.454 Y15.995
G01 F600 X8.335 Y16.200
G01 F600 X8.176 Y16.377
G01 F600 X7.984 Y16.517
G01 F600 X7.948 Y16.533
G01 F600 X7.948 Y17.845
G01 F600 X7.934 Y17.981
G01 F600 X7.885 Y18.130
G01 F600 X7.807 Y18.266
G01 F600 X7.722 Y18.361
G01 F600 X5.623 Y20.459
G01 F600 X5.623 Y43.866
G01 F600 X9.544 Y47.787
G01 F600 X9.569 Y47.772
G01 F600 X10.377 Y47.981
G01 F600 X10.449 Y48.079
G01 F600 X21.614 Y48.079
G01 F600 X22.543 Y47.150
G01 F600 X22.502 Y47.026
G01 F600 X22.482 Y46.830
G01 F600 X22.482 Y45.470
G01 F600 X22.502 Y45.274
G01 F600 X22.569 Y45.068
G01 F600 X22.677 Y44.881
G01 F600 X22.822 Y44.720
G01 F600 X22.997 Y44.593
G01 F600 X23.195 Y44.505
G01 F600 X23.407 Y44.460
G01 F600 X23.623 Y44.460
G01 F600 X23.835 Y44.505
G01 F600 X24.033 Y44.593
G01 F600 X24.208 Y44.720
G01 F600 X24.353 Y44.881
G01 F600 X24.461 Y45.068
G01 F600 X24.528 Y45.274
G01 F600 X24.548 Y45.470
G01 F600 X24.548 Y46.830
G01 F600 X24.528 Y47.026
G01 F600 X24.461 Y47.232
G01 F600 X24.353 Y47.419
G01 F600 X24.205 Y47.583
G01 F600 X24.127 Y47.637
G01 F600 X24.082 Y47.716
G01 F600 X23.997 Y47.811
G01 F600 X22.419 Y49.388
G01 F600 X22.300 Y49.474
G01 F600 X22.157 Y49.538
G01 F600 X22.003 Y49.571
G01 F600 X10.586 Y49.572
G01 F600 X9.881 Y49.988
G00 F3000 Z3.000
G00 F3000 X32.697 Y49.571
G00 F1500 Z0
G01 F600 Z-0.110
G01 F600 X32.543 Y49.538
G01 F600 X32.400 Y49.474
G01 F600 X32.281 Y49.388
G01 F600 X30.703 Y47.811
G01 F600 X30.614 Y47.712
G01 F600 X30.609 Y47.701
G01 F600 X30.442 Y47.580
G01 F600 X30.297 Y47.419
G01 F600 X30.189 Y47.232
G01 F600 X30.122 Y47.026
G01 F600 X30.102 Y46.830
G01 F600 X30.102 Y45.470
G01 F600 X30.122 Y45.274
G01 F600 X30.189 Y45.068
G01 F600 X30.297 Y44.881
G01 F600 X30.442 Y44.720
G01 F600 X30.617 Y44.593
G01 F600 X30.815 Y44.505
G01 F600 X31.027 Y44.460
G01 F600 X31.243 Y44.460
G01 F600 X31.455 Y44.505
G01 F600 X31.653 Y44.593
G01 F600 X31.828 Y44.720
G01 F600 X31.973 Y44.881
G01 F600 X32.081 Y45.068
G01 F600 X32.148 Y45.274
G01 F600 X32.168 Y45.470
G01 F600 X32.168 Y46.830
G01 F600 X32.148 Y47.026
G01 F600 X32.120 Y47.113
G01 F600 X33.086 Y48.079
G01 F600 X51.839 Y48.079
G01 F600 X52.952 Y46.966
G01 F600 X52.952 Y15.034
G01 F600 X48.492 Y10.574
G01 F600 X48.404 Y10.593
G01 F600 X48.166 Y10.593
G01 F600 X47.934 Y10.543
G01 F600 X47.717 Y10.447
G01 F600 X47.524 Y10.307
G01 F600 X47.365 Y10.130
G01 F600 X47.246 Y9.925
G01 F600 X47.173 Y9.698
G01 F600 X47.150 Y9.482
G01 F600 X47.150 Y7.918
G01 F600 X47.173 Y7.702
G01 F600 X47.246 Y7.476
G01 F600 X47.365 Y7.270
G01 F600 X47.524 Y7.093
G01 F600 X47.717 Y6.953
G01 F600 X47.934 Y6.857
G01 F600 X48.166 Y6.807
G01 F600 X48.404 Y6.807
G01 F600 X48.636 Y6.857
G01 F600 X48.854 Y6.953
G01 F600 X49.046 Y7.093
G01 F600 X49.205 Y7.270
G01 F600 X49.324 Y7.476
G01 F600 X49.397 Y7.702
G01 F600 X49.420 Y7.918
G01 F600 X49.420 Y9.388
G01 F600 X54.222 Y14.190
G01 F600 X54.307 Y14.284
G01 F600 X54.385 Y14.420
G01 F600 X54.434 Y14.569
G01 F600 X54.448 Y14.706
G01 F600 X54.448 Y47.294
G01 F600 X54.434 Y47.431
G01 F600 X54.385 Y47.580
G01 F600 X54.307 Y47.716
G01 F600 X54.222 Y47.811
G01 F600 X52.644 Y49.388
G01 F600 X52.525 Y49.474
G01 F600 X52.382 Y49.538
G01 F600 X52.228 Y49.571
G01 F600 X32.697 Y49.571
G00 F3000 Z3.000
G00 F3000 X15.787 Y47.840
G00 F1500 Z0
G01 F600 Z-0.110
G01 F600 X15.575 Y47.795
G01 F600 X15.377 Y47.707
G01 F600 X15.202 Y47.580
G01 F600 X15.057 Y47.419
G01 F600 X14.949 Y47.232
G01 F600 X14.882 Y47.026
G01 F600 X14.862 Y46.830
G01 F600 X14.862 Y45.919
G01 F600 X9.234 Y40.291
G01 F600 X7.964 Y40.291
G01 F600 X7.732 Y40.241
G01 F600 X7.514 Y40.145
G01 F600 X7.322 Y40.005
G01 F600 X7.163 Y39.828
G01 F600 X7.044 Y39.623
G01 F600 X6.971 Y39.397
G01 F600 X6.946 Y39.160
G01 F600 X6.971 Y38.924
G01 F600 X7.044 Y38.698
G01 F600 X7.163 Y38.492
G01 F600 X7.322 Y38.315
G01 F600 X7.514 Y38.175
G01 F600 X7.732 Y38.079
G01 F600 X7.964 Y38.029
G01 F600 X9.726 Y38.029
G01 F600 X9.958 Y38.079
G01 F600 X10.176 Y38.175
G01 F600 X10.368 Y38.315
G01 F600 X10.527 Y38.492
G01 F600 X10.646 Y38.698
G01 F600 X10.719 Y38.924
G01 F600 X10.744 Y39.160
G01 F600 X10.719 Y39.397
G01 F600 X10.654 Y39.597
G01 F600 X15.566 Y44.509
G01 F600 X15.575 Y44.505
G01 F600 X15.787 Y44.460
G01 F600 X16.003 Y44.460
G01 F600 X16.215 Y44.505
G01 F600 X16.413 Y44.593
G01 F600 X16.588 Y44.720
G01 F600 X16.733 Y44.881
G01 F600 X16.841 Y45.068
G01 F600 X16.908 Y45.274
G01 F600 X16.928 Y45.470
G01 F600 X16.928 Y46.830
G01 F600 X16.908 Y47.026
G01 F600 X16.841 Y47.232
G01 F600 X16.733 Y47.419
G01 F600 X16.588 Y47.580
G01 F600 X16.413 Y47.707
G01 F600 X16.215 Y47.795
G01 F600 X16.003 Y47.840
G01 F600 X15.787 Y47.840
G00 F3000 Z3.000
G00 F3000 X18.327 Y47.840
G00 F1500 Z0
G01 F600 Z-0.110
G01 F600 X18.115 Y47.795
G01 F600 X17.917 Y47.707
G01 F600 X17.742 Y47.580
G01 F600 X17.597 Y47.419
G01 F600 X17.489 Y47.232
G01 F600 X17.422 Y47.026
G01 F600 X17.402 Y46.830
G01 F600 X17.402 Y46.094
G01 F600 X17.365 Y46.030
G01 F600 X17.316 Y45.881
G01 F600 X17.302 Y45.745
G01 F600 X17.302 Y44.484
G01 F600 X10.764 Y37.946
G01 F600 X9.447 Y37.946
G01 F600 X9.293 Y37.913
G01 F600 X9.150 Y37.850
G01 F600 X9.043 Y37.772
G01 F600 X9.018 Y37.751
G01 F600 X7.964 Y37.751
G01 F600 X7.732 Y37.701
G01 F600 X7.514 Y37.605
G01 F600 X7.322 Y37.465
G01 F600 X7.163 Y37.288
G01 F600 X7.044 Y37.083
G01 F600 X6.971 Y36.857
G01 F600 X6.946 Y36.620
G01 F600 X6.971 Y36.384
G01 F600 X7.044 Y36.157
G01 F600 X7.163 Y35.952
G01 F600 X7.322 Y35.775
G01 F600 X7.514 Y35.635
G01 F600 X7.732 Y35.539
G01 F600 X7.964 Y35.489
G01 F600 X9.726 Y35.489
G01 F600 X9.958 Y35.539
G01 F600 X10.176 Y35.635
G01 F600 X10.368 Y35.775
G01 F600 X10.527 Y35.952
G01 F600 X10.646 Y36.157
G01 F600 X10.719 Y36.384
G01 F600 X10.727 Y36.454
G01 F600 X11.153 Y36.454
G01 F600 X11.307 Y36.487
G01 F600 X11.450 Y36.550
G01 F600 X11.569 Y36.637
G01 F600 X18.572 Y43.640
G01 F600 X18.657 Y43.734
G01 F600 X18.735 Y43.870
G01 F600 X18.784 Y44.019
G01 F600 X18.798 Y44.156
G01 F600 X18.798 Y44.524
G01 F600 X18.953 Y44.593
G01 F600 X19.128 Y44.720
G01 F600 X19.273 Y44.881
G01 F600 X19.381 Y45.068
G01 F600 X19.448 Y45.274
G01 F600 X19.468 Y45.470
G01 F600 X19.468 Y46.830
G01 F600 X19.448 Y47.026
G01 F600 X19.381 Y47.232
G01 F600 X19.273 Y47.419
G01 F600 X19.128 Y47.580
G01 F600 X18.953 Y47.707
G01 F600 X18.755 Y47.795
G01 F600 X18.543 Y47.840
G01 F600 X18.327 Y47.840
G00 F3000 Z3.000
G00 F3000 X25.947 Y47.840
G00 F1500 Z0
G01 F600 Z-0.110
G01 F600 X25.735 Y47.795
G01 F600 X25.537 Y47.707
G01 F600 X25.362 Y47.580
G01 F600 X25.217 Y47.419
G01 F600 X25.109 Y47.232
G01 F600 X25.042 Y47.026
G01 F600 X25.022 Y46.830
G01 F600 X25.022 Y45.470
G01 F600 X25.042 Y45.274
G01 F600 X25.109 Y45.068
G01 F600 X25.217 Y44.881
G01 F600 X25.362 Y44.720
G01 F600 X25.537 Y44.593
G01 F600 X25.735 Y44.505
G01 F600 X25.947 Y44.460
G01 F600 X26.163 Y44.460
G01 F600 X26.375 Y44.505
G01 F600 X26.573 Y44.593
G01 F600 X26.748 Y44.720
G01 F600 X26.893 Y44.881
G01 F600 X27.001 Y45.068
G01 F600 X27.068 Y45.274
G01 F600 X27.088 Y45.470
G01 F600 X27.088 Y46.830
G01 F600 X27.068 Y47.026
G01 F600 X27.001 Y47.232
G01 F600 X26.893 Y47.419
G01 F600 X26.748 Y47.580
G01 F600 X26.573 Y47.707
G01 F600 X26.375 Y47.795
G01 F600 X26.163 Y47.840
G01 F600 X25.947 Y47.840
G00 F3000 Z3.000
G00 F3000 X28.487 Y47.840
G00 F1500 Z0
G01 F600 Z-0.110
G01 F600 X28.275 Y47.795
G01 F600 X28.077 Y47.707
G01 F600 X27.902 Y47.580
G01 F600 X27.757 Y47.419
G01 F600 X27.649 Y47.232
G01 F600 X27.582 Y47.026
G01 F600 X27.562 Y46.830
G01 F600 X27.562 Y45.470
G01 F600 X27.582 Y45.274
G01 F600 X27.649 Y45.068
G01 F600 X27.757 Y44.881
G01 F600 X27.902 Y44.720
G01 F600 X28.077 Y44.593
G01 F600 X28.275 Y44.505
G01 F600 X28.487 Y44.460
G01 F600 X28.703 Y44.460
G01 F600 X28.915 Y44.505
G01 F600 X29.113 Y44.593
G01 F600 X29.288 Y44.720
G01 F600 X29.433 Y44.881
G01 F600 X29.541 Y45.068
G01 F600 X29.608 Y45.274
G01 F600 X29.628 Y45.470
G01 F600 X29.628 Y46.830
G01 F600 X29.608 Y47.026
G01 F600 X29.541 Y47.232
G01 F600 X29.433 Y47.419
G01 F600 X29.288 Y47.580
G01 F600 X29.113 Y47.707
G01 F600 X28.915 Y47.795
G01 F600 X28.703 Y47.840
G01 F600 X28.487 Y47.840
G00 F3000 Z3.000
G00 F3000 X20.867 Y47.840
G00 F1500 Z0
G01 F600 Z-0.110
G01 F600 X20.655 Y47.795
G01 F600 X20.457 Y47.707
G01 F600 X20.282 Y47.580
G01 F600 X20.137 Y47.419
G01 F600 X20.029 Y47.232
G01 F600 X19.962 Y47.026
G01 F600 X19.942 Y46.830
G01 F600 X19.942 Y45.470
G01 F600 X19.962 Y45.274
G01 F600 X20.029 Y45.068
G01 F600 X20.137 Y44.881
G01 F600 X20.282 Y44.720
G01 F600 X20.457 Y44.593
G01 F600 X20.655 Y44.505
G01 F600 X20.867 Y44.460
G01 F600 X21.083 Y44.460
G01 F600 X21.295 Y44.505
G01 F600 X21.493 Y44.593
G01 F600 X21.668 Y44.720
G01 F600 X21.813 Y44.881
G01 F600 X21.921 Y45.068
G01 F600 X21.988 Y45.274
G01 F600 X22.008 Y45.470
G01 F600 X22.008 Y46.830
G01 F600 X21.988 Y47.026
G01 F600 X21.921 Y47.232
G01 F600 X21.813 Y47.419
G01 F600 X21.668 Y47.580
G01 F600 X21.493 Y47.707
G01 F600 X21.295 Y47.795
G01 F600 X21.083 Y47.840
G01 F600 X20.867 Y47.840
G00 F3000 Z3.000
G00 F3000 X51.347 Y47.840
G00 F1500 Z0
G01 F600 Z-0.110
G01 F600 X51.135 Y47.795
G01 F600 X50.937 Y47.707
G01 F600 X50.762 Y47.580
G01 F600 X50.617 Y47.419
G01 F600 X50.509 Y47.232
G01 F600 X50.442 Y47.026
G01 F600 X50.422 Y46.830
G01 F600 X50.422 Y45.470
G01 F600 X50.442 Y45.274
G01 F600 X50.509 Y45.068
G01 F600 X50.617 Y44.881
G01 F600 X50.762 Y44.720
G01 F600 X50.937 Y44.593
G01 F600 X51.135 Y44.505
G01 F600 X51.347 Y44.460
G01 F600 X51.563 Y44.460
G01 F600 X51.775 Y44.505
G01 F600 X51.973 Y44.593
G01 F600 X52.148 Y44.720
G01 F600 X52.293 Y44.881
G01 F600 X52.401 Y45.068
G01 F600 X52.468 Y45.274
G01 F600 X52.488 Y45.470
G01 F600 X52.488 Y46.830
G01 F600 X52.468 Y47.026
G01 F600 X52.401 Y47.232
G01 F600 X52.293 Y47.419
G01 F600 X52.148 Y47.580
G01 F600 X51.973 Y47.707
G01 F600 X51.775 Y47.795
G01 F600 X51.563 Y47.840
G01 F600 X51.347 Y47.840
G00 F3000 Z3.000
G00 F3000 X36.107 Y47.840
G00 F1500 Z0
G01 F600 Z-0.110
G01 F600 X35.895 Y47.795
G01 F600 X35.697 Y47.707
G01 F600 X35.522 Y47.580
G01 F600 X35.377 Y47.419
G01 F600 X35.269 Y47.232
G01 F600 X35.202 Y47.026
G01 F600 X35.182 Y46.830
G01 F600 X35.182 Y45.470
G01 F600 X35.202 Y45.274
G01 F600 X35.269 Y45.068
G01 F600 X35.377 Y44.881
G01 F600 X35.522 Y44.720
G01 F600 X35.697 Y44.593
G01 F600 X35.895 Y44.505
G01 F600 X36.107 Y44.460
G01 F600 X36.323 Y44.460
G01 F600 X36.535 Y44.505
G01 F600 X36.733 Y44.593
G01 F600 X36.908 Y44.720
G01 F600 X37.053 Y44.881
G01 F600 X37.161 Y45.068
G01 F600 X37.228 Y45.274
G01 F600 X37.248 Y45.470
G01 F600 X37.248 Y46.830
G01 F600 X37.228 Y47.026
G01 F600 X37.161 Y47.232
G01 F600 X37.053 Y47.419
G01 F600 X36.908 Y47.580
G01 F600 X36.733 Y47.707
G01 F600 X36.535 Y47.795
G01 F600 X36.323 Y47.840
G01 F600 X36.107 Y47.840
G00 F3000 Z3.000
G00 F3000 X38.647 Y47.840
G00 F1500 Z0
G01 F600 Z-0.110
G01 F600 X38.435 Y47.795
G01 F600 X38.237 Y47.707
G01 F600 X38.062 Y47.580
G01 F600 X37.917 Y47.419
G01 F600 X37.809 Y47.232
G01 F600 X37.742 Y47.026
G01 F600 X37.722 Y46.830
G01 F600 X37.722 Y45.470
G01 F600 X37.742 Y45.274
G01 F600 X37.809 Y45.068
G01 F600 X37.917 Y44.881
G01 F600 X38.062 Y44.720
G01 F600 X38.237 Y44.593
G01 F600 X38.435 Y44.505
G01 F600 X38.647 Y44.460
G01 F600 X38.863 Y44.460
G01 F600 X39.075 Y44.505
G01 F600 X39.273 Y44.593
G01 F600 X39.448 Y44.720
G01 F600 X39.593 Y44.881
G01 F600 X39.701 Y45.068
G01 F600 X39.768 Y45.274
G01 F600 X39.788 Y45.470
G01 F600 X39.788 Y46.830
G01 F600 X39.768 Y47.026
G01 F600 X39.701 Y47.232
G01 F600 X39.593 Y47.419
G01 F600 X39.448 Y47.580
G01 F600 X39.273 Y47.707
G01 F600 X39.075 Y47.795
G01 F600 X38.863 Y47.840
G01 F600 X38.647 Y47.840
G00 F3000 Z3.000
G00 F3000 X33.567 Y47.840
G00 F1500 Z0
G01 F600 Z-0.110
G01 F600 X33.355 Y47.795
G01 F600 X33.157 Y47.707
G01 F600 X32.982 Y47.580
G01 F600 X32.837 Y47.419
G01 F600 X32.729 Y47.232
G01 F600 X32.662 Y47.026
G01 F600 X32.642 Y46.830
G01 F600 X32.642 Y45.470
G01 F600 X32.662 Y45.274
G01 F600 X32.700 Y45.157
G01 F600 X22.389 Y34.846
G01 F600 X15.647 Y34.846
G01 F600 X15.493 Y34.813
G01 F600 X15.350 Y34.750
G01 F600 X15.231 Y34.663
G01 F600 X5.903 Y25.335
G01 F600 X5.818 Y25.241
G01 F600 X5.740 Y25.105
G01 F600 X5.691 Y24.956
G01 F600 X5.677 Y24.820
G01 F600 X5.677 Y20.905
G01 F600 X5.691 Y20.769
G01 F600 X5.740 Y20.620
G01 F600 X5.818 Y20.484
G01 F600 X5.904 Y20.389
G01 F600 X9.031 Y17.262
G01 F600 X9.150 Y17.175
G01 F600 X9.293 Y17.112
G01 F600 X9.447 Y17.079
G01 F600 X10.764 Y17.079
G01 F600 X11.607 Y16.236
G01 F600 X11.575 Y16.200
G01 F600 X11.456 Y15.995
G01 F600 X11.383 Y15.768
G01 F600 X11.360 Y15.552
G01 F600 X11.360 Y13.988
G01 F600 X11.383 Y13.772
G01 F600 X11.456 Y13.546
G01 F600 X11.575 Y13.340
G01 F600 X11.734 Y13.163
G01 F600 X11.927 Y13.023
G01 F600 X12.144 Y12.927
G01 F600 X12.376 Y12.877
G01 F600 X12.614 Y12.877
G01 F600 X12.846 Y12.927
G01 F600 X13.064 Y13.023
G01 F600 X13.256 Y13.163
G01 F600 X13.415 Y13.340
G01 F600 X13.534 Y13.546
G01 F600 X13.607 Y13.772
G01 F600 X13.630 Y13.988
G01 F600 X13.630 Y15.552
G01 F600 X13.607 Y15.768
G01 F600 X13.534 Y15.995
G01 F600 X13.414 Y16.202
G01 F600 X13.373 Y16.247
G01 F600 X13.373 Y16.294
G01 F600 X13.359 Y16.431
G01 F600 X13.310 Y16.580
G01 F600 X13.232 Y16.716
G01 F600 X13.147 Y16.811
G01 F600 X11.569 Y18.388
G01 F600 X11.450 Y18.475
G01 F600 X11.307 Y18.538
G01 F600 X11.153 Y18.571
G01 F600 X9.836 Y18.571
G01 F600 X7.173 Y21.234
G01 F600 X7.173 Y24.491
G01 F600 X16.036 Y33.354
G01 F600 X22.778 Y33.354
G01 F600 X22.932 Y33.387
G01 F600 X23.075 Y33.450
G01 F600 X23.194 Y33.537
G01 F600 X34.072 Y44.415
G01 F600 X34.157 Y44.509
G01 F600 X34.214 Y44.608
G01 F600 X34.368 Y44.720
G01 F600 X34.513 Y44.881
G01 F600 X34.621 Y45.068
G01 F600 X34.688 Y45.274
G01 F600 X34.708 Y45.470
G01 F600 X34.708 Y46.830
G01 F600 X34.688 Y47.026
G01 F600 X34.621 Y47.232
G01 F600 X34.513 Y47.419
G01 F600 X34.368 Y47.580
G01 F600 X34.193 Y47.707
G01 F600 X33.995 Y47.795
G01 F600 X33.783 Y47.840
G01 F600 X33.567 Y47.840
G00 F3000 Z3.000
G00 F3000 X46.267 Y47.840
G00 F1500 Z0
G01 F600 Z-0.110
G01 F600 X46.055 Y47.795
G01 F600 X45.857 Y47.707
G01 F600 X45.682 Y47.580
G01 F600 X45.537 Y47.419
G01 F600 X45.429 Y47.232
G01 F600 X45.362 Y47.026
G01 F600 X45.342 Y46.830
G01 F600 X45.342 Y45.470
G01 F600 X45.362 Y45.274
G01 F600 X45.429 Y45.068
G01 F600 X45.537 Y44.881
G01 F600 X45.682 Y44.720
G01 F600 X45.857 Y44.593
G01 F600 X46.055 Y44.505
G01 F600 X46.267 Y44.460
G01 F600 X46.483 Y44.460
G01 F600 X46.695 Y44.505
G01 F600 X46.893 Y44.593
G01 F600 X47.068 Y44.720
G01 F600 X47.213 Y44.881
G01 F600 X47.321 Y45.068
G01 F600 X47.388 Y45.274
G01 F600 X47.408 Y45.470
G01 F600 X47.408 Y46.830
G01 F600 X47.388 Y47.026
G01 F600 X47.321 Y47.232
G01 F600 X47.213 Y47.419
G01 F600 X47.068 Y47.580
G01 F600 X46.893 Y47.707
G01 F600 X46.695 Y47.795
G01 F600 X46.483 Y47.840
G01 F600 X46.267 Y47.840
G00 F3000 Z3.000
G00 F3000 X48.807 Y47.840
G00 F1500 Z0
G01 F600 Z-0.110
G01 F600 X48.595 Y47.795
G01 F600 X48.397 Y47.707
G01 F600 X48.222 Y47.580
G01 F600 X48.077 Y47.419
G01 F600 X47.969 Y47.232
G01 F600 X47.902 Y47.026
G01 F600 X47.882 Y46.830
G01 F600 X47.882 Y45.470
G01 F600 X47.902 Y45.274
G01 F600 X47.969 Y45.068
G01 F600 X48.077 Y44.881
G01 F600 X48.222 Y44.720
G01 F600 X48.397 Y44.593
G01 F600 X48.595 Y44.505
G01 F600 X48.807 Y44.460
G01 F600 X49.023 Y44.460
G01 F600 X49.235 Y44.505
G01 F600 X49.433 Y44.593
G01 F600 X49.608 Y44.720
G01 F600 X49.753 Y44.881
G01 F600 X49.861 Y45.068
G01 F600 X49.928 Y45.274
G01 F600 X49.948 Y45.470
G01 F600 X49.948 Y46.830
G01 F600 X49.928 Y47.026
G01 F600 X49.861 Y47.232
G01 F600 X49.753 Y47.419
G01 F600 X49.608 Y47.580
G01 F600 X49.433 Y47.707
G01 F600 X49.235 Y47.795
G01 F600 X49.023 Y47.840
G01 F600 X48.807 Y47.840
G00 F3000 Z3.000
G00 F3000 X41.187 Y47.840
G00 F1500 Z0
G01 F600 Z-0.110
G01 F600 X40.975 Y47.795
G01 F600 X40.777 Y47.707
G01 F600 X40.602 Y47.580
G01 F600 X40.457 Y47.419
G01 F600 X40.349 Y47.232
G01 F600 X40.282 Y47.026
G01 F600 X40.262 Y46.830
G01 F600 X40.262 Y45.470
G01 F600 X40.282 Y45.274
G01 F600 X40.349 Y45.068
G01 F600 X40.457 Y44.881
G01 F600 X40.602 Y44.720
G01 F600 X40.777 Y44.593
G01 F600 X40.975 Y44.505
G01 F600 X41.187 Y44.460
G01 F600 X41.403 Y44.460
G01 F600 X41.615 Y44.505
G01 F600 X41.813 Y44.593
G01 F600 X41.988 Y44.720
G01 F600 X42.133 Y44.881
G01 F600 X42.241 Y45.068
G01 F600 X42.308 Y45.274
G01 F600 X42.328 Y45.470
G01 F600 X42.328 Y46.830
G01 F600 X42.308 Y47.026
G01 F600 X42.241 Y47.232
G01 F600 X42.133 Y47.419
G01 F600 X41.988 Y47.580
G01 F600 X41.813 Y47.707
G01 F600 X41.615 Y47.795
G01 F600 X41.403 Y47.840
G01 F600 X41.187 Y47.840
G00 F3000 Z3.000
G00 F3000 X43.727 Y47.840
G00 F1500 Z0
G01 F600 Z-0.110
G01 F600 X43.515 Y47.795
G01 F600 X43.317 Y47.707
G01 F600 X43.142 Y47.580
G01 F600 X42.997 Y47.419
G01 F600 X42.889 Y47.232
G01 F600 X42.822 Y47.026
G01 F600 X42.802 Y46.830
G01 F600 X42.802 Y45.470
G01 F600 X42.822 Y45.274
G01 F600 X42.889 Y45.068
G01 F600 X42.997 Y44.881
G01 F600 X43.142 Y44.720
G01 F600 X43.317 Y44.593
G01 F600 X43.515 Y44.505
G01 F600 X43.727 Y44.460
G01 F600 X43.943 Y44.460
G01 F600 X44.155 Y44.505
G01 F600 X44.353 Y44.593
G01 F600 X44.528 Y44.720
G01 F600 X44.673 Y44.881
G01 F600 X44.781 Y45.068
G01 F600 X44.848 Y45.274
G01 F600 X44.868 Y45.470
G01 F600 X44.868 Y46.830
G01 F600 X44.848 Y47.026
G01 F600 X44.781 Y47.232
G01 F600 X44.673 Y47.419
G01 F600 X44.528 Y47.580
G01 F600 X44.353 Y47.707
G01 F600 X44.155 Y47.795
G01 F600 X43.943 Y47.840
G01 F600 X43.727 Y47.840
G00 F3000 Z3.000
G00 F3000 X48.807 Y32.590
G00 F1500 Z0
G01 F600 Z-0.110
G01 F600 X48.595 Y32.545
G01 F600 X48.397 Y32.457
G01 F600 X48.222 Y32.330
G01 F600 X48.077 Y32.169
G01 F600 X47.969 Y31.982
G01 F600 X47.902 Y31.776
G01 F600 X47.882 Y31.580
G01 F600 X47.882 Y30.220
G01 F600 X47.902 Y30.024
G01 F600 X47.969 Y29.818
G01 F600 X48.077 Y29.631
G01 F600 X48.167 Y29.531
G01 F600 X48.167 Y25.541
G01 F600 X48.181 Y25.404
G01 F600 X48.230 Y25.255
G01 F600 X48.308 Y25.119
G01 F600 X48.394 Y25.024
G01 F600 X50.977 Y22.441
G01 F600 X50.977 Y16.859
G01 F600 X48.864 Y14.746
G01 F600 X37.797 Y14.746
G01 F600 X37.643 Y14.713
G01 F600 X37.500 Y14.650
G01 F600 X37.381 Y14.563
G01 F600 X36.803 Y13.986
G01 F600 X36.718 Y13.891
G01 F600 X36.640 Y13.755
G01 F600 X36.591 Y13.606
G01 F600 X36.577 Y13.470
G01 F600 X36.577 Y5.709
G01 F600 X36.264 Y5.396
G01 F600 X27.323 Y5.396
G01 F600 X27.323 Y7.958
G01 F600 X27.309 Y8.094
G01 F600 X27.296 Y8.132
G01 F600 X27.324 Y8.598
G01 F600 X27.308 Y8.754
G01 F600 X27.280 Y8.829
G01 F600 X27.280 Y9.802
G01 F600 X27.257 Y10.018
G01 F600 X27.184 Y10.245
G01 F600 X27.065 Y10.450
G01 F600 X26.906 Y10.627
G01 F600 X26.713 Y10.767
G01 F600 X26.548 Y10.840
G01 F600 X26.548 Y18.756
G01 F600 X26.596 Y18.767
G01 F600 X26.814 Y18.863
G01 F600 X27.006 Y19.003
G01 F600 X27.165 Y19.180
G01 F600 X27.284 Y19.386
G01 F600 X27.357 Y19.612
G01 F600 X27.380 Y19.828
G01 F600 X27.380 Y21.392
G01 F600 X27.357 Y21.608
G01 F600 X27.284 Y21.835
G01 F600 X27.165 Y22.040
G01 F600 X27.006 Y22.217
G01 F600 X26.814 Y22.357
G01 F600 X26.596 Y22.453
G01 F600 X26.364 Y22.503
G01 F600 X26.126 Y22.503
G01 F600 X25.894 Y22.453
G01 F600 X25.677 Y22.357
G01 F600 X25.484 Y22.217
G01 F600 X25.325 Y22.040
G01 F600 X25.206 Y21.835
G01 F600 X25.133 Y21.608
G01 F600 X25.110 Y21.392
G01 F600 X25.110 Y20.440
G01 F600 X25.066 Y20.306
G01 F600 X25.052 Y20.169
G01 F600 X25.052 Y10.078
G01 F600 X25.033 Y10.018
G01 F600 X25.010 Y9.802
G01 F600 X25.010 Y8.238
G01 F600 X25.033 Y8.022
G01 F600 X25.106 Y7.796
G01 F600 X25.225 Y7.590
G01 F600 X25.384 Y7.413
G01 F600 X25.577 Y7.273
G01 F600 X25.794 Y7.177
G01 F600 X25.827 Y7.170
G01 F600 X25.827 Y4.631
G01 F600 X25.841 Y4.494
G01 F600 X25.890 Y4.345
G01 F600 X25.968 Y4.209
G01 F600 X26.073 Y4.093
G01 F600 X26.200 Y4.000
G01 F600 X26.343 Y3.937
G01 F600 X26.497 Y3.904
G01 F600 X36.653 Y3.904
G01 F600 X36.807 Y3.937
G01 F600 X36.950 Y4.001
G01 F600 X37.069 Y4.087
G01 F600 X37.847 Y4.865
G01 F600 X37.932 Y4.959
G01 F600 X38.010 Y5.095
G01 F600 X38.059 Y5.244
G01 F600 X38.073 Y5.381
G01 F600 X38.073 Y13.141
G01 F600 X38.186 Y13.254
G01 F600 X49.253 Y13.254
G01 F600 X49.407 Y13.287
G01 F600 X49.550 Y13.351
G01 F600 X49.669 Y13.437
G01 F600 X52.247 Y16.015
G01 F600 X52.332 Y16.109
G01 F600 X52.410 Y16.245
G01 F600 X52.459 Y16.394
G01 F600 X52.473 Y16.530
G01 F600 X52.473 Y22.770
G01 F600 X52.459 Y22.906
G01 F600 X52.410 Y23.055
G01 F600 X52.332 Y23.191
G01 F600 X52.247 Y23.286
G01 F600 X49.663 Y25.869
G01 F600 X49.663 Y29.531
G01 F600 X49.753 Y29.631
G01 F600 X49.861 Y29.818
G01 F600 X49.928 Y30.024
G01 F600 X49.948 Y30.220
G01 F600 X49.948 Y31.580
G01 F600 X49.928 Y31.776
G01 F600 X49.861 Y31.982
G01 F600 X49.753 Y32.169
G01 F600 X49.608 Y32.330
G01 F600 X49.433 Y32.457
G01 F600 X49.235 Y32.545
G01 F600 X49.023 Y32.590
G01 F600 X48.807 Y32.590
G00 F3000 Z3.000
G00 F3000 X46.267 Y32.590
G00 F1500 Z0
G01 F600 Z-0.110
G01 F600 X46.055 Y32.545
G01 F600 X45.857 Y32.457
G01 F600 X45.682 Y32.330
G01 F600 X45.537 Y32.169
G01 F600 X45.429 Y31.982
G01 F600 X45.362 Y31.776
G01 F600 X45.342 Y31.580
G01 F600 X45.342 Y30.220
G01 F600 X45.362 Y30.024
G01 F600 X45.429 Y29.818
G01 F600 X45.537 Y29.631
G01 F600 X45.682 Y29.470
G01 F600 X45.857 Y29.343
G01 F600 X46.055 Y29.255
G01 F600 X46.267 Y29.210
G01 F600 X46.483 Y29.210
G01 F600 X46.695 Y29.255
G01 F600 X46.893 Y29.343
G01 F600 X47.068 Y29.470
G01 F600 X47.213 Y29.631
G01 F600 X47.321 Y29.818
G01 F600 X47.388 Y30.024
G01 F600 X47.408 Y30.220
G01 F600 X47.408 Y31.580
G01 F600 X47.388 Y31.776
G01 F600 X47.321 Y31.982
G01 F600 X47.213 Y32.169
G01 F600 X47.068 Y32.330
G01 F600 X46.893 Y32.457
G01 F600 X46.695 Y32.545
G01 F600 X46.483 Y32.590
G01 F600 X46.267 Y32.590
G00 F3000 Z3.000
G00 F3000 X51.347 Y32.590
G00 F1500 Z0
G01 F600 Z-0.110
G01 F600 X51.135 Y32.545
G01 F600 X50.937 Y32.457
G01 F600 X50.762 Y32.330
G01 F600 X50.617 Y32.169
G01 F600 X50.509 Y31.982
G01 F600 X50.442 Y31.776
G01 F600 X50.422 Y31.580
G01 F600 X50.422 Y30.220
G01 F600 X50.442 Y30.024
G01 F600 X50.509 Y29.818
G01 F600 X50.617 Y29.631
G01 F600 X50.762 Y29.470
G01 F600 X50.937 Y29.343
G01 F600 X51.135 Y29.255
G01 F600 X51.347 Y29.210
G01 F600 X51.563 Y29.210
G01 F600 X51.775 Y29.255
G01 F600 X51.973 Y29.343
G01 F600 X52.148 Y29.470
G01 F600 X52.293 Y29.631
G01 F600 X52.401 Y29.818
G01 F600 X52.468 Y30.024
G01 F600 X52.488 Y30.220
G01 F600 X52.488 Y31.580
G01 F600 X52.468 Y31.776
G01 F600 X52.401 Y31.982
G01 F600 X52.293 Y32.169
G01 F600 X52.148 Y32.330
G01 F600 X51.973 Y32.457
G01 F600 X51.775 Y32.545
G01 F600 X51.563 Y32.590
G01 F600 X51.347 Y32.590
G00 F3000 Z3.000
G00 F3000 X38.647 Y32.590
G00 F1500 Z0
G01 F600 Z-0.110
G01 F600 X38.435 Y32.545
G01 F600 X38.237 Y32.457
G01 F600 X38.062 Y32.330
G01 F600 X37.917 Y32.169
G01 F600 X37.809 Y31.982
G01 F600 X37.742 Y31.776
G01 F600 X37.722 Y31.580
G01 F600 X37.722 Y30.220
G01 F600 X37.742 Y30.024
G01 F600 X37.809 Y29.818
G01 F600 X37.917 Y29.631
G01 F600 X38.062 Y29.470
G01 F600 X38.237 Y29.343
G01 F600 X38.435 Y29.255
G01 F600 X38.647 Y29.210
G01 F600 X38.863 Y29.210
G01 F600 X39.075 Y29.255
G01 F600 X39.273 Y29.343
G01 F600 X39.448 Y29.470
G01 F600 X39.593 Y29.631
G01 F600 X39.701 Y29.818
G01 F600 X39.768 Y30.024
G01 F600 X39.788 Y30.220
G01 F600 X39.788 Y31.580
G01 F600 X39.768 Y31.776
G01 F600 X39.701 Y31.982
G01 F600 X39.593 Y32.169
G01 F600 X39.448 Y32.330
G01 F600 X39.273 Y32.457
G01 F600 X39.075 Y32.545
G01 F600 X38.863 Y32.590
G01 F600 X38.647 Y32.590
G00 F3000 Z3.000
G00 F3000 X36.107 Y32.590
G00 F1500 Z0
G01 F600 Z-0.110
G01 F600 X35.895 Y32.545
G01 F600 X35.697 Y32.457
G01 F600 X35.522 Y32.330
G01 F600 X35.377 Y32.169
G01 F600 X35.269 Y31.982
G01 F600 X35.202 Y31.776
G01 F600 X35.182 Y31.580
G01 F600 X35.182 Y30.220
G01 F600 X35.202 Y30.024
G01 F600 X35.269 Y29.818
G01 F600 X35.377 Y29.631
G01 F600 X35.522 Y29.470
G01 F600 X35.697 Y29.343
G01 F600 X35.895 Y29.255
G01 F600 X36.107 Y29.210
G01 F600 X36.323 Y29.210
G01 F600 X36.535 Y29.255
G01 F600 X36.733 Y29.343
G01 F600 X36.908 Y29.470
G01 F600 X37.053 Y29.631
G01 F600 X37.161 Y29.818
G01 F600 X37.228 Y30.024
G01 F600 X37.248 Y30.220
G01 F600 X37.248 Y31.580
G01 F600 X37.228 Y31.776
G01 F600 X37.161 Y31.982
G01 F600 X37.053 Y32.169
G01 F600 X36.908 Y32.330
G01 F600 X36.733 Y32.457
G01 F600 X36.535 Y32.545
G01 F600 X36.323 Y32.590
G01 F600 X36.107 Y32.590
G00 F3000 Z3.000
G00 F3000 X43.727 Y32.590
G00 F1500 Z0
G01 F600 Z-0.110
G01 F600 X43.515 Y32.545
G01 F600 X43.317 Y32.457
G01 F600 X43.142 Y32.330
G01 F600 X42.997 Y32.169
G01 F600 X42.889 Y31.982
G01 F600 X42.822 Y31.776
G01 F600 X42.802 Y31.580
G01 F600 X42.802 Y30.220
G01 F600 X42.822 Y30.024
G01 F600 X42.889 Y29.818
G01 F600 X42.997 Y29.631
G01 F600 X43.142 Y29.470
G01 F600 X43.317 Y29.343
G01 F600 X43.515 Y29.255
G01 F600 X43.652 Y29.226
