( PCB drills )
( Generated by Rapid-PCB.com )
( Material Size)
( X= 100.000, Y= 70.000, Z= 1.550)
()
G00
G17
G21
G40
G49
G54
G80
G90
G94
G00 F3000 Z3.000
M03 S9000
G00 F3000 X33.995 Y30.480
G00 F1500 Z0
G01 F60 Z-1.800
G00 F3000 Z3.000
G00 F3000 X31.455 Y30.480
G00 F1500 Z0
G01 F60 Z-1.800
G00 F3000 Z3.000
G00 F3000 X28.915 Y30.480
G00 F1500 Z0
G01 F60 Z-1.800
G00 F3000 Z3.000
G00 F3000 X26.375 Y30.480
G00 F1500 Z0
G01 F60 Z-1.800
G00 F3000 Z3.000
G00 F3000 X23.835 Y30.480
G00 F1500 Z0
G01 F60 Z-1.800
G00 F3000 Z3.000
G00 F3000 X21.295 Y30.480
G00 F1500 Z0
G01 F60 Z-1.800
G00 F3000 Z3.000
G00 F3000 X18.755 Y30.480
G00 F1500 Z0
G01 F60 Z-1.800
G00 F3000 Z3.000
G00 F3000 X16.215 Y30.480
G00 F1500 Z0
G01 F60 Z-1.800
G00 F3000 Z3.000
G00 F3000 X16.215 Y45.720
G00 F1500 Z0
G01 F60 Z-1.800
G00 F3000 Z3.000
G00 F3000 X18.755 Y45.720
G00 F1500 Z0
G01 F60 Z-1.800
G00 F3000 Z3.000
G00 F3000 X21.295 Y45.720
G00 F1500 Z0
G01 F60 Z-1.800
G00 F3000 Z3.000
G00 F3000 X23.835 Y45.720
G00 F1500 Z0
G01 F60 Z-1.800
G00 F3000 Z3.000
G00 F3000 X51.775 Y30.480
G00 F1500 Z0
G01 F60 Z-1.800
G00 F3000 Z3.000
G00 F3000 X28.915 Y45.720
G00 F1500 Z0
G01 F60 Z-1.800
G00 F3000 Z3.000
G00 F3000 X31.455 Y45.720
G00 F1500 Z0
G01 F60 Z-1.800
G00 F3000 Z3.000
G00 F3000 X33.995 Y45.720
G00 F1500 Z0
G01 F60 Z-1.800
G00 F3000 Z3.000
G00 F3000 X36.535 Y45.720
G00 F1500 Z0
G01 F60 Z-1.800
G00 F3000 Z3.000
G00 F3000 X39.075 Y45.720
G00 F1500 Z0
G01 F60 Z-1.800
G00 F3000 Z3.000
G00 F3000 X44.155 Y45.720
G00 F1500 Z0
G01 F60 Z-1.800
G00 F3000 Z3.000
G00 F3000 X46.695 Y45.720
G00 F1500 Z0
G01 F60 Z-1.800
G00 F3000 Z3.000
G00 F3000 X49.235 Y45.720
G00 F1500 Z0
G01 F60 Z-1.800
G00 F3000 Z3.000
G00 F3000 X51.775 Y45.720
G00 F1500 Z0
G01 F60 Z-1.800
G00 F3000 Z3.000
G00 F3000 X49.235 Y30.480
G00 F1500 Z0
G01 F60 Z-1.800
G00 F3000 Z3.000
G00 F3000 X46.695 Y30.480
G00 F1500 Z0
G01 F60 Z-1.800
G00 F3000 Z3.000
G00 F3000 X44.155 Y30.480
G00 F1500 Z0
G01 F60 Z-1.800
G00 F3000 Z3.000
G00 F3000 X41.615 Y30.480
G00 F1500 Z0
G01 F60 Z-1.800
G00 F3000 Z3.000
G00 F3000 X41.615 Y45.720
G00 F1500 Z0
G01 F60 Z-1.800
G00 F3000 Z3.000
G00 F3000 X39.075 Y30.480
G00 F1500 Z0
G01 F60 Z-1.800
G00 F3000 Z3.000
G00 F3000 X36.535 Y30.480
G00 F1500 Z0
G01 F60 Z-1.800
G00 F3000 Z3.000
G00 F3000 X26.375 Y45.720
G00 F1500 Z0
G01 F60 Z-1.800
G00 F3000 Z3.000
G00 F3000 X10.945 Y62.500
G00 F1500 Z0
G01 F60 Z-1.800
G00 F3000 Z3.000
G00 F3000 X10.945 Y57.100
G00 F1500 Z0
G01 F60 Z-1.800
G00 F3000 Z3.000
G00 F3000 X21.105 Y57.100
G00 F1500 Z0
G01 F60 Z-1.800
G00 F3000 Z3.000
G00 F3000 X10.425 Y52.470
G00 F1500 Z0
G01 F60 Z-1.800
G00 F3000 Z3.000
G00 F3000 X10.425 Y49.930
G00 F1500 Z0
G01 F60 Z-1.800
G00 F3000 Z3.000
G00 F3000 X21.105 Y62.500
G00 F1500 Z0
G01 F60 Z-1.800
G00 F3000 Z3.000
G00 F3000 X46.695 Y6.350
G00 F1500 Z0
G01 F60 Z-1.800
G00 F3000 Z3.000
G00 F3000 X49.235 Y6.350
G00 F1500 Z0
G01 F60 Z-1.800
G00 F3000 Z3.000
G00 F3000 X8.595 Y39.370
G00 F1500 Z0
G01 F60 Z-1.800
G00 F3000 Z3.000
G00 F3000 X8.595 Y41.910
G00 F1500 Z0
G01 F60 Z-1.800
G00 F3000 Z3.000
G00 F3000 X45.425 Y20.320
G00 F1500 Z0
G01 F60 Z-1.800
G00 F3000 Z3.000
G00 F3000 X42.885 Y20.320
G00 F1500 Z0
G01 F60 Z-1.800
G00 F3000 Z3.000
G00 F3000 X47.965 Y20.320
G00 F1500 Z0
G01 F60 Z-1.800
G00 F3000 Z3.000
G00 F3000 X50.505 Y20.320
G00 F1500 Z0
G01 F60 Z-1.800
G00 F3000 Z3.000
G00 F3000 X11.135 Y7.620
G00 F1500 Z0
G01 F60 Z-1.800
G00 F3000 Z3.000
G00 F3000 X13.675 Y7.620
G00 F1500 Z0
G01 F60 Z-1.800
G00 F3000 Z3.000
G00 F3000 X27.645 Y10.160
G00 F1500 Z0
G01 F60 Z-1.800
G00 F3000 Z3.000
G00 F3000 X30.185 Y10.160
G00 F1500 Z0
G01 F60 Z-1.800
G00 F3000 Z3.000
G00 F3000 X32.725 Y10.160
G00 F1500 Z0
G01 F60 Z-1.800
G00 F3000 Z3.000
G00 F3000 X25.105 Y10.160
G00 F1500 Z0
G01 F60 Z-1.800
G00 F3000 Z3.000
G00 F3000 X27.645 Y20.320
G00 F1500 Z0
G01 F60 Z-1.800
G00 F3000 Z3.000
G00 F3000 X30.185 Y20.320
G00 F1500 Z0
G01 F60 Z-1.800
G00 F3000 Z3.000
G00 F3000 X32.725 Y20.320
G00 F1500 Z0
G01 F60 Z-1.800
G00 F3000 Z3.000
G00 F3000 X25.105 Y20.320
G00 F1500 Z0
G01 F60 Z-1.800
G00 F3000 Z3.000
G00 F3000 X45.976 Y62.761
G00 F1500 Z0
G01 F60 Z-1.800
G00 F3000 Z3.000
G00 F3000 X39.474 Y62.761
G00 F1500 Z0
G01 F60 Z-1.800
G00 F3000 Z3.000
G00 F3000 X45.976 Y58.239
G00 F1500 Z0
G01 F60 Z-1.800
G00 F3000 Z3.000
G00 F3000 X39.474 Y58.239
G00 F1500 Z0
G01 F60 Z-1.800
G00 F3000 Z3.000
G00 F3000 X33.876 Y62.761
G00 F1500 Z0
G01 F60 Z-1.800
G00 F3000 Z3.000
G00 F3000 X27.374 Y62.761
G00 F1500 Z0
G01 F60 Z-1.800
G00 F3000 Z3.000
G00 F3000 X33.876 Y58.239
G00 F1500 Z0
G01 F60 Z-1.800
G00 F3000 Z3.000
G00 F3000 X14.945 Y13.970
G00 F1500 Z0
G01 F60 Z-1.800
G00 F3000 Z3.000
G00 F3000 X27.374 Y58.239
G00 F1500 Z0
G01 F60 Z-1.800
G00 F3000 Z3.000
G00 F3000 X41.455 Y51.700
G00 F1500 Z0
G01 F60 Z-1.800
G00 F3000 Z3.000
G00 F3000 X43.995 Y51.700
G00 F1500 Z0
G01 F60 Z-1.800
G00 F3000 Z3.000
G00 F3000 X46.535 Y51.700
G00 F1500 Z0
G01 F60 Z-1.800
G00 F3000 Z3.000
G00 F3000 X11.135 Y22.860
G00 F1500 Z0
G01 F60 Z-1.800
G00 F3000 Z3.000
G00 F3000 X13.675 Y22.860
G00 F1500 Z0
G01 F60 Z-1.800
G00 F3000 Z3.000
G00 F3000 X9.865 Y13.970
G00 F1500 Z0
G01 F60 Z-1.800
G00 F3000 Z3.000
G00 F3000 X12.405 Y13.970
G00 F1500 Z0
G01 F60 Z-1.800
G00 F3000 Z3.000
G00 F3000 X38.915 Y51.700
G00 F1500 Z0
G01 F60 Z-1.800
G00 F3000 Z3.000
G00 F3000 X44.155 Y6.350
G00 F1500 Z0
G01 F60 Z-1.800
G00 F3000 Z3.000
G00 F3000 X54.315 Y30.480
G00 F1500 Z0
G01 F60 Z-1.800
G00 F3000 Z3.000
G00 F3000 X54.315 Y45.720
G00 F1500 Z0
G01 F60 Z-1.800
G00 F3000 Z3.000
G00 F3000 X13.675 Y45.720
G00 F1500 Z0
G01 F60 Z-1.800
G00 F3000 Z3.000
G00 F3000 X13.675 Y30.480
G00 F1500 Z0
G01 F60 Z-1.800
G00 F3000 Z3.000
G00 F3000 Z3.000
G00 F3000 X0.000 Y0.000
M05
M30
%