( PCB Cuts )
( Generated by Rapid-PCB.com )
( Material Size)
( X= 127.000, Y= 101.600, Z= 1.550)
()
G00
G17
G21
G40
G49
G54
G80
G90
G94
G00 F3000 Z3.000
M03 S9000
G00 F3000 X-1.500 Y70.500
G00 F1500 Z0
G01 F600 Z-1.800
G01 F600 X-1.500 Y-1.500
G01 F600 X60.500 Y-1.500
G01 F600 X60.500 Y70.500
G01 F600 X-1.500 Y70.500
G00 F3000 Z3.000
G00 F3000 Z3.000
G00 F3000 X0.000 Y0.000
M05
M30
%