( PCB Contour )
( Generated by Rapid-PCB.com )
( Material Size)
( X= 100.000, Y= 70.000, Z= 1.550)
()
G00
G17
G21
G40
G49
G54
G80
G90
G94
G00 F3000 Z3.000
M03 S9000
G00 F3000 X20.868 Y65.646
G00 F1500 Z0
G01 F600 Z-0.110
G01 F600 X20.755 Y65.622
G01 F600 X20.651 Y65.575
G01 F600 X20.561 Y65.511
G01 F600 X18.372 Y63.321
G01 F600 X11.193 Y63.321
G01 F600 X11.071 Y63.393
G01 F600 X10.767 Y63.315
G01 F600 X10.669 Y63.290
G01 F600 X10.402 Y63.220
G01 F600 X10.052 Y62.626
G01 F600 X10.104 Y62.422
G01 F600 X10.102 Y62.395
G01 F600 X10.115 Y62.268
G01 F600 X10.155 Y62.146
G01 F600 X10.193 Y62.080
G01 F600 X10.223 Y61.964
G01 F600 X10.302 Y61.909
G01 F600 X10.302 Y57.719
G01 F600 X10.219 Y57.627
G01 F600 X10.155 Y57.516
G01 F600 X10.115 Y57.393
G01 F600 X10.107 Y57.320
G01 F600 X10.052 Y57.226
G01 F600 X10.225 Y56.557
G01 F600 X10.819 Y56.207
G01 F600 X11.488 Y56.380
G01 F600 X11.838 Y56.975
G01 F600 X11.665 Y57.643
G01 F600 X11.398 Y57.800
G01 F600 X11.398 Y61.756
G01 F600 X11.488 Y61.780
G01 F600 X11.752 Y62.229
G01 F600 X18.657 Y62.229
G01 F600 X18.770 Y62.253
G01 F600 X18.875 Y62.300
G01 F600 X18.964 Y62.364
G01 F600 X21.153 Y64.554
G01 F600 X40.072 Y64.554
G01 F600 X44.586 Y60.039
G01 F600 X44.675 Y59.975
G01 F600 X44.780 Y59.928
G01 F600 X44.893 Y59.904
G01 F600 X47.047 Y59.904
G01 F600 X48.277 Y58.674
G01 F600 X48.277 Y53.701
G01 F600 X47.397 Y52.821
G01 F600 X47.390 Y52.843
G01 F600 X47.292 Y53.012
G01 F600 X47.161 Y53.158
G01 F600 X47.003 Y53.273
G01 F600 X46.824 Y53.352
G01 F600 X46.633 Y53.393
G01 F600 X46.437 Y53.393
G01 F600 X46.246 Y53.352
G01 F600 X46.067 Y53.273
G01 F600 X45.909 Y53.158
G01 F600 X45.778 Y53.012
G01 F600 X45.680 Y52.843
G01 F600 X45.620 Y52.657
G01 F600 X45.600 Y52.471
G01 F600 X45.600 Y50.929
G01 F600 X45.620 Y50.743
G01 F600 X45.680 Y50.557
G01 F600 X45.778 Y50.388
G01 F600 X45.909 Y50.242
G01 F600 X46.067 Y50.127
G01 F600 X46.246 Y50.048
G01 F600 X46.437 Y50.007
G01 F600 X46.633 Y50.007
G01 F600 X46.824 Y50.048
G01 F600 X47.003 Y50.127
G01 F600 X47.161 Y50.242
G01 F600 X47.292 Y50.388
G01 F600 X47.390 Y50.557
G01 F600 X47.451 Y50.743
G01 F600 X47.470 Y50.929
G01 F600 X47.470 Y51.414
G01 F600 X47.550 Y51.450
G01 F600 X47.639 Y51.514
G01 F600 X49.202 Y53.077
G01 F600 X49.269 Y53.152
G01 F600 X49.327 Y53.252
G01 F600 X49.362 Y53.361
G01 F600 X49.373 Y53.466
G01 F600 X49.373 Y58.909
G01 F600 X49.362 Y59.014
G01 F600 X49.327 Y59.123
G01 F600 X49.269 Y59.223
G01 F600 X49.202 Y59.298
G01 F600 X47.639 Y60.861
G01 F600 X47.550 Y60.925
G01 F600 X47.445 Y60.972
G01 F600 X47.332 Y60.996
G01 F600 X45.178 Y60.996
G01 F600 X40.664 Y65.511
G01 F600 X40.575 Y65.575
G01 F600 X40.470 Y65.622
G01 F600 X40.357 Y65.646
G01 F600 X20.868 Y65.646
G00 F3000 Z3.000
G00 F3000 X39.357 Y63.868
G00 F1500 Z0
G01 F600 Z-0.110
G01 F600 X39.130 Y63.820
G01 F600 X38.917 Y63.725
G01 F600 X38.729 Y63.588
G01 F600 X38.573 Y63.415
G01 F600 X38.456 Y63.214
G01 F600 X38.384 Y62.992
G01 F600 X38.360 Y62.761
G01 F600 X38.384 Y62.529
G01 F600 X38.456 Y62.308
G01 F600 X38.573 Y62.106
G01 F600 X38.729 Y61.933
G01 F600 X38.917 Y61.796
G01 F600 X39.130 Y61.701
G01 F600 X39.357 Y61.653
G01 F600 X39.590 Y61.653
G01 F600 X39.818 Y61.701
G01 F600 X40.031 Y61.796
G01 F600 X40.219 Y61.933
G01 F600 X40.375 Y62.106
G01 F600 X40.491 Y62.308
G01 F600 X40.563 Y62.529
G01 F600 X40.588 Y62.761
G01 F600 X40.563 Y62.992
G01 F600 X40.491 Y63.214
G01 F600 X40.375 Y63.415
G01 F600 X40.219 Y63.588
G01 F600 X40.031 Y63.725
G01 F600 X39.818 Y63.820
G01 F600 X39.590 Y63.868
G01 F600 X39.357 Y63.868
G00 F3000 Z3.000
G00 F3000 X45.860 Y63.868
G00 F1500 Z0
G01 F600 Z-0.110
G01 F600 X45.632 Y63.820
G01 F600 X45.419 Y63.725
G01 F600 X45.231 Y63.588
G01 F600 X45.075 Y63.415
G01 F600 X44.959 Y63.214
G01 F600 X44.887 Y62.992
G01 F600 X44.862 Y62.761
G01 F600 X44.887 Y62.529
G01 F600 X44.959 Y62.308
G01 F600 X45.075 Y62.106
G01 F600 X45.231 Y61.933
G01 F600 X45.419 Y61.796
G01 F600 X45.632 Y61.701
G01 F600 X45.860 Y61.653
G01 F600 X46.093 Y61.653
G01 F600 X46.320 Y61.701
G01 F600 X46.533 Y61.796
G01 F600 X46.721 Y61.933
G01 F600 X46.877 Y62.106
G01 F600 X46.994 Y62.308
G01 F600 X47.066 Y62.529
G01 F600 X47.090 Y62.761
G01 F600 X47.066 Y62.992
G01 F600 X46.994 Y63.214
G01 F600 X46.877 Y63.415
G01 F600 X46.721 Y63.588
G01 F600 X46.533 Y63.725
G01 F600 X46.320 Y63.820
G01 F600 X46.093 Y63.868
G01 F600 X45.860 Y63.868
G00 F3000 Z3.000
G00 F3000 X27.257 Y63.868
G00 F1500 Z0
G01 F600 Z-0.110
G01 F600 X27.030 Y63.820
G01 F600 X26.817 Y63.725
G01 F600 X26.629 Y63.588
G01 F600 X26.473 Y63.415
G01 F600 X26.356 Y63.214
G01 F600 X26.284 Y62.992
G01 F600 X26.260 Y62.761
G01 F600 X26.284 Y62.529
G01 F600 X26.356 Y62.308
G01 F600 X26.473 Y62.106
G01 F600 X26.629 Y61.933
G01 F600 X26.817 Y61.796
G01 F600 X27.030 Y61.701
G01 F600 X27.257 Y61.653
G01 F600 X27.490 Y61.653
G01 F600 X27.718 Y61.701
G01 F600 X27.931 Y61.796
G01 F600 X28.119 Y61.933
G01 F600 X28.275 Y62.106
G01 F600 X28.391 Y62.308
G01 F600 X28.463 Y62.529
G01 F600 X28.488 Y62.761
G01 F600 X28.463 Y62.992
G01 F600 X28.391 Y63.214
G01 F600 X28.275 Y63.415
G01 F600 X28.119 Y63.588
G01 F600 X27.931 Y63.725
G01 F600 X27.718 Y63.820
G01 F600 X27.490 Y63.868
G01 F600 X27.257 Y63.868
G00 F3000 Z3.000
G00 F3000 X33.760 Y63.868
G00 F1500 Z0
G01 F600 Z-0.110
G01 F600 X33.532 Y63.820
G01 F600 X33.319 Y63.725
G01 F600 X33.131 Y63.588
G01 F600 X32.975 Y63.415
G01 F600 X32.859 Y63.214
G01 F600 X32.787 Y62.992
G01 F600 X32.762 Y62.761
G01 F600 X32.787 Y62.529
G01 F600 X32.859 Y62.308
G01 F600 X31.547 Y60.996
G01 F600 X26.578 Y60.996
G01 F600 X24.389 Y63.186
G01 F600 X24.300 Y63.250
G01 F600 X24.195 Y63.297
G01 F600 X24.082 Y63.321
G01 F600 X21.643 Y63.321
G01 F600 X21.530 Y63.297
G01 F600 X21.453 Y63.263
G01 F600 X21.231 Y63.393
G01 F600 X20.562 Y63.220
G01 F600 X20.212 Y62.626
G01 F600 X20.385 Y61.957
G01 F600 X20.980 Y61.607
G01 F600 X21.648 Y61.780
G01 F600 X21.912 Y62.229
G01 F600 X23.797 Y62.229
G01 F600 X25.986 Y60.039
G01 F600 X26.076 Y59.975
G01 F600 X26.180 Y59.928
G01 F600 X26.293 Y59.904
G01 F600 X31.832 Y59.904
G01 F600 X31.945 Y59.928
G01 F600 X32.050 Y59.975
G01 F600 X32.139 Y60.039
G01 F600 X33.702 Y61.602
G01 F600 X33.749 Y61.655
G01 F600 X33.760 Y61.653
G01 F600 X33.993 Y61.653
G01 F600 X34.220 Y61.701
G01 F600 X34.433 Y61.796
G01 F600 X34.621 Y61.933
G01 F600 X34.777 Y62.106
G01 F600 X34.894 Y62.308
G01 F600 X34.966 Y62.529
G01 F600 X34.990 Y62.761
G01 F600 X34.966 Y62.992
G01 F600 X34.894 Y63.214
G01 F600 X34.777 Y63.415
G01 F600 X34.621 Y63.588
G01 F600 X34.433 Y63.725
G01 F600 X34.220 Y63.820
G01 F600 X33.993 Y63.868
G01 F600 X33.760 Y63.868
G00 F3000 Z3.000
G00 F3000 X27.257 Y59.347
G00 F1500 Z0
G01 F600 Z-0.110
G01 F600 X27.030 Y59.299
G01 F600 X26.817 Y59.204
G01 F600 X26.629 Y59.067
G01 F600 X26.473 Y58.894
G01 F600 X26.356 Y58.692
G01 F600 X26.284 Y58.471
G01 F600 X26.260 Y58.239
G01 F600 X26.284 Y58.008
G01 F600 X26.356 Y57.786
G01 F600 X26.473 Y57.585
G01 F600 X26.629 Y57.412
G01 F600 X26.817 Y57.275
G01 F600 X27.030 Y57.180
G01 F600 X27.257 Y57.132
G01 F600 X27.490 Y57.132
G01 F600 X27.718 Y57.180
G01 F600 X27.931 Y57.275
G01 F600 X28.119 Y57.412
G01 F600 X28.275 Y57.585
G01 F600 X28.391 Y57.786
G01 F600 X28.463 Y58.008
G01 F600 X28.488 Y58.239
G01 F600 X28.463 Y58.471
G01 F600 X28.391 Y58.692
G01 F600 X28.275 Y58.894
G01 F600 X28.119 Y59.067
G01 F600 X27.931 Y59.204
G01 F600 X27.718 Y59.299
G01 F600 X27.490 Y59.347
G01 F600 X27.257 Y59.347
G00 F3000 Z3.000
G00 F3000 X33.760 Y59.347
G00 F1500 Z0
G01 F600 Z-0.110
G01 F600 X33.532 Y59.299
G01 F600 X33.319 Y59.204
G01 F600 X33.131 Y59.067
G01 F600 X32.975 Y58.894
G01 F600 X32.859 Y58.692
G01 F600 X32.787 Y58.471
G01 F600 X32.762 Y58.239
G01 F600 X32.787 Y58.008
G01 F600 X32.859 Y57.786
G01 F600 X32.975 Y57.585
G01 F600 X33.131 Y57.412
G01 F600 X33.319 Y57.275
G01 F600 X33.532 Y57.180
G01 F600 X33.760 Y57.132
G01 F600 X33.993 Y57.132
G01 F600 X34.220 Y57.180
G01 F600 X34.433 Y57.275
G01 F600 X34.621 Y57.412
G01 F600 X34.772 Y57.579
G01 F600 X36.197 Y57.579
G01 F600 X40.527 Y53.249
G01 F600 X40.527 Y52.538
G01 F600 X40.520 Y52.471
G01 F600 X40.520 Y50.929
G01 F600 X40.540 Y50.743
G01 F600 X40.600 Y50.557
G01 F600 X40.698 Y50.388
G01 F600 X40.829 Y50.242
G01 F600 X40.987 Y50.127
G01 F600 X41.166 Y50.048
G01 F600 X41.357 Y50.007
G01 F600 X41.553 Y50.007
G01 F600 X41.744 Y50.048
G01 F600 X41.923 Y50.127
G01 F600 X42.081 Y50.242
G01 F600 X42.212 Y50.388
G01 F600 X42.310 Y50.557
G01 F600 X42.370 Y50.743
G01 F600 X42.390 Y50.929
G01 F600 X42.390 Y52.471
G01 F600 X42.370 Y52.657
G01 F600 X42.310 Y52.843
G01 F600 X42.212 Y53.012
G01 F600 X42.081 Y53.158
G01 F600 X41.923 Y53.273
G01 F600 X41.744 Y53.352
G01 F600 X41.623 Y53.378
G01 F600 X41.623 Y53.484
G01 F600 X41.612 Y53.589
G01 F600 X41.577 Y53.698
G01 F600 X41.519 Y53.798
G01 F600 X41.452 Y53.873
G01 F600 X36.789 Y58.536
G01 F600 X36.700 Y58.600
G01 F600 X36.595 Y58.647
G01 F600 X36.482 Y58.671
G01 F600 X34.901 Y58.671
G01 F600 X34.894 Y58.692
G01 F600 X34.777 Y58.894
G01 F600 X34.621 Y59.067
G01 F600 X34.433 Y59.204
G01 F600 X34.220 Y59.299
G01 F600 X33.993 Y59.347
G01 F600 X33.760 Y59.347
G00 F3000 Z3.000
G00 F3000 X39.357 Y59.347
G00 F1500 Z0
G01 F600 Z-0.110
G01 F600 X39.130 Y59.299
G01 F600 X38.917 Y59.204
G01 F600 X38.729 Y59.067
G01 F600 X38.573 Y58.894
G01 F600 X38.456 Y58.692
G01 F600 X38.384 Y58.471
G01 F600 X38.360 Y58.239
G01 F600 X38.384 Y58.008
G01 F600 X38.456 Y57.786
G01 F600 X38.573 Y57.585
G01 F600 X38.729 Y57.412
G01 F600 X38.917 Y57.275
G01 F600 X39.130 Y57.180
G01 F600 X39.357 Y57.132
G01 F600 X39.590 Y57.132
G01 F600 X39.818 Y57.180
G01 F600 X40.031 Y57.275
G01 F600 X40.219 Y57.412
G01 F600 X40.375 Y57.585
G01 F600 X40.491 Y57.786
G01 F600 X40.563 Y58.008
G01 F600 X40.588 Y58.239
G01 F600 X40.563 Y58.471
G01 F600 X40.491 Y58.692
G01 F600 X40.375 Y58.894
G01 F600 X40.219 Y59.067
G01 F600 X40.031 Y59.204
G01 F600 X39.818 Y59.299
G01 F600 X39.590 Y59.347
G01 F600 X39.357 Y59.347
G00 F3000 Z3.000
G00 F3000 X45.860 Y59.347
G00 F1500 Z0
G01 F600 Z-0.110
G01 F600 X45.632 Y59.299
G01 F600 X45.419 Y59.204
G01 F600 X45.231 Y59.067
G01 F600 X45.075 Y58.894
G01 F600 X44.959 Y58.692
G01 F600 X44.887 Y58.471
G01 F600 X44.862 Y58.239
G01 F600 X44.882 Y58.056
G01 F600 X43.799 Y56.973
G01 F600 X43.731 Y56.898
G01 F600 X43.674 Y56.798
G01 F600 X43.638 Y56.689
G01 F600 X43.627 Y56.584
G01 F600 X43.627 Y53.317
G01 F600 X43.527 Y53.273
G01 F600 X43.369 Y53.158
G01 F600 X43.238 Y53.012
G01 F600 X43.140 Y52.843
G01 F600 X43.080 Y52.657
G01 F600 X43.060 Y52.471
G01 F600 X43.060 Y50.929
G01 F600 X43.080 Y50.743
G01 F600 X43.140 Y50.557
G01 F600 X43.238 Y50.388
G01 F600 X43.369 Y50.242
G01 F600 X43.527 Y50.127
G01 F600 X43.706 Y50.048
G01 F600 X43.897 Y50.007
G01 F600 X44.093 Y50.007
G01 F600 X44.284 Y50.048
G01 F600 X44.463 Y50.127
G01 F600 X44.621 Y50.242
G01 F600 X44.752 Y50.388
G01 F600 X44.850 Y50.557
G01 F600 X44.910 Y50.743
G01 F600 X44.930 Y50.929
G01 F600 X44.930 Y52.471
G01 F600 X44.910 Y52.657
G01 F600 X44.850 Y52.843
G01 F600 X44.752 Y53.012
G01 F600 X44.723 Y53.045
G01 F600 X44.723 Y56.349
G01 F600 X45.578 Y57.204
G01 F600 X45.632 Y57.180
G01 F600 X45.860 Y57.132
G01 F600 X46.093 Y57.132
G01 F600 X46.320 Y57.180
G01 F600 X46.533 Y57.275
G01 F600 X46.721 Y57.412
G01 F600 X46.877 Y57.585
G01 F600 X46.994 Y57.786
G01 F600 X47.066 Y58.008
G01 F600 X47.090 Y58.239
G01 F600 X47.066 Y58.471
G01 F600 X46.994 Y58.692
G01 F600 X46.877 Y58.894
G01 F600 X46.721 Y59.067
G01 F600 X46.533 Y59.204
G01 F600 X46.320 Y59.299
G01 F600 X46.093 Y59.347
G01 F600 X45.860 Y59.347
G00 F3000 Z3.000
G00 F3000 X21.230 Y57.993
G00 F1500 Z0
G01 F600 Z-0.110
G01 F600 X20.562 Y57.820
G01 F600 X20.212 Y57.226
G01 F600 X20.385 Y56.557
G01 F600 X20.980 Y56.207
G01 F600 X21.648 Y56.380
G01 F600 X21.998 Y56.975
G01 F600 X21.825 Y57.643
G01 F600 X21.230 Y57.993
G00 F3000 Z3.000
G00 F3000 X38.817 Y53.393
G00 F1500 Z0
G01 F600 Z-0.110
G01 F600 X38.626 Y53.352
G01 F600 X38.447 Y53.273
G01 F600 X38.289 Y53.158
G01 F600 X38.158 Y53.012
G01 F600 X38.060 Y52.843
G01 F600 X38.000 Y52.657
G01 F600 X37.980 Y52.471
G01 F600 X37.980 Y52.471
G01 F600 X11.286 Y52.471
G01 F600 X11.145 Y53.013
G01 F600 X10.551 Y53.363
G01 F600 X9.882 Y53.190
G01 F600 X9.532 Y52.596
G01 F600 X9.704 Y51.928
G01 F600 X10.115 Y51.681
G01 F600 X10.198 Y51.621
G01 F600 X10.315 Y51.569
G01 F600 X10.435 Y51.543
G01 F600 X10.579 Y51.448
G01 F600 X10.680 Y51.403
G01 F600 X10.793 Y51.379
G01 F600 X37.980 Y51.379
G01 F600 X37.980 Y50.929
G01 F600 X38.000 Y50.743
G01 F600 X38.060 Y50.557
G01 F600 X38.158 Y50.388
G01 F600 X38.289 Y50.242
G01 F600 X38.447 Y50.127
G01 F600 X38.626 Y50.048
G01 F600 X38.817 Y50.007
G01 F600 X39.013 Y50.007
G01 F600 X39.204 Y50.048
G01 F600 X39.383 Y50.127
G01 F600 X39.541 Y50.242
G01 F600 X39.672 Y50.388
G01 F600 X39.770 Y50.557
G01 F600 X39.831 Y50.743
G01 F600 X39.850 Y50.929
G01 F600 X39.850 Y52.471
G01 F600 X39.831 Y52.657
G01 F600 X39.770 Y52.843
G01 F600 X39.672 Y53.012
G01 F600 X39.541 Y53.158
G01 F600 X39.383 Y53.273
G01 F600 X39.204 Y53.352
G01 F600 X39.013 Y53.393
G01 F600 X38.817 Y53.393
G00 F3000 Z3.000
G00 F3000 X10.551 Y50.823
G00 F1500 Z0
G01 F600 Z-0.110
G01 F600 X9.882 Y50.650
G01 F600 X9.532 Y50.056
G01 F600 X9.586 Y49.845
G01 F600 X9.574 Y49.823
G01 F600 X9.538 Y49.714
G01 F600 X9.527 Y49.609
G01 F600 X9.527 Y47.501
G01 F600 X5.049 Y43.023
G01 F600 X4.981 Y42.948
G01 F600 X4.924 Y42.848
G01 F600 X4.888 Y42.739
G01 F600 X4.877 Y42.634
G01 F600 X4.877 Y22.466
G01 F600 X4.888 Y22.361
G01 F600 X4.924 Y22.252
G01 F600 X4.981 Y22.152
G01 F600 X5.049 Y22.077
G01 F600 X11.741 Y15.385
G01 F600 X11.648 Y15.282
G01 F600 X11.550 Y15.113
G01 F600 X11.490 Y14.927
G01 F600 X11.470 Y14.741
G01 F600 X11.470 Y13.199
G01 F600 X11.490 Y13.013
G01 F600 X11.550 Y12.827
G01 F600 X11.648 Y12.658
G01 F600 X11.779 Y12.512
G01 F600 X11.852 Y12.459
G01 F600 X11.852 Y10.066
G01 F600 X11.863 Y9.961
G01 F600 X11.899 Y9.852
G01 F600 X11.956 Y9.752
G01 F600 X12.024 Y9.677
G01 F600 X12.627 Y9.074
G01 F600 X12.627 Y7.741
G01 F600 X12.638 Y7.636
G01 F600 X12.674 Y7.527
G01 F600 X12.731 Y7.427
G01 F600 X12.740 Y7.417
G01 F600 X12.740 Y6.849
G01 F600 X12.760 Y6.663
G01 F600 X12.820 Y6.477
G01 F600 X12.918 Y6.308
G01 F600 X13.049 Y6.163
G01 F600 X13.207 Y6.047
G01 F600 X13.386 Y5.968
G01 F600 X13.577 Y5.927
G01 F600 X13.773 Y5.927
G01 F600 X13.964 Y5.968
G01 F600 X14.116 Y6.035
G01 F600 X15.136 Y5.014
G01 F600 X15.226 Y4.950
G01 F600 X15.330 Y4.903
G01 F600 X15.443 Y4.879
G01 F600 X31.832 Y4.879
G01 F600 X31.945 Y4.903
G01 F600 X32.050 Y4.950
G01 F600 X32.139 Y5.014
G01 F600 X35.878 Y8.754
G01 F600 X44.722 Y8.754
G01 F600 X45.892 Y7.583
G01 F600 X45.840 Y7.493
G01 F600 X45.779 Y7.307
G01 F600 X45.760 Y7.121
G01 F600 X45.760 Y5.579
G01 F600 X45.779 Y5.393
G01 F600 X45.840 Y5.207
G01 F600 X45.938 Y5.038
G01 F600 X46.069 Y4.893
G01 F600 X46.227 Y4.777
G01 F600 X46.406 Y4.698
G01 F600 X46.597 Y4.657
G01 F600 X46.793 Y4.657
G01 F600 X46.984 Y4.698
G01 F600 X47.163 Y4.777
G01 F600 X47.321 Y4.893
G01 F600 X47.452 Y5.038
G01 F600 X47.550 Y5.207
G01 F600 X47.611 Y5.393
G01 F600 X47.630 Y5.579
G01 F600 X47.630 Y7.121
G01 F600 X47.611 Y7.307
G01 F600 X47.550 Y7.493
G01 F600 X47.452 Y7.662
G01 F600 X47.321 Y7.808
G01 F600 X47.163 Y7.923
G01 F600 X46.985 Y8.002
G01 F600 X46.944 Y8.073
G01 F600 X46.877 Y8.148
G01 F600 X45.314 Y9.711
G01 F600 X45.224 Y9.775
G01 F600 X45.120 Y9.822
G01 F600 X45.007 Y9.846
G01 F600 X35.593 Y9.846
G01 F600 X35.480 Y9.822
G01 F600 X35.376 Y9.775
G01 F600 X35.285 Y9.710
G01 F600 X31.663 Y5.971
G01 F600 X15.728 Y5.971
G01 F600 X14.610 Y7.089
G01 F600 X14.610 Y8.391
G01 F600 X14.591 Y8.577
G01 F600 X14.530 Y8.763
G01 F600 X14.432 Y8.932
G01 F600 X14.301 Y9.078
G01 F600 X14.143 Y9.193
G01 F600 X13.964 Y9.272
G01 F600 X13.773 Y9.313
G01 F600 X13.723 Y9.313
G01 F600 X13.712 Y9.414
G01 F600 X13.677 Y9.523
G01 F600 X13.619 Y9.623
G01 F600 X13.552 Y9.698
G01 F600 X12.948 Y10.301
G01 F600 X12.959 Y12.460
G01 F600 X13.031 Y12.513
G01 F600 X13.162 Y12.658
G01 F600 X13.260 Y12.827
G01 F600 X13.321 Y13.013
G01 F600 X13.340 Y13.199
G01 F600 X13.340 Y14.741
G01 F600 X13.321 Y14.927
G01 F600 X13.260 Y15.113
G01 F600 X13.162 Y15.282
G01 F600 X13.030 Y15.429
G01 F600 X12.948 Y15.487
G01 F600 X12.948 Y15.509
G01 F600 X12.937 Y15.614
G01 F600 X12.902 Y15.723
G01 F600 X12.844 Y15.823
G01 F600 X12.777 Y15.898
G01 F600 X5.973 Y22.701
G01 F600 X5.973 Y42.399
G01 F600 X10.452 Y46.877
G01 F600 X10.519 Y46.952
G01 F600 X10.577 Y47.052
G01 F600 X10.612 Y47.161
G01 F600 X10.623 Y47.266
G01 F600 X10.623 Y49.104
G01 F600 X10.680 Y49.078
G01 F600 X10.793 Y49.054
G01 F600 X19.922 Y49.054
G01 F600 X22.702 Y46.274
G01 F600 X22.702 Y45.716
G01 F600 X22.713 Y45.611
G01 F600 X22.748 Y45.502
G01 F600 X22.806 Y45.402
G01 F600 X22.883 Y45.317
G01 F600 X22.976 Y45.250
G01 F600 X23.080 Y45.203
G01 F600 X23.178 Y45.182
G01 F600 X23.217 Y45.175
G01 F600 X23.281 Y45.105
G01 F600 X23.421 Y45.003
G01 F600 X23.579 Y44.933
G01 F600 X23.748 Y44.897
G01 F600 X23.922 Y44.897
G01 F600 X24.091 Y44.933
G01 F600 X24.249 Y45.003
G01 F600 X24.389 Y45.105
G01 F600 X24.505 Y45.233
G01 F600 X24.591 Y45.383
G01 F600 X24.645 Y45.548
G01 F600 X24.663 Y45.720
G01 F600 X24.645 Y45.892
G01 F600 X24.591 Y46.057
G01 F600 X24.505 Y46.207
G01 F600 X24.389 Y46.335
G01 F600 X24.249 Y46.437
G01 F600 X24.091 Y46.507
G01 F600 X23.922 Y46.543
G01 F600 X23.794 Y46.543
G01 F600 X23.787 Y46.614
G01 F600 X23.752 Y46.723
G01 F600 X23.694 Y46.823
G01 F600 X23.627 Y46.898
G01 F600 X20.514 Y50.011
G01 F600 X20.425 Y50.075
G01 F600 X20.320 Y50.122
G01 F600 X20.207 Y50.146
G01 F600 X11.230 Y50.146
G01 F600 X11.145 Y50.473
G01 F600 X10.551 Y50.823
G00 F3000 Z3.000
G00 F3000 X31.369 Y46.543
G00 F1500 Z0
G01 F600 Z-0.110
G01 F600 X31.199 Y46.507
G01 F600 X31.041 Y46.437
G01 F600 X30.901 Y46.335
G01 F600 X30.785 Y46.207
G01 F600 X30.699 Y46.057
G01 F600 X30.645 Y45.892
G01 F600 X30.627 Y45.720
G01 F600 X30.645 Y45.548
G01 F600 X30.699 Y45.383
G01 F600 X30.785 Y45.233
G01 F600 X30.901 Y45.105
G01 F600 X31.041 Y45.003
G01 F600 X31.199 Y44.933
G01 F600 X31.369 Y44.897
G01 F600 X31.542 Y44.897
G01 F600 X31.711 Y44.933
G01 F600 X31.869 Y45.003
G01 F600 X32.009 Y45.105
G01 F600 X32.125 Y45.233
G01 F600 X32.211 Y45.383
G01 F600 X32.265 Y45.548
G01 F600 X32.283 Y45.720
G01 F600 X32.265 Y45.892
G01 F600 X32.211 Y46.057
G01 F600 X32.125 Y46.207
G01 F600 X32.009 Y46.335
G01 F600 X31.869 Y46.437
G01 F600 X31.711 Y46.507
G01 F600 X31.542 Y46.543
G01 F600 X31.369 Y46.543
G00 F3000 Z3.000
G00 F3000 X28.829 Y46.543
G00 F1500 Z0
G01 F600 Z-0.110
G01 F600 X28.659 Y46.507
G01 F600 X28.501 Y46.437
G01 F600 X28.361 Y46.335
G01 F600 X28.245 Y46.207
G01 F600 X28.159 Y46.057
G01 F600 X28.105 Y45.892
G01 F600 X28.087 Y45.720
G01 F600 X28.105 Y45.548
G01 F600 X28.159 Y45.383
G01 F600 X28.245 Y45.233
G01 F600 X28.361 Y45.105
G01 F600 X28.501 Y45.003
G01 F600 X28.659 Y44.933
G01 F600 X28.829 Y44.897
G01 F600 X29.002 Y44.897
G01 F600 X29.171 Y44.933
G01 F600 X29.329 Y45.003
G01 F600 X29.469 Y45.105
G01 F600 X29.585 Y45.233
G01 F600 X29.671 Y45.383
G01 F600 X29.725 Y45.548
G01 F600 X29.743 Y45.720
G01 F600 X29.725 Y45.892
G01 F600 X29.671 Y46.057
G01 F600 X29.585 Y46.207
G01 F600 X29.469 Y46.335
G01 F600 X29.329 Y46.437
G01 F600 X29.171 Y46.507
G01 F600 X29.002 Y46.543
G01 F600 X28.829 Y46.543
G00 F3000 Z3.000
G00 F3000 X36.449 Y46.543
G00 F1500 Z0
G01 F600 Z-0.110
G01 F600 X36.279 Y46.507
G01 F600 X36.121 Y46.437
G01 F600 X35.981 Y46.335
G01 F600 X35.865 Y46.207
G01 F600 X35.779 Y46.057
G01 F600 X35.725 Y45.892
G01 F600 X35.707 Y45.720
G01 F600 X35.725 Y45.548
G01 F600 X35.779 Y45.383
G01 F600 X35.865 Y45.233
G01 F600 X35.981 Y45.105
G01 F600 X36.121 Y45.003
G01 F600 X36.279 Y44.933
G01 F600 X36.449 Y44.897
G01 F600 X36.622 Y44.897
G01 F600 X36.791 Y44.933
G01 F600 X36.949 Y45.003
G01 F600 X37.089 Y45.105
G01 F600 X37.205 Y45.233
G01 F600 X37.291 Y45.383
G01 F600 X37.345 Y45.548
G01 F600 X37.363 Y45.720
G01 F600 X37.345 Y45.892
G01 F600 X37.291 Y46.057
G01 F600 X37.205 Y46.207
G01 F600 X37.089 Y46.335
G01 F600 X36.949 Y46.437
G01 F600 X36.791 Y46.507
G01 F600 X36.622 Y46.543
G01 F600 X36.449 Y46.543
G00 F3000 Z3.000
G00 F3000 X33.909 Y46.543
G00 F1500 Z0
G01 F600 Z-0.110
G01 F600 X33.739 Y46.507
G01 F600 X33.581 Y46.437
G01 F600 X33.441 Y46.335
G01 F600 X33.325 Y46.207
G01 F600 X33.239 Y46.057
G01 F600 X33.185 Y45.892
G01 F600 X33.167 Y45.720
G01 F600 X33.182 Y45.581
G01 F600 X21.472 Y33.871
G01 F600 X13.118 Y33.871
G01 F600 X13.005 Y33.847
G01 F600 X12.901 Y33.800
G01 F600 X12.811 Y33.736
G01 F600 X8.149 Y29.073
G01 F600 X8.081 Y28.998
G01 F600 X8.024 Y28.898
G01 F600 X7.988 Y28.789
G01 F600 X7.977 Y28.684
G01 F600 X7.977 Y21.691
G01 F600 X7.988 Y21.586
G01 F600 X8.024 Y21.477
G01 F600 X8.081 Y21.377
G01 F600 X8.149 Y21.302
G01 F600 X14.181 Y15.270
G01 F600 X14.090 Y15.113
G01 F600 X14.030 Y14.927
G01 F600 X14.010 Y14.741
G01 F600 X14.010 Y13.199
G01 F600 X14.030 Y13.013
G01 F600 X14.090 Y12.827
G01 F600 X14.188 Y12.658
G01 F600 X14.319 Y12.513
G01 F600 X14.477 Y12.397
G01 F600 X14.656 Y12.318
G01 F600 X14.847 Y12.277
G01 F600 X15.043 Y12.277
G01 F600 X15.234 Y12.318
G01 F600 X15.413 Y12.397
G01 F600 X15.571 Y12.513
G01 F600 X15.702 Y12.658
G01 F600 X15.800 Y12.827
G01 F600 X15.861 Y13.013
G01 F600 X15.880 Y13.199
G01 F600 X15.880 Y14.317
G01 F600 X15.948 Y14.410
G01 F600 X16.002 Y14.502
G01 F600 X16.037 Y14.611
G01 F600 X16.049 Y14.725
G01 F600 X16.037 Y14.839
G01 F600 X16.002 Y14.948
G01 F600 X15.944 Y15.048
G01 F600 X15.877 Y15.123
G01 F600 X9.073 Y21.926
G01 F600 X9.073 Y28.449
G01 F600 X13.403 Y32.779
G01 F600 X21.757 Y32.779
G01 F600 X21.870 Y32.803
G01 F600 X21.975 Y32.850
G01 F600 X22.064 Y32.914
G01 F600 X34.046 Y44.897
G01 F600 X34.081 Y44.897
G01 F600 X34.251 Y44.933
G01 F600 X34.409 Y45.003
G01 F600 X34.549 Y45.105
G01 F600 X34.665 Y45.233
G01 F600 X34.751 Y45.383
G01 F600 X34.805 Y45.548
G01 F600 X34.823 Y45.720
G01 F600 X34.805 Y45.892
G01 F600 X34.751 Y46.057
G01 F600 X34.665 Y46.207
G01 F600 X34.549 Y46.335
G01 F600 X34.409 Y46.437
G01 F600 X34.251 Y46.507
G01 F600 X34.081 Y46.543
G01 F600 X33.909 Y46.543
G00 F3000 Z3.000
G00 F3000 X21.209 Y46.543
G00 F1500 Z0
G01 F600 Z-0.110
G01 F600 X21.039 Y46.507
G01 F600 X20.881 Y46.437
G01 F600 X20.741 Y46.335
G01 F600 X20.625 Y46.207
G01 F600 X20.539 Y46.057
G01 F600 X20.485 Y45.892
G01 F600 X20.467 Y45.720
G01 F600 X20.485 Y45.548
G01 F600 X20.539 Y45.383
G01 F600 X20.625 Y45.233
G01 F600 X20.741 Y45.105
G01 F600 X20.881 Y45.003
G01 F600 X21.039 Y44.933
G01 F600 X21.209 Y44.897
G01 F600 X21.382 Y44.897
G01 F600 X21.551 Y44.933
G01 F600 X21.709 Y45.003
G01 F600 X21.849 Y45.105
G01 F600 X21.965 Y45.233
G01 F600 X22.051 Y45.383
G01 F600 X22.105 Y45.548
G01 F600 X22.123 Y45.720
G01 F600 X22.105 Y45.892
G01 F600 X22.051 Y46.057
G01 F600 X21.965 Y46.207
G01 F600 X21.849 Y46.335
G01 F600 X21.709 Y46.437
G01 F600 X21.551 Y46.507
G01 F600 X21.382 Y46.543
G01 F600 X21.209 Y46.543
G00 F3000 Z3.000
G00 F3000 X18.669 Y46.543
G00 F1500 Z0
G01 F600 Z-0.110
G01 F600 X18.499 Y46.507
G01 F600 X18.341 Y46.437
G01 F600 X18.201 Y46.335
G01 F600 X18.085 Y46.207
G01 F600 X17.999 Y46.057
G01 F600 X17.945 Y45.892
G01 F600 X17.927 Y45.720
G01 F600 X17.945 Y45.548
G01 F600 X17.999 Y45.383
G01 F600 X18.052 Y45.291
G01 F600 X18.052 Y45.176
G01 F600 X12.947 Y40.071
G01 F600 X9.976 Y40.071
G01 F600 X9.825 Y40.181
G01 F600 X9.646 Y40.260
G01 F600 X9.455 Y40.301
G01 F600 X7.735 Y40.301
G01 F600 X7.544 Y40.260
G01 F600 X7.365 Y40.181
G01 F600 X7.207 Y40.066
G01 F600 X7.076 Y39.920
G01 F600 X6.978 Y39.751
G01 F600 X6.918 Y39.565
G01 F600 X6.897 Y39.370
G01 F600 X6.918 Y39.175
G01 F600 X6.978 Y38.989
G01 F600 X7.076 Y38.820
G01 F600 X7.207 Y38.675
G01 F600 X7.365 Y38.559
G01 F600 X7.544 Y38.480
G01 F600 X7.735 Y38.439
G01 F600 X9.455 Y38.439
G01 F600 X9.646 Y38.480
G01 F600 X9.825 Y38.559
G01 F600 X9.983 Y38.675
G01 F600 X10.114 Y38.820
G01 F600 X10.206 Y38.979
G01 F600 X13.232 Y38.979
G01 F600 X13.345 Y39.003
G01 F600 X13.450 Y39.050
G01 F600 X13.539 Y39.114
G01 F600 X18.977 Y44.552
G01 F600 X19.044 Y44.627
G01 F600 X19.102 Y44.727
G01 F600 X19.137 Y44.836
G01 F600 X19.148 Y44.941
G01 F600 X19.148 Y44.994
G01 F600 X19.169 Y45.003
G01 F600 X19.309 Y45.105
G01 F600 X19.425 Y45.233
G01 F600 X19.511 Y45.383
G01 F600 X19.565 Y45.548
G01 F600 X19.583 Y45.720
G01 F600 X19.565 Y45.892
G01 F600 X19.511 Y46.057
G01 F600 X19.425 Y46.207
G01 F600 X19.309 Y46.335
G01 F600 X19.169 Y46.437
G01 F600 X19.011 Y46.507
G01 F600 X18.841 Y46.543
G01 F600 X18.669 Y46.543
G00 F3000 Z3.000
G00 F3000 X26.289 Y46.543
G00 F1500 Z0
G01 F600 Z-0.110
G01 F600 X26.119 Y46.507
G01 F600 X25.961 Y46.437
G01 F600 X25.821 Y46.335
G01 F600 X25.705 Y46.207
G01 F600 X25.619 Y46.057
G01 F600 X25.565 Y45.892
G01 F600 X25.547 Y45.720
G01 F600 X25.565 Y45.548
G01 F600 X25.619 Y45.383
G01 F600 X25.705 Y45.233
G01 F600 X25.821 Y45.105
G01 F600 X25.961 Y45.003
G01 F600 X26.119 Y44.933
G01 F600 X26.289 Y44.897
G01 F600 X26.462 Y44.897
G01 F600 X26.631 Y44.933
G01 F600 X26.789 Y45.003
G01 F600 X26.929 Y45.105
G01 F600 X27.045 Y45.233
G01 F600 X27.131 Y45.383
G01 F600 X27.185 Y45.548
G01 F600 X27.203 Y45.720
G01 F600 X27.185 Y45.892
G01 F600 X27.131 Y46.057
G01 F600 X27.045 Y46.207
G01 F600 X26.929 Y46.335
G01 F600 X26.789 Y46.437
G01 F600 X26.631 Y46.507
G01 F600 X26.462 Y46.543
G01 F600 X26.289 Y46.543
G00 F3000 Z3.000
G00 F3000 X51.689 Y46.543
G00 F1500 Z0
G01 F600 Z-0.110
G01 F600 X51.519 Y46.507
G01 F600 X51.361 Y46.437
G01 F600 X51.221 Y46.335
G01 F600 X51.105 Y46.207
G01 F600 X51.019 Y46.057
G01 F600 X50.965 Y45.892
G01 F600 X50.947 Y45.720
G01 F600 X50.965 Y45.548
G01 F600 X51.019 Y45.383
G01 F600 X51.105 Y45.233
G01 F600 X51.221 Y45.105
G01 F600 X51.361 Y45.003
G01 F600 X51.519 Y44.933
G01 F600 X51.689 Y44.897
G01 F600 X51.861 Y44.897
G01 F600 X52.031 Y44.933
G01 F600 X52.189 Y45.003
G01 F600 X52.329 Y45.105
G01 F600 X52.445 Y45.233
G01 F600 X52.531 Y45.383
G01 F600 X52.585 Y45.548
G01 F600 X52.603 Y45.720
G01 F600 X52.585 Y45.892
G01 F600 X52.531 Y46.057
G01 F600 X52.445 Y46.207
G01 F600 X52.329 Y46.335
G01 F600 X52.189 Y46.437
G01 F600 X52.031 Y46.507
G01 F600 X51.861 Y46.543
G01 F600 X51.689 Y46.543
G00 F3000 Z3.000
G00 F3000 X49.149 Y46.543
G00 F1500 Z0
G01 F600 Z-0.110
G01 F600 X48.979 Y46.507
G01 F600 X48.821 Y46.437
G01 F600 X48.681 Y46.335
G01 F600 X48.565 Y46.207
G01 F600 X48.479 Y46.057
G01 F600 X48.425 Y45.892
G01 F600 X48.407 Y45.720
G01 F600 X48.425 Y45.548
G01 F600 X48.479 Y45.383
G01 F600 X48.565 Y45.233
G01 F600 X48.681 Y45.105
G01 F600 X48.821 Y45.003
G01 F600 X48.979 Y44.933
G01 F600 X49.149 Y44.897
G01 F600 X49.322 Y44.897
G01 F600 X49.491 Y44.933
G01 F600 X49.649 Y45.003
G01 F600 X49.789 Y45.105
G01 F600 X49.905 Y45.233
G01 F600 X49.991 Y45.383
G01 F600 X50.045 Y45.548
G01 F600 X50.063 Y45.720
G01 F600 X50.045 Y45.892
G01 F600 X49.991 Y46.057
G01 F600 X49.905 Y46.207
G01 F600 X49.789 Y46.335
G01 F600 X49.649 Y46.437
G01 F600 X49.491 Y46.507
G01 F600 X49.322 Y46.543
G01 F600 X49.149 Y46.543
G00 F3000 Z3.000
G00 F3000 X41.529 Y46.543
G00 F1500 Z0
G01 F600 Z-0.110
G01 F600 X41.359 Y46.507
G01 F600 X41.201 Y46.437
G01 F600 X41.061 Y46.335
G01 F600 X40.945 Y46.207
G01 F600 X40.859 Y46.057
G01 F600 X40.805 Y45.892
G01 F600 X40.787 Y45.720
G01 F600 X40.805 Y45.548
G01 F600 X40.859 Y45.383
G01 F600 X40.945 Y45.233
G01 F600 X41.061 Y45.105
G01 F600 X41.201 Y45.003
G01 F600 X41.359 Y44.933
G01 F600 X41.529 Y44.897
G01 F600 X41.702 Y44.897
G01 F600 X41.871 Y44.933
G01 F600 X42.029 Y45.003
G01 F600 X42.169 Y45.105
G01 F600 X42.285 Y45.233
G01 F600 X42.371 Y45.383
G01 F600 X42.425 Y45.548
G01 F600 X42.443 Y45.720
G01 F600 X42.425 Y45.892
G01 F600 X42.371 Y46.057
G01 F600 X42.285 Y46.207
G01 F600 X42.169 Y46.335
G01 F600 X42.029 Y46.437
G01 F600 X41.871 Y46.507
G01 F600 X41.702 Y46.543
G01 F600 X41.529 Y46.543
G00 F3000 Z3.000
G00 F3000 X38.989 Y46.543
G00 F1500 Z0
G01 F600 Z-0.110
G01 F600 X38.819 Y46.507
G01 F600 X38.661 Y46.437
G01 F600 X38.521 Y46.335
G01 F600 X38.405 Y46.207
G01 F600 X38.319 Y46.057
G01 F600 X38.265 Y45.892
G01 F600 X38.247 Y45.720
G01 F600 X38.265 Y45.548
G01 F600 X38.319 Y45.383
G01 F600 X38.405 Y45.233
G01 F600 X38.521 Y45.105
G01 F600 X38.661 Y45.003
G01 F600 X38.819 Y44.933
G01 F600 X38.989 Y44.897
G01 F600 X39.162 Y44.897
G01 F600 X39.331 Y44.933
G01 F600 X39.489 Y45.003
G01 F600 X39.629 Y45.105
G01 F600 X39.745 Y45.233
G01 F600 X39.831 Y45.383
G01 F600 X39.885 Y45.548
G01 F600 X39.903 Y45.720
G01 F600 X39.885 Y45.892
G01 F600 X39.831 Y46.057
G01 F600 X39.745 Y46.207
G01 F600 X39.629 Y46.335
G01 F600 X39.489 Y46.437
G01 F600 X39.331 Y46.507
G01 F600 X39.162 Y46.543
G01 F600 X38.989 Y46.543
G00 F3000 Z3.000
G00 F3000 X46.608 Y46.543
G00 F1500 Z0
G01 F600 Z-0.110
G01 F600 X46.439 Y46.507
G01 F600 X46.281 Y46.437
G01 F600 X46.141 Y46.335
G01 F600 X46.025 Y46.207
G01 F600 X45.939 Y46.057
G01 F600 X45.885 Y45.892
G01 F600 X45.867 Y45.720
G01 F600 X45.885 Y45.548
G01 F600 X45.939 Y45.383
G01 F600 X46.025 Y45.233
G01 F600 X46.141 Y45.105
G01 F600 X46.281 Y45.003
G01 F600 X46.439 Y44.933
G01 F600 X46.608 Y44.897
G01 F600 X46.782 Y44.897
G01 F600 X46.951 Y44.933
G01 F600 X47.109 Y45.003
G01 F600 X47.249 Y45.105
G01 F600 X47.365 Y45.233
G01 F600 X47.451 Y45.383
G01 F600 X47.505 Y45.548
G01 F600 X47.523 Y45.720
G01 F600 X47.505 Y45.892
G01 F600 X47.451 Y46.057
G01 F600 X47.365 Y46.207
G01 F600 X47.249 Y46.335
G01 F600 X47.109 Y46.437
G01 F600 X46.951 Y46.507
G01 F600 X46.782 Y46.543
G01 F600 X46.608 Y46.543
G00 F3000 Z3.000
G00 F3000 X44.069 Y46.543
G00 F1500 Z0
G01 F600 Z-0.110
G01 F600 X43.899 Y46.507
G01 F600 X43.741 Y46.437
G01 F600 X43.601 Y46.335
G01 F600 X43.485 Y46.207
G01 F600 X43.399 Y46.057
G01 F600 X43.345 Y45.892
G01 F600 X43.327 Y45.720
G01 F600 X43.345 Y45.548
G01 F600 X43.399 Y45.383
G01 F600 X43.485 Y45.233
G01 F600 X43.601 Y45.105
G01 F600 X43.741 Y45.003
G01 F600 X43.899 Y44.933
G01 F600 X44.069 Y44.897
G01 F600 X44.242 Y44.897
G01 F600 X44.411 Y44.933
G01 F600 X44.569 Y45.003
G01 F600 X44.709 Y45.105
G01 F600 X44.825 Y45.233
G01 F600 X44.911 Y45.383
G01 F600 X44.965 Y45.548
G01 F600 X44.983 Y45.720
G01 F600 X44.965 Y45.892
G01 F600 X44.911 Y46.057
G01 F600 X44.825 Y46.207
G01 F600 X44.709 Y46.335
G01 F600 X44.569 Y46.437
G01 F600 X44.411 Y46.507
G01 F600 X44.242 Y46.543
G01 F600 X44.069 Y46.543
G00 F3000 Z3.000
G00 F3000 X16.129 Y46.543
G00 F1500 Z0
G01 F600 Z-0.110
G01 F600 X15.959 Y46.507
G01 F600 X15.801 Y46.437
G01 F600 X15.661 Y46.335
G01 F600 X15.545 Y46.207
G01 F600 X15.459 Y46.057
G01 F600 X15.405 Y45.892
G01 F600 X15.387 Y45.720
G01 F600 X15.405 Y45.548
G01 F600 X15.459 Y45.383
G01 F600 X15.545 Y45.233
G01 F600 X15.658 Y45.108
G01 F600 X13.722 Y43.171
G01 F600 X9.243 Y43.171
G01 F600 X9.130 Y43.147
G01 F600 X9.026 Y43.100
G01 F600 X8.936 Y43.035
G01 F600 X8.744 Y42.841
G01 F600 X7.735 Y42.841
G01 F600 X7.544 Y42.800
G01 F600 X7.365 Y42.721
G01 F600 X7.207 Y42.605
G01 F600 X7.076 Y42.460
G01 F600 X6.978 Y42.291
G01 F600 X6.918 Y42.105
G01 F600 X6.897 Y41.910
G01 F600 X6.918 Y41.715
G01 F600 X6.978 Y41.529
G01 F600 X7.076 Y41.360
G01 F600 X7.207 Y41.215
G01 F600 X7.365 Y41.099
G01 F600 X7.544 Y41.020
G01 F600 X7.735 Y40.979
G01 F600 X9.455 Y40.979
G01 F600 X9.646 Y41.020
G01 F600 X9.825 Y41.099
G01 F600 X9.983 Y41.215
G01 F600 X10.114 Y41.360
G01 F600 X10.212 Y41.529
G01 F600 X10.273 Y41.715
G01 F600 X10.293 Y41.910
G01 F600 X10.275 Y42.079
G01 F600 X14.007 Y42.079
G01 F600 X14.120 Y42.103
G01 F600 X14.225 Y42.150
G01 F600 X14.314 Y42.214
G01 F600 X16.652 Y44.552
G01 F600 X16.719 Y44.627
G01 F600 X16.777 Y44.727
G01 F600 X16.812 Y44.836
G01 F600 X16.823 Y44.940
G01 F600 X16.825 Y45.167
G01 F600 X16.885 Y45.233
G01 F600 X16.971 Y45.383
G01 F600 X17.025 Y45.548
G01 F600 X17.043 Y45.720
G01 F600 X17.025 Y45.892
G01 F600 X16.971 Y46.057
G01 F600 X16.885 Y46.207
G01 F600 X16.769 Y46.335
G01 F600 X16.629 Y46.437
G01 F600 X16.471 Y46.507
G01 F600 X16.302 Y46.543
G01 F600 X16.129 Y46.543
G00 F3000 Z3.000
G00 F3000 X50.948 Y31.307
G00 F1500 Z0
G01 F600 Z-0.110
G01 F600 X50.948 Y29.653
G01 F600 X52.602 Y29.653
G01 F600 X52.602 Y31.307
G01 F600 X50.948 Y31.307
G00 F3000 Z3.000
G00 F3000 X38.989 Y31.303
G00 F1500 Z0
G01 F600 Z-0.110
G01 F600 X38.819 Y31.267
G01 F600 X38.661 Y31.197
G01 F600 X38.521 Y31.095
G01 F600 X38.405 Y30.967
G01 F600 X38.319 Y30.817
G01 F600 X38.265 Y30.652
G01 F600 X38.247 Y30.480
G01 F600 X38.265 Y30.308
G01 F600 X38.319 Y30.143
G01 F600 X38.405 Y29.993
G01 F600 X38.521 Y29.865
G01 F600 X38.661 Y29.763
G01 F600 X38.819 Y29.693
G01 F600 X38.989 Y29.657
G01 F600 X39.162 Y29.657
G01 F600 X39.331 Y29.693
G01 F600 X39.489 Y29.763
G01 F600 X39.629 Y29.865
G01 F600 X39.745 Y29.993
G01 F600 X39.831 Y30.143
G01 F600 X39.885 Y30.308
G01 F600 X39.903 Y30.480
G01 F600 X39.885 Y30.652
G01 F600 X39.831 Y30.817
G01 F600 X39.745 Y30.967
G01 F600 X39.629 Y31.095
G01 F600 X39.489 Y31.197
G01 F600 X39.331 Y31.267
G01 F600 X39.162 Y31.303
G01 F600 X38.989 Y31.303
G00 F3000 Z3.000
G00 F3000 X41.529 Y31.303
G00 F1500 Z0
G01 F600 Z-0.110
G01 F600 X41.359 Y31.267
G01 F600 X41.201 Y31.197
G01 F600 X41.061 Y31.095
G01 F600 X40.945 Y30.967
G01 F600 X40.859 Y30.817
G01 F600 X40.824 Y30.711
G01 F600 X40.799 Y30.699
G01 F600 X40.708 Y30.633
G01 F600 X40.631 Y30.548
G01 F600 X40.574 Y30.448
G01 F600 X40.538 Y30.339
G01 F600 X40.527 Y30.234
G01 F600 X40.527 Y22.701
G01 F600 X39.924 Y22.098
G01 F600 X39.856 Y22.023
G01 F600 X39.799 Y21.923
G01 F600 X39.763 Y21.814
G01 F600 X39.752 Y21.709
G01 F600 X39.752 Y19.366
G01 F600 X39.763 Y19.261
G01 F600 X39.799 Y19.152
G01 F600 X39.856 Y19.052
G01 F600 X39.924 Y18.977
G01 F600 X42.261 Y16.639
G01 F600 X42.351 Y16.575
G01 F600 X42.455 Y16.528
G01 F600 X42.568 Y16.504
G01 F600 X45.782 Y16.504
G01 F600 X45.895 Y16.528
G01 F600 X46.000 Y16.575
G01 F600 X46.089 Y16.639
G01 F600 X48.080 Y18.631
G01 F600 X48.254 Y18.668
G01 F600 X48.433 Y18.747
G01 F600 X48.591 Y18.863
G01 F600 X48.722 Y19.008
G01 F600 X48.820 Y19.177
G01 F600 X48.881 Y19.363
G01 F600 X48.900 Y19.549
G01 F600 X48.900 Y21.091
G01 F600 X48.881 Y21.277
G01 F600 X48.820 Y21.463
G01 F600 X48.722 Y21.632
G01 F600 X48.591 Y21.777
G01 F600 X48.433 Y21.893
G01 F600 X48.254 Y21.972
G01 F600 X48.063 Y22.013
G01 F600 X47.867 Y22.013
G01 F600 X47.676 Y21.972
G01 F600 X47.497 Y21.893
G01 F600 X47.339 Y21.777
G01 F600 X47.208 Y21.632
G01 F600 X47.110 Y21.463
G01 F600 X47.050 Y21.277
G01 F600 X47.030 Y21.091
G01 F600 X47.030 Y19.549
G01 F600 X47.050 Y19.363
G01 F600 X47.102 Y19.201
G01 F600 X45.497 Y17.596
G01 F600 X42.853 Y17.596
G01 F600 X40.848 Y19.601
G01 F600 X40.848 Y21.474
G01 F600 X41.452 Y22.077
G01 F600 X41.519 Y22.152
G01 F600 X41.577 Y22.252
G01 F600 X41.612 Y22.361
G01 F600 X41.623 Y22.466
G01 F600 X41.623 Y29.657
G01 F600 X41.702 Y29.657
G01 F600 X41.871 Y29.693
G01 F600 X42.029 Y29.763
G01 F600 X42.169 Y29.865
G01 F600 X42.285 Y29.993
G01 F600 X42.371 Y30.143
G01 F600 X42.425 Y30.308
G01 F600 X42.443 Y30.480
G01 F600 X42.425 Y30.652
G01 F600 X42.371 Y30.817
G01 F600 X42.285 Y30.967
G01 F600 X42.169 Y31.095
G01 F600 X42.029 Y31.197
G01 F600 X41.871 Y31.267
G01 F600 X41.702 Y31.303
G01 F600 X41.529 Y31.303
G00 F3000 Z3.000
G00 F3000 X33.909 Y31.303
G00 F1500 Z0
G01 F600 Z-0.110
G01 F600 X33.739 Y31.267
G01 F600 X33.581 Y31.197
G01 F600 X33.441 Y31.095
G01 F600 X33.325 Y30.967
G01 F600 X33.239 Y30.817
G01 F600 X33.185 Y30.652
G01 F600 X33.167 Y30.480
G01 F600 X33.185 Y30.308
G01 F600 X33.239 Y30.143
G01 F600 X33.325 Y29.993
G01 F600 X33.441 Y29.865
G01 F600 X33.552 Y29.784
G01 F600 X33.552 Y28.126
G01 F600 X27.409 Y21.983
G01 F600 X27.356 Y21.972
G01 F600 X27.177 Y21.893
G01 F600 X27.019 Y21.777
G01 F600 X26.888 Y21.632
G01 F600 X26.789 Y21.462
G01 F600 X26.745 Y21.320
G01 F600 X26.681 Y21.248
G01 F600 X26.623 Y21.148
G01 F600 X26.588 Y21.039
G01 F600 X26.576 Y20.925
G01 F600 X26.588 Y20.811
G01 F600 X26.623 Y20.702
G01 F600 X26.680 Y20.604
G01 F600 X26.707 Y20.572
G01 F600 X26.704 Y20.498
G01 F600 X26.681 Y20.473
G01 F600 X26.623 Y20.373
G01 F600 X26.588 Y20.264
G01 F600 X26.577 Y20.159
G01 F600 X26.577 Y10.841
G01 F600 X26.588 Y10.736
G01 F600 X26.623 Y10.627
G01 F600 X26.677 Y10.534
G01 F600 X26.710 Y10.490
G01 F600 X26.710 Y9.389
G01 F600 X26.730 Y9.203
G01 F600 X26.790 Y9.017
G01 F600 X26.888 Y8.848
G01 F600 X27.019 Y8.703
G01 F600 X27.177 Y8.587
G01 F600 X27.356 Y8.508
G01 F600 X27.547 Y8.467
G01 F600 X27.743 Y8.467
G01 F600 X27.934 Y8.508
G01 F600 X28.113 Y8.587
G01 F600 X28.271 Y8.703
G01 F600 X28.402 Y8.848
G01 F600 X28.500 Y9.017
G01 F600 X28.561 Y9.203
G01 F600 X28.580 Y9.389
G01 F600 X28.580 Y10.931
G01 F600 X28.561 Y11.117
G01 F600 X28.500 Y11.303
G01 F600 X28.402 Y11.472
G01 F600 X28.271 Y11.617
G01 F600 X28.113 Y11.733
G01 F600 X27.934 Y11.812
G01 F600 X27.743 Y11.853
G01 F600 X27.673 Y11.853
G01 F600 X27.673 Y18.627
G01 F600 X27.743 Y18.627
G01 F600 X27.934 Y18.668
G01 F600 X28.113 Y18.747
G01 F600 X28.271 Y18.863
G01 F600 X28.402 Y19.008
G01 F600 X28.500 Y19.177
G01 F600 X28.561 Y19.363
G01 F600 X28.580 Y19.549
G01 F600 X28.580 Y21.091
G01 F600 X28.561 Y21.277
G01 F600 X28.500 Y21.463
G01 F600 X28.477 Y21.503
G01 F600 X34.477 Y27.502
G01 F600 X34.544 Y27.577
G01 F600 X34.602 Y27.677
G01 F600 X34.637 Y27.786
G01 F600 X34.648 Y27.891
G01 F600 X34.648 Y29.975
G01 F600 X34.665 Y29.993
G01 F600 X34.751 Y30.143
G01 F600 X34.805 Y30.308
G01 F600 X34.823 Y30.480
G01 F600 X34.805 Y30.652
G01 F600 X34.751 Y30.817
G01 F600 X34.665 Y30.967
G01 F600 X34.549 Y31.095
G01 F600 X34.409 Y31.197
G01 F600 X34.251 Y31.267
G01 F600 X34.081 Y31.303
G01 F600 X33.909 Y31.303
G00 F3000 Z3.000
G00 F3000 X36.449 Y31.303
G00 F1500 Z0
G01 F600 Z-0.110
G01 F600 X36.279 Y31.267
G01 F600 X36.121 Y31.197
G01 F600 X35.981 Y31.095
G01 F600 X35.865 Y30.967
G01 F600 X35.779 Y30.817
G01 F600 X35.725 Y30.652
G01 F600 X35.707 Y30.480
G01 F600 X35.725 Y30.308
G01 F600 X35.779 Y30.143
G01 F600 X35.865 Y29.993
G01 F600 X35.981 Y29.865
G01 F600 X36.121 Y29.763
G01 F600 X36.279 Y29.693
G01 F600 X36.449 Y29.657
G01 F600 X36.622 Y29.657
G01 F600 X36.791 Y29.693
G01 F600 X36.949 Y29.763
G01 F600 X37.089 Y29.865
G01 F600 X37.205 Y29.993
G01 F600 X37.291 Y30.143
G01 F600 X37.345 Y30.308
G01 F600 X37.363 Y30.480
G01 F600 X37.345 Y30.652
G01 F600 X37.291 Y30.817
G01 F600 X37.205 Y30.967
G01 F600 X37.089 Y31.095
G01 F600 X36.949 Y31.197
G01 F600 X36.791 Y31.267
G01 F600 X36.622 Y31.303
G01 F600 X36.449 Y31.303
G00 F3000 Z3.000
G00 F3000 X49.149 Y31.303
G00 F1500 Z0
G01 F600 Z-0.110
G01 F600 X48.979 Y31.267
G01 F600 X48.821 Y31.197
G01 F600 X48.681 Y31.095
G01 F600 X48.565 Y30.967
G01 F600 X48.479 Y30.817
G01 F600 X48.425 Y30.652
G01 F600 X48.407 Y30.480
G01 F600 X48.425 Y30.308
G01 F600 X48.479 Y30.143
G01 F600 X48.565 Y29.993
G01 F600 X48.681 Y29.865
G01 F600 X48.821 Y29.763
G01 F600 X48.979 Y29.693
G01 F600 X49.052 Y29.677
G01 F600 X49.052 Y24.791
G01 F600 X49.063 Y24.686
G01 F600 X49.099 Y24.577
G01 F600 X49.156 Y24.477
G01 F600 X49.224 Y24.402
G01 F600 X52.152 Y21.474
G01 F600 X52.152 Y18.826
G01 F600 X44.722 Y11.396
G01 F600 X33.521 Y11.405
G01 F600 X33.482 Y11.472
G01 F600 X33.351 Y11.617
G01 F600 X33.193 Y11.733
G01 F600 X33.098 Y11.775
G01 F600 X33.098 Y18.705
G01 F600 X33.193 Y18.747
G01 F600 X33.351 Y18.863
G01 F600 X33.482 Y19.008
G01 F600 X33.580 Y19.177
G01 F600 X33.641 Y19.363
G01 F600 X33.660 Y19.549
G01 F600 X33.660 Y21.091
G01 F600 X33.641 Y21.277
G01 F600 X33.580 Y21.463
G01 F600 X33.482 Y21.632
G01 F600 X33.351 Y21.777
G01 F600 X33.193 Y21.893
G01 F600 X33.014 Y21.972
G01 F600 X32.823 Y22.013
G01 F600 X32.627 Y22.013
G01 F600 X32.436 Y21.972
G01 F600 X32.257 Y21.893
G01 F600 X32.099 Y21.777
G01 F600 X31.968 Y21.632
G01 F600 X31.870 Y21.463
G01 F600 X31.809 Y21.277
G01 F600 X31.790 Y21.091
G01 F600 X31.790 Y19.549
G01 F600 X31.809 Y19.363
G01 F600 X31.870 Y19.177
G01 F600 X31.968 Y19.008
G01 F600 X32.002 Y18.970
G01 F600 X32.002 Y11.510
G01 F600 X31.968 Y11.472
G01 F600 X31.870 Y11.303
G01 F600 X31.809 Y11.117
G01 F600 X31.790 Y10.931
G01 F600 X31.790 Y9.389
G01 F600 X31.809 Y9.203
G01 F600 X31.870 Y9.017
G01 F600 X31.968 Y8.848
G01 F600 X32.099 Y8.703
G01 F600 X32.257 Y8.587
G01 F600 X32.436 Y8.508
G01 F600 X32.627 Y8.467
G01 F600 X32.823 Y8.467
G01 F600 X33.014 Y8.508
G01 F600 X33.193 Y8.587
G01 F600 X33.351 Y8.703
G01 F600 X33.482 Y8.848
G01 F600 X33.580 Y9.017
G01 F600 X33.641 Y9.203
G01 F600 X33.660 Y9.388
G01 F600 X33.667 Y10.304
G01 F600 X45.007 Y10.304
G01 F600 X45.120 Y10.328
G01 F600 X45.224 Y10.375
G01 F600 X45.314 Y10.439
G01 F600 X53.077 Y18.202
G01 F600 X53.144 Y18.277
G01 F600 X53.202 Y18.377
G01 F600 X53.237 Y18.486
G01 F600 X53.248 Y18.591
G01 F600 X53.248 Y21.709
G01 F600 X53.237 Y21.814
G01 F600 X53.202 Y21.923
G01 F600 X53.144 Y22.023
G01 F600 X53.077 Y22.098
G01 F600 X50.148 Y25.026
G01 F600 X50.148 Y30.234
G01 F600 X50.137 Y30.339
G01 F600 X50.102 Y30.448
G01 F600 X50.059 Y30.522
G01 F600 X50.059 Y30.523
G01 F600 X50.045 Y30.652
G01 F600 X49.991 Y30.817
G01 F600 X49.905 Y30.967
G01 F600 X49.789 Y31.095
G01 F600 X49.649 Y31.197
G01 F600 X49.491 Y31.267
G01 F600 X49.322 Y31.303
G01 F600 X49.149 Y31.303
G00 F3000 Z3.000
G00 F3000 X44.069 Y31.303
G00 F1500 Z0
G01 F600 Z-0.110
G01 F600 X43.899 Y31.267
G01 F600 X43.741 Y31.197
G01 F600 X43.601 Y31.095
G01 F600 X43.485 Y30.967
G01 F600 X43.399 Y30.817
G01 F600 X43.345 Y30.652
G01 F600 X43.327 Y30.480
G01 F600 X43.345 Y30.308
G01 F600 X43.399 Y30.143
G01 F600 X43.485 Y29.993
G01 F600 X43.601 Y29.865
G01 F600 X43.627 Y29.846
G01 F600 X43.627 Y23.241
G01 F600 X43.638 Y23.136
G01 F600 X43.674 Y23.027
G01 F600 X43.731 Y22.927
G01 F600 X43.799 Y22.852
G01 F600 X44.402 Y22.249
G01 F600 X44.402 Y20.916
G01 F600 X44.413 Y20.811
G01 F600 X44.449 Y20.702
G01 F600 X44.490 Y20.630
G01 F600 X44.490 Y19.549
G01 F600 X44.510 Y19.363
G01 F600 X44.570 Y19.177
G01 F600 X44.668 Y19.008
G01 F600 X44.799 Y18.863
G01 F600 X44.957 Y18.747
G01 F600 X45.136 Y18.668
G01 F600 X45.327 Y18.627
G01 F600 X45.523 Y18.627
G01 F600 X45.714 Y18.668
G01 F600 X45.893 Y18.747
G01 F600 X46.051 Y18.863
G01 F600 X46.182 Y19.008
G01 F600 X46.280 Y19.177
G01 F600 X46.340 Y19.363
G01 F600 X46.360 Y19.549
G01 F600 X46.360 Y21.091
G01 F600 X46.340 Y21.277
G01 F600 X46.280 Y21.463
G01 F600 X46.182 Y21.632
G01 F600 X46.051 Y21.777
G01 F600 X45.893 Y21.893
G01 F600 X45.714 Y21.972
G01 F600 X45.521 Y22.013
G01 F600 X45.498 Y22.013
G01 F600 X45.498 Y22.484
G01 F600 X45.487 Y22.589
G01 F600 X45.452 Y22.698
G01 F600 X45.394 Y22.798
G01 F600 X45.327 Y22.873
G01 F600 X44.723 Y23.476
G01 F600 X44.723 Y29.880
G01 F600 X44.825 Y29.993
G01 F600 X44.911 Y30.143
G01 F600 X44.965 Y30.308
G01 F600 X44.983 Y30.480
G01 F600 X44.965 Y30.652
G01 F600 X44.911 Y30.817
G01 F600 X44.825 Y30.967
G01 F600 X44.709 Y31.095
G01 F600 X44.569 Y31.197
G01 F600 X44.411 Y31.267
G01 F600 X44.242 Y31.303
G01 F600 X44.069 Y31.303
G00 F3000 Z3.000
G00 F3000 X46.608 Y31.303
G00 F1500 Z0
G01 F600 Z-0.110
G01 F600 X46.439 Y31.267
G01 F600 X46.281 Y31.197
G01 F600 X46.141 Y31.095
G01 F600 X46.025 Y30.967
G01 F600 X45.939 Y30.817
G01 F600 X45.885 Y30.652
G01 F600 X45.867 Y30.480
G01 F600 X45.885 Y30.308
G01 F600 X45.939 Y30.143
G01 F600 X46.025 Y29.993
G01 F600 X46.141 Y29.865
G01 F600 X46.281 Y29.763
G01 F600 X46.439 Y29.693
G01 F600 X46.608 Y29.657
G01 F600 X46.782 Y29.657
G01 F600 X46.951 Y29.693
G01 F600 X47.109 Y29.763
G01 F600 X47.249 Y29.865
G01 F600 X47.365 Y29.993
G01 F600 X47.451 Y30.143
G01 F600 X47.505 Y30.308
G01 F600 X47.523 Y30.480
G01 F600 X47.505 Y30.652
G01 F600 X47.451 Y30.817
G01 F600 X47.365 Y30.967
G01 F600 X47.249 Y31.095
G01 F600 X47.109 Y31.197
G01 F600 X46.951 Y31.267
G01 F600 X46.782 Y31.303
G01 F600 X46.608 Y31.303
G00 F3000 Z3.000
G00 F3000 X18.669 Y31.303
G00 F1500 Z0
G01 F600 Z-0.110
G01 F600 X18.499 Y31.267
G01 F600 X18.341 Y31.197
G01 F600 X18.201 Y31.095
G01 F600 X18.085 Y30.967
G01 F600 X17.999 Y30.817
G01 F600 X17.945 Y30.652
G01 F600 X17.927 Y30.480
G01 F600 X17.945 Y30.308
G01 F600 X17.999 Y30.143
G01 F600 X18.052 Y30.051
G01 F600 X18.052 Y24.251
G01 F600 X14.497 Y20.696
G01 F600 X12.628 Y20.696
G01 F600 X12.173 Y21.151
G01 F600 X12.173 Y22.484
G01 F600 X12.162 Y22.589
G01 F600 X12.127 Y22.698
G01 F600 X12.070 Y22.796
G01 F600 X12.070 Y23.631
G01 F600 X12.051 Y23.817
G01 F600 X11.990 Y24.003
G01 F600 X11.892 Y24.172
G01 F600 X11.761 Y24.318
G01 F600 X11.603 Y24.433
G01 F600 X11.424 Y24.512
G01 F600 X11.233 Y24.553
G01 F600 X11.037 Y24.553
G01 F600 X10.846 Y24.512
G01 F600 X10.667 Y24.433
G01 F600 X10.509 Y24.318
G01 F600 X10.378 Y24.172
G01 F600 X10.280 Y24.003
G01 F600 X10.220 Y23.817
G01 F600 X10.200 Y23.631
G01 F600 X10.200 Y22.089
G01 F600 X10.220 Y21.903
G01 F600 X10.280 Y21.717
G01 F600 X10.378 Y21.548
G01 F600 X10.509 Y21.402
G01 F600 X10.667 Y21.287
G01 F600 X10.846 Y21.208
G01 F600 X11.037 Y21.167
G01 F600 X11.077 Y21.167
G01 F600 X11.077 Y20.916
G01 F600 X11.088 Y20.811
G01 F600 X11.123 Y20.702
G01 F600 X11.181 Y20.602
G01 F600 X11.249 Y20.527
G01 F600 X12.036 Y19.739
G01 F600 X12.126 Y19.675
G01 F600 X12.230 Y19.628
G01 F600 X12.343 Y19.604
G01 F600 X14.497 Y19.604
G01 F600 X17.277 Y16.824
G01 F600 X17.277 Y13.166
G01 F600 X17.288 Y13.061
G01 F600 X17.323 Y12.952
G01 F600 X17.381 Y12.852
G01 F600 X17.449 Y12.777
G01 F600 X23.661 Y6.564
G01 F600 X23.751 Y6.500
G01 F600 X23.855 Y6.453
G01 F600 X23.968 Y6.429
G01 F600 X28.732 Y6.429
G01 F600 X28.845 Y6.453
G01 F600 X28.950 Y6.500
G01 F600 X29.039 Y6.564
G01 F600 X30.602 Y8.127
G01 F600 X30.669 Y8.202
G01 F600 X30.727 Y8.302
G01 F600 X30.762 Y8.411
G01 F600 X30.773 Y8.516
G01 F600 X30.773 Y8.675
G01 F600 X30.811 Y8.702
G01 F600 X30.942 Y8.848
G01 F600 X31.040 Y9.017
G01 F600 X31.101 Y9.203
G01 F600 X31.120 Y9.389
G01 F600 X31.120 Y10.931
G01 F600 X31.101 Y11.117
G01 F600 X31.040 Y11.303
G01 F600 X30.942 Y11.472
G01 F600 X30.811 Y11.618
G01 F600 X30.773 Y11.645
G01 F600 X30.773 Y18.835
G01 F600 X30.811 Y18.862
G01 F600 X30.942 Y19.008
G01 F600 X31.040 Y19.177
G01 F600 X31.101 Y19.363
G01 F600 X31.120 Y19.549
G01 F600 X31.120 Y21.091
G01 F600 X31.101 Y21.277
G01 F600 X31.040 Y21.463
G01 F600 X30.942 Y21.632
G01 F600 X30.811 Y21.777
G01 F600 X30.653 Y21.893
G01 F600 X30.474 Y21.972
G01 F600 X30.283 Y22.013
G01 F600 X30.087 Y22.013
G01 F600 X29.896 Y21.972
G01 F600 X29.717 Y21.893
G01 F600 X29.559 Y21.777
G01 F600 X29.428 Y21.632
G01 F600 X29.330 Y21.463
G01 F600 X29.270 Y21.277
G01 F600 X29.250 Y21.091
G01 F600 X29.250 Y19.549
G01 F600 X29.270 Y19.363
G01 F600 X29.330 Y19.177
G01 F600 X29.428 Y19.008
G01 F600 X29.559 Y18.863
G01 F600 X29.677 Y18.777
G01 F600 X29.677 Y11.704
G01 F600 X29.559 Y11.617
G01 F600 X29.428 Y11.472
G01 F600 X29.330 Y11.303
G01 F600 X29.270 Y11.117
G01 F600 X29.250 Y10.931
G01 F600 X29.250 Y9.389
G01 F600 X29.270 Y9.203
G01 F600 X29.330 Y9.017
G01 F600 X29.428 Y8.848
G01 F600 X29.559 Y8.703
G01 F600 X29.599 Y8.673
G01 F600 X28.447 Y7.521
G01 F600 X24.253 Y7.521
G01 F600 X18.373 Y13.401
G01 F600 X18.373 Y17.059
G01 F600 X18.362 Y17.164
G01 F600 X18.326 Y17.273
G01 F600 X18.269 Y17.373
G01 F600 X18.201 Y17.448
G01 F600 X15.499 Y20.150
G01 F600 X18.977 Y23.627
G01 F600 X19.044 Y23.702
G01 F600 X19.102 Y23.802
G01 F600 X19.137 Y23.911
G01 F600 X19.148 Y24.016
G01 F600 X19.148 Y29.754
G01 F600 X19.169 Y29.763
G01 F600 X19.309 Y29.865
G01 F600 X19.425 Y29.993
G01 F600 X19.511 Y30.143
G01 F600 X19.565 Y30.308
G01 F600 X19.583 Y30.480
G01 F600 X19.565 Y30.652
G01 F600 X19.511 Y30.817
G01 F600 X19.425 Y30.967
G01 F600 X19.309 Y31.095
G01 F600 X19.169 Y31.197
G01 F600 X19.011 Y31.267
G01 F600 X18.841 Y31.303
G01 F600 X18.669 Y31.303
G00 F3000 Z3.000
G00 F3000 X21.209 Y31.303
G00 F1500 Z0
G01 F600 Z-0.110
G01 F600 X21.039 Y31.267
G01 F600 X20.881 Y31.197
G01 F600 X20.741 Y31.095
G01 F600 X20.625 Y30.967
G01 F600 X20.539 Y30.817
G01 F600 X20.485 Y30.652
G01 F600 X20.467 Y30.480
G01 F600 X20.485 Y30.308
G01 F600 X20.539 Y30.143
G01 F600 X20.625 Y29.993
G01 F600 X20.741 Y29.865
G01 F600 X20.881 Y29.763
G01 F600 X21.039 Y29.693
G01 F600 X21.209 Y29.657
G01 F600 X21.382 Y29.657
G01 F600 X21.551 Y29.693
G01 F600 X21.709 Y29.763
G01 F600 X21.849 Y29.865
G01 F600 X21.965 Y29.993
G01 F600 X22.051 Y30.143
G01 F600 X22.105 Y30.308
G01 F600 X22.123 Y30.480
G01 F600 X22.105 Y30.652
G01 F600 X22.051 Y30.817
G01 F600 X21.965 Y30.967
G01 F600 X21.849 Y31.095
G01 F600 X21.709 Y31.197
G01 F600 X21.551 Y31.267
G01 F600 X21.382 Y31.303
G01 F600 X21.209 Y31.303
G00 F3000 Z3.000
G00 F3000 X16.129 Y31.303
G00 F1500 Z0
G01 F600 Z-0.110
G01 F600 X15.959 Y31.267
G01 F600 X15.801 Y31.197
G01 F600 X15.661 Y31.095
G01 F600 X15.545 Y30.967
G01 F600 X15.459 Y30.817
G01 F600 X15.405 Y30.652
G01 F600 X15.387 Y30.480
G01 F600 X15.405 Y30.308
G01 F600 X15.459 Y30.143
G01 F600 X15.545 Y29.993
G01 F600 X15.662 Y29.864
G01 F600 X15.727 Y29.818
G01 F600 X15.727 Y25.801
G01 F600 X14.268 Y24.342
G01 F600 X14.143 Y24.433
G01 F600 X13.964 Y24.512
G01 F600 X13.773 Y24.553
G01 F600 X13.577 Y24.553
G01 F600 X13.386 Y24.512
G01 F600 X13.207 Y24.433
G01 F600 X13.049 Y24.318
G01 F600 X12.918 Y24.172
G01 F600 X12.820 Y24.003
G01 F600 X12.760 Y23.817
G01 F600 X12.740 Y23.631
G01 F600 X12.740 Y22.089
G01 F600 X12.760 Y21.903
G01 F600 X12.820 Y21.717
G01 F600 X12.918 Y21.548
G01 F600 X13.049 Y21.402
G01 F600 X13.207 Y21.287
G01 F600 X13.386 Y21.208
G01 F600 X13.577 Y21.167
G01 F600 X13.773 Y21.167
G01 F600 X13.964 Y21.208
G01 F600 X14.143 Y21.287
G01 F600 X14.301 Y21.402
G01 F600 X14.432 Y21.548
G01 F600 X14.530 Y21.717
G01 F600 X14.591 Y21.903
G01 F600 X14.610 Y22.089
G01 F600 X14.610 Y23.136
G01 F600 X16.652 Y25.177
G01 F600 X16.719 Y25.252
G01 F600 X16.777 Y25.352
G01 F600 X16.812 Y25.461
G01 F600 X16.823 Y25.566
G01 F600 X16.826 Y29.928
G01 F600 X16.885 Y29.993
G01 F600 X16.971 Y30.143
G01 F600 X17.025 Y30.308
G01 F600 X17.043 Y30.480
G01 F600 X17.025 Y30.652
G01 F600 X16.971 Y30.817
G01 F600 X16.885 Y30.967
G01 F600 X16.769 Y31.095
G01 F600 X16.629 Y31.197
G01 F600 X16.471 Y31.267
G01 F600 X16.302 Y31.303
G01 F600 X16.129 Y31.303
G00 F3000 Z3.000
G00 F3000 X28.829 Y31.303
G00 F1500 Z0
G01 F600 Z-0.110
G01 F600 X28.659 Y31.267
G01 F600 X28.501 Y31.197
G01 F600 X28.361 Y31.095
G01 F600 X28.245 Y30.967
G01 F600 X28.159 Y30.817
G01 F600 X28.105 Y30.652
G01 F600 X28.087 Y30.480
G01 F600 X28.105 Y30.308
G01 F600 X28.159 Y30.143
G01 F600 X28.245 Y29.993
G01 F600 X28.361 Y29.865
G01 F600 X28.501 Y29.763
G01 F600 X28.659 Y29.693
G01 F600 X28.829 Y29.657
G01 F600 X29.002 Y29.657
G01 F600 X29.171 Y29.693
G01 F600 X29.329 Y29.763
G01 F600 X29.469 Y29.865
G01 F600 X29.585 Y29.993
G01 F600 X29.671 Y30.143
G01 F600 X29.725 Y30.308
G01 F600 X29.743 Y30.480
G01 F600 X29.725 Y30.652
G01 F600 X29.671 Y30.817
G01 F600 X29.585 Y30.967
G01 F600 X29.469 Y31.095
G01 F600 X29.329 Y31.197
G01 F600 X29.171 Y31.267
G01 F600 X29.002 Y31.303
G01 F600 X28.829 Y31.303
G00 F3000 Z3.000
G00 F3000 X31.369 Y31.303
G00 F1500 Z0
G01 F600 Z-0.110
G01 F600 X31.199 Y31.267
G01 F600 X31.041 Y31.197
G01 F600 X30.901 Y31.095
G01 F600 X30.785 Y30.967
G01 F600 X30.699 Y30.817
G01 F600 X30.645 Y30.652
G01 F600 X30.644 Y30.641
G01 F600 X30.633 Y30.633
G01 F600 X30.556 Y30.548
G01 F600 X30.498 Y30.448
G01 F600 X30.463 Y30.339
G01 F600 X30.452 Y30.234
G01 F600 X30.452 Y28.126
G01 F600 X24.424 Y22.098
G01 F600 X24.356 Y22.023
G01 F600 X24.299 Y21.923
G01 F600 X24.263 Y21.814
G01 F600 X24.252 Y21.709
G01 F600 X24.252 Y21.466
G01 F600 X24.250 Y21.463
G01 F600 X24.190 Y21.277
G01 F600 X24.170 Y21.091
G01 F600 X24.170 Y19.549
G01 F600 X24.190 Y19.363
G01 F600 X24.250 Y19.177
G01 F600 X24.252 Y19.174
G01 F600 X24.252 Y11.306
G01 F600 X24.250 Y11.303
G01 F600 X24.190 Y11.117
G01 F600 X24.170 Y10.931
G01 F600 X24.170 Y9.389
G01 F600 X24.190 Y9.203
G01 F600 X24.250 Y9.017
G01 F600 X24.348 Y8.848
G01 F600 X24.479 Y8.703
G01 F600 X24.637 Y8.587
G01 F600 X24.816 Y8.508
G01 F600 X25.007 Y8.467
G01 F600 X25.203 Y8.467
G01 F600 X25.394 Y8.508
G01 F600 X25.573 Y8.587
G01 F600 X25.731 Y8.703
G01 F600 X25.862 Y8.848
G01 F600 X25.960 Y9.017
G01 F600 X26.021 Y9.203
G01 F600 X26.040 Y9.389
G01 F600 X26.040 Y10.931
G01 F600 X26.021 Y11.117
G01 F600 X25.960 Y11.303
G01 F600 X25.862 Y11.472
G01 F600 X25.731 Y11.617
G01 F600 X25.573 Y11.733
G01 F600 X25.393 Y11.813
G01 F600 X25.348 Y11.822
G01 F600 X25.358 Y18.660
G01 F600 X25.394 Y18.668
G01 F600 X25.573 Y18.747
G01 F600 X25.731 Y18.863
G01 F600 X25.862 Y19.008
G01 F600 X25.960 Y19.177
G01 F600 X26.021 Y19.363
G01 F600 X26.040 Y19.549
G01 F600 X26.040 Y21.091
G01 F600 X26.021 Y21.277
G01 F600 X25.960 Y21.463
G01 F600 X25.862 Y21.632
G01 F600 X25.731 Y21.777
G01 F600 X25.685 Y21.811
G01 F600 X31.377 Y27.502
G01 F600 X31.444 Y27.577
G01 F600 X31.502 Y27.677
G01 F600 X31.537 Y27.786
G01 F600 X31.548 Y27.890
G01 F600 X31.559 Y29.660
G01 F600 X31.711 Y29.693
G01 F600 X31.869 Y29.763
G01 F600 X32.009 Y29.865
G01 F600 X32.125 Y29.993
G01 F600 X32.211 Y30.143
G01 F600 X32.265 Y30.308
G01 F600 X32.283 Y30.480
G01 F600 X32.265 Y30.652
G01 F600 X32.211 Y30.817
G01 F600 X32.125 Y30.967
G01 F600 X32.009 Y31.095
G01 F600 X31.869 Y31.197
G01 F600 X31.711 Y31.267
G01 F600 X31.542 Y31.303
G01 F600 X31.369 Y31.303
G00 F3000 Z3.000
G00 F3000 X23.748 Y31.303
G00 F1500 Z0
G01 F600 Z-0.110
G01 F600 X23.579 Y31.267
G01 F600 X23.421 Y31.197
G01 F600 X23.281 Y31.095
G01 F600 X23.165 Y30.967
G01 F600 X23.079 Y30.817
G01 F600 X23.025 Y30.652
G01 F600 X23.007 Y30.480
G01 F600 X23.025 Y30.308
G01 F600 X23.079 Y30.143
G01 F600 X23.165 Y29.993
G01 F600 X23.281 Y29.865
G01 F600 X23.421 Y29.763
G01 F600 X23.579 Y29.693
G01 F600 X23.748 Y29.657
G01 F600 X23.922 Y29.657
G01 F600 X24.091 Y29.693
G01 F600 X24.249 Y29.763
G01 F600 X24.389 Y29.865
G01 F600 X24.505 Y29.993
G01 F600 X24.591 Y30.143
G01 F600 X24.645 Y30.308
G01 F600 X24.663 Y30.480
G01 F600 X24.645 Y30.652
G01 F600 X24.591 Y30.817
G01 F600 X24.505 Y30.967
G01 F600 X24.389 Y31.095
G01 F600 X24.249 Y31.197
G01 F600 X24.091 Y31.267
G01 F600 X23.922 Y31.303
G01 F600 X23.748 Y31.303
G00 F3000 Z3.000
G00 F3000 X26.289 Y31.303
G00 F1500 Z0
G01 F600 Z-0.110
G01 F600 X26.119 Y31.267
G01 F600 X25.961 Y31.197
G01 F600 X25.821 Y31.095
G01 F600 X25.705 Y30.967
G01 F600 X25.619 Y30.817
G01 F600 X25.565 Y30.652
G01 F600 X25.547 Y30.480
G01 F600 X25.565 Y30.308
G01 F600 X25.619 Y30.143
G01 F600 X25.705 Y29.993
G01 F600 X25.821 Y29.865
G01 F600 X25.961 Y29.763
G01 F600 X26.119 Y29.693
G01 F600 X26.289 Y29.657
G01 F600 X26.462 Y29.657
G01 F600 X26.631 Y29.693
G01 F600 X26.789 Y29.763
G01 F600 X26.929 Y29.865
G01 F600 X27.045 Y29.993
G01 F600 X27.131 Y30.143
G01 F600 X27.185 Y30.308
G01 F600 X27.203 Y30.480
G01 F600 X27.185 Y30.652
G01 F600 X27.131 Y30.817
G01 F600 X27.045 Y30.967
G01 F600 X26.929 Y31.095
G01 F600 X26.789 Y31.197
G01 F600 X26.631 Y31.267
G01 F600 X26.462 Y31.303
G01 F600 X26.289 Y31.303
G00 F3000 Z3.000
G00 F3000 X42.787 Y22.013
G00 F1500 Z0
G01 F600 Z-0.110
G01 F600 X42.596 Y21.972
G01 F600 X42.417 Y21.893
G01 F600 X42.259 Y21.777
G01 F600 X42.128 Y21.632
G01 F600 X42.030 Y21.463
G01 F600 X41.970 Y21.277
G01 F600 X41.950 Y21.091
G01 F600 X41.950 Y19.549
G01 F600 X41.970 Y19.363
G01 F600 X42.030 Y19.177
G01 F600 X42.128 Y19.008
G01 F600 X42.259 Y18.863
G01 F600 X42.417 Y18.747
G01 F600 X42.596 Y18.668
G01 F600 X42.787 Y18.627
G01 F600 X42.983 Y18.627
G01 F600 X43.174 Y18.668
G01 F600 X43.353 Y18.747
G01 F600 X43.511 Y18.863
G01 F600 X43.642 Y19.008
G01 F600 X43.740 Y19.177
G01 F600 X43.800 Y19.363
G01 F600 X43.820 Y19.549
G01 F600 X43.820 Y21.091
G01 F600 X43.800 Y21.277
G01 F600 X43.740 Y21.463
G01 F600 X43.642 Y21.632
G01 F600 X43.511 Y21.777
G01 F600 X43.353 Y21.893
G01 F600 X43.174 Y21.972
G01 F600 X42.983 Y22.013
G01 F600 X42.787 Y22.013
G00 F3000 Z3.000
G00 F3000 X50.407 Y22.013
G00 F1500 Z0
G01 F600 Z-0.110
G01 F600 X50.216 Y21.972
G01 F600 X50.037 Y21.893
G01 F600 X49.879 Y21.777
G01 F600 X49.748 Y21.632
G01 F600 X49.650 Y21.463
G01 F600 X49.590 Y21.277
G01 F600 X49.570 Y21.091
G01 F600 X49.570 Y19.549
G01 F600 X49.590 Y19.363
G01 F600 X49.650 Y19.177
G01 F600 X49.748 Y19.008
G01 F600 X49.879 Y18.863
G01 F600 X50.037 Y18.747
G01 F600 X50.216 Y18.668
G01 F600 X50.407 Y18.627
G01 F600 X50.603 Y18.627
G01 F600 X50.794 Y18.668
G01 F600 X50.973 Y18.747
G01 F600 X51.131 Y18.863
G01 F600 X51.262 Y19.008
G01 F600 X51.360 Y19.177
G01 F600 X51.421 Y19.363
G01 F600 X51.440 Y19.549
G01 F600 X51.440 Y21.091
G01 F600 X51.421 Y21.277
G01 F600 X51.360 Y21.463
G01 F600 X51.262 Y21.632
G01 F600 X51.131 Y21.777
G01 F600 X50.973 Y21.893
G01 F600 X50.794 Y21.972
G01 F600 X50.603 Y22.013
G01 F600 X50.407 Y22.013
G00 F3000 Z3.000
G00 F3000 X9.767 Y15.663
G00 F1500 Z0
G01 F600 Z-0.110
G01 F600 X9.576 Y15.622
G01 F600 X9.397 Y15.543
G01 F600 X9.239 Y15.428
G01 F600 X9.108 Y15.282
G01 F600 X9.010 Y15.113
G01 F600 X8.950 Y14.927
G01 F600 X8.930 Y14.741
G01 F600 X8.930 Y13.199
G01 F600 X8.950 Y13.013
G01 F600 X9.010 Y12.827
G01 F600 X9.108 Y12.658
G01 F600 X9.239 Y12.513
G01 F600 X9.397 Y12.397
G01 F600 X9.527 Y12.340
G01 F600 X9.527 Y8.516
G01 F600 X9.538 Y8.411
G01 F600 X9.574 Y8.302
G01 F600 X9.631 Y8.202
G01 F600 X9.699 Y8.127
G01 F600 X10.200 Y7.627
G01 F600 X10.200 Y6.849
G01 F600 X10.220 Y6.663
G01 F600 X10.280 Y6.477
G01 F600 X10.378 Y6.308
G01 F600 X10.509 Y6.163
G01 F600 X10.667 Y6.047
G01 F600 X10.846 Y5.968
G01 F600 X11.037 Y5.927
G01 F600 X11.077 Y5.927
G01 F600 X11.077 Y5.416
G01 F600 X11.088 Y5.311
G01 F600 X11.123 Y5.202
G01 F600 X11.181 Y5.102
G01 F600 X11.249 Y5.027
G01 F600 X12.811 Y3.464
G01 F600 X12.901 Y3.400
G01 F600 X13.005 Y3.353
G01 F600 X13.118 Y3.329
G01 F600 X32.607 Y3.329
G01 F600 X32.720 Y3.353
G01 F600 X32.825 Y3.400
G01 F600 X32.914 Y3.464
G01 F600 X35.103 Y5.654
G01 F600 X43.220 Y5.654
G01 F600 X43.220 Y5.579
G01 F600 X43.239 Y5.393
G01 F600 X43.300 Y5.207
G01 F600 X43.398 Y5.038
G01 F600 X43.529 Y4.893
G01 F600 X43.687 Y4.777
G01 F600 X43.866 Y4.698
G01 F600 X44.057 Y4.657
G01 F600 X44.253 Y4.657
G01 F600 X44.444 Y4.698
G01 F600 X44.623 Y4.777
G01 F600 X44.781 Y4.893
G01 F600 X44.912 Y5.038
G01 F600 X45.010 Y5.207
G01 F600 X45.071 Y5.393
G01 F600 X45.090 Y5.579
G01 F600 X45.090 Y7.121
G01 F600 X45.071 Y7.307
G01 F600 X45.010 Y7.493
G01 F600 X44.912 Y7.662
G01 F600 X44.781 Y7.808
G01 F600 X44.623 Y7.923
G01 F600 X44.444 Y8.002
G01 F600 X44.253 Y8.043
G01 F600 X44.057 Y8.043
G01 F600 X43.866 Y8.002
G01 F600 X43.687 Y7.923
G01 F600 X43.529 Y7.808
G01 F600 X43.398 Y7.662
G01 F600 X43.300 Y7.493
G01 F600 X43.239 Y7.307
G01 F600 X43.220 Y7.121
G01 F600 X43.220 Y6.746
G01 F600 X34.818 Y6.746
G01 F600 X34.705 Y6.722
G01 F600 X34.601 Y6.675
G01 F600 X34.511 Y6.611
G01 F600 X32.322 Y4.421
G01 F600 X13.403 Y4.421
G01 F600 X12.173 Y5.651
G01 F600 X12.173 Y6.984
G01 F600 X12.162 Y7.089
G01 F600 X12.127 Y7.198
G01 F600 X12.073 Y7.291
G01 F600 X12.070 Y7.295
G01 F600 X12.070 Y8.391
G01 F600 X12.051 Y8.577
G01 F600 X11.990 Y8.763
G01 F600 X11.892 Y8.932
G01 F600 X11.761 Y9.078
G01 F600 X11.603 Y9.193
G01 F600 X11.424 Y9.272
G01 F600 X11.233 Y9.313
G01 F600 X11.037 Y9.313
G01 F600 X10.846 Y9.272
G01 F600 X10.667 Y9.193
G01 F600 X10.623 Y9.161
G01 F600 X10.623 Y12.659
G01 F600 X10.720 Y12.827
G01 F600 X10.780 Y13.013
G01 F600 X10.800 Y13.199
G01 F600 X10.800 Y14.741
G01 F600 X10.780 Y14.927
G01 F600 X10.720 Y15.113
G01 F600 X10.622 Y15.282
G01 F600 X10.491 Y15.428
G01 F600 X10.333 Y15.543
G01 F600 X10.154 Y15.622
G01 F600 X9.963 Y15.663
G01 F600 X9.767 Y15.663
G00 F3000 Z3.000
G00 F3000 X49.137 Y8.043
G00 F1500 Z0
G01 F600 Z-0.110
G01 F600 X48.946 Y8.002
G01 F600 X48.767 Y7.923
G01 F600 X48.609 Y7.808
G01 F600 X48.478 Y7.662
G01 F600 X48.380 Y7.493
G01 F600 X48.320 Y7.307
G01 F600 X48.300 Y7.121
G01 F600 X48.300 Y5.579
G01 F600 X48.320 Y5.393
G01 F600 X48.380 Y5.207
G01 F600 X48.478 Y5.038
G01 F600 X48.609 Y4.893
G01 F600 X48.767 Y4.777
G01 F600 X48.946 Y4.698
G01 F600 X49.137 Y4.657
G01 F600 X49.333 Y4.657
G01 F600 X49.524 Y4.698
G01 F600 X49.703 Y4.777
G01 F600 X49.861 Y4.893
G01 F600 X49.992 Y5.038
G01 F600 X50.090 Y5.207
G01 F600 X50.151 Y5.393
G01 F600 X50.170 Y5.579
G01 F600 X50.170 Y7.121
G01 F600 X50.151 Y7.307
G01 F600 X50.090 Y7.493
G01 F600 X49.992 Y7.662
G01 F600 X49.861 Y7.808
G01 F600 X49.703 Y7.923
G01 F600 X49.524 Y8.002
G01 F600 X49.333 Y8.043
G01 F600 X49.137 Y8.043
G00 F3000 Z3.000
G00 F3000 X20.847 Y65.846
G00 F1500 Z0
G01 F600 Z-0.110
G01 F600 X20.693 Y65.813
G01 F600 X20.550 Y65.749
G01 F600 X20.431 Y65.663
G01 F600 X18.289 Y63.521
G01 F600 X11.248 Y63.521
G01 F600 X11.101 Y63.608
G01 F600 X10.717 Y63.509
G01 F600 X10.618 Y63.483
G01 F600 X10.272 Y63.393
G01 F600 X9.837 Y62.656
G01 F600 X9.902 Y62.407
G01 F600 X9.901 Y62.395
G01 F600 X9.918 Y62.226
G01 F600 X9.971 Y62.064
G01 F600 X10.006 Y62.003
G01 F600 X10.048 Y61.842
G01 F600 X10.102 Y61.805
G01 F600 X10.102 Y57.796
G01 F600 X10.056 Y57.745
G01 F600 X9.971 Y57.597
G01 F600 X9.918 Y57.435
G01 F600 X9.913 Y57.384
G01 F600 X9.837 Y57.256
G01 F600 X10.052 Y56.427
G01 F600 X10.789 Y55.992
G01 F600 X11.618 Y56.207
G01 F600 X12.053 Y56.944
G01 F600 X11.838 Y57.773
G01 F600 X11.598 Y57.915
G01 F600 X11.598 Y61.602
G01 F600 X11.619 Y61.607
G01 F600 X11.866 Y62.029
G01 F600 X18.678 Y62.029
G01 F600 X18.832 Y62.062
G01 F600 X18.975 Y62.126
G01 F600 X19.094 Y62.212
G01 F600 X21.236 Y64.354
G01 F600 X39.989 Y64.354
G01 F600 X44.456 Y59.887
G01 F600 X44.575 Y59.800
G01 F600 X44.718 Y59.737
G01 F600 X44.872 Y59.704
G01 F600 X46.964 Y59.704
G01 F600 X48.077 Y58.591
G01 F600 X48.077 Y53.784
G01 F600 X47.440 Y53.147
G01 F600 X47.296 Y53.307
G01 F600 X47.104 Y53.447
G01 F600 X46.886 Y53.543
G01 F600 X46.654 Y53.593
G01 F600 X46.416 Y53.593
G01 F600 X46.184 Y53.543
G01 F600 X45.967 Y53.447
G01 F600 X45.774 Y53.307
G01 F600 X45.615 Y53.130
G01 F600 X45.496 Y52.925
G01 F600 X45.423 Y52.698
G01 F600 X45.400 Y52.482
G01 F600 X45.400 Y50.918
G01 F600 X45.423 Y50.702
G01 F600 X45.496 Y50.476
G01 F600 X45.615 Y50.270
G01 F600 X45.774 Y50.093
G01 F600 X45.967 Y49.953
G01 F600 X46.184 Y49.857
G01 F600 X46.416 Y49.807
G01 F600 X46.654 Y49.807
G01 F600 X46.886 Y49.857
G01 F600 X47.104 Y49.953
G01 F600 X47.296 Y50.093
G01 F600 X47.455 Y50.270
G01 F600 X47.574 Y50.476
G01 F600 X47.647 Y50.702
G01 F600 X47.670 Y50.918
G01 F600 X47.670 Y51.290
G01 F600 X47.769 Y51.362
G01 F600 X49.347 Y52.940
G01 F600 X49.432 Y53.034
G01 F600 X49.510 Y53.170
G01 F600 X49.559 Y53.319
G01 F600 X49.573 Y53.456
G01 F600 X49.573 Y58.919
G01 F600 X49.559 Y59.056
G01 F600 X49.510 Y59.205
G01 F600 X49.432 Y59.341
G01 F600 X49.347 Y59.436
G01 F600 X47.769 Y61.013
G01 F600 X47.650 Y61.100
G01 F600 X47.507 Y61.163
G01 F600 X47.353 Y61.196
G01 F600 X45.261 Y61.196
G01 F600 X40.794 Y65.663
G01 F600 X40.675 Y65.749
G01 F600 X40.532 Y65.813
G01 F600 X40.378 Y65.846
G01 F600 X20.847 Y65.846
G00 F3000 Z3.000
G00 F3000 X33.739 Y64.068
G00 F1500 Z0
G01 F600 Z-0.110
G01 F600 X33.470 Y64.011
G01 F600 X33.219 Y63.899
G01 F600 X32.996 Y63.738
G01 F600 X32.813 Y63.533
G01 F600 X32.675 Y63.295
G01 F600 X32.590 Y63.034
G01 F600 X32.561 Y62.761
G01 F600 X32.590 Y62.487
G01 F600 X32.631 Y62.363
G01 F600 X31.464 Y61.196
G01 F600 X26.661 Y61.196
G01 F600 X24.519 Y63.338
G01 F600 X24.400 Y63.425
G01 F600 X24.257 Y63.488
G01 F600 X24.103 Y63.521
G01 F600 X21.622 Y63.521
G01 F600 X21.468 Y63.488
G01 F600 X21.465 Y63.487
G01 F600 X21.261 Y63.608
G01 F600 X20.432 Y63.393
G01 F600 X19.997 Y62.656
G01 F600 X20.212 Y61.827
G01 F600 X20.949 Y61.392
G01 F600 X21.779 Y61.607
G01 F600 X22.026 Y62.029
G01 F600 X23.714 Y62.029
G01 F600 X25.856 Y59.887
G01 F600 X25.975 Y59.800
G01 F600 X26.118 Y59.737
G01 F600 X26.272 Y59.704
G01 F600 X31.853 Y59.704
G01 F600 X32.007 Y59.737
G01 F600 X32.150 Y59.800
G01 F600 X32.269 Y59.887
G01 F600 X33.835 Y61.453
G01 F600 X34.014 Y61.453
G01 F600 X34.283 Y61.510
G01 F600 X34.534 Y61.622
G01 F600 X34.756 Y61.784
G01 F600 X34.940 Y61.988
G01 F600 X35.077 Y62.226
G01 F600 X35.162 Y62.487
G01 F600 X35.191 Y62.761
G01 F600 X35.162 Y63.034
G01 F600 X35.077 Y63.295
G01 F600 X34.940 Y63.533
G01 F600 X34.756 Y63.738
G01 F600 X34.534 Y63.899
G01 F600 X34.283 Y64.011
G01 F600 X34.014 Y64.068
G01 F600 X33.739 Y64.068
G00 F3000 Z3.000
G00 F3000 X27.236 Y64.068
G00 F1500 Z0
G01 F600 Z-0.110
G01 F600 X26.967 Y64.011
G01 F600 X26.716 Y63.899
G01 F600 X26.494 Y63.738
G01 F600 X26.310 Y63.533
G01 F600 X26.173 Y63.295
G01 F600 X26.088 Y63.034
G01 F600 X26.059 Y62.761
G01 F600 X26.088 Y62.487
G01 F600 X26.173 Y62.226
G01 F600 X26.310 Y61.988
G01 F600 X26.494 Y61.784
G01 F600 X26.716 Y61.622
G01 F600 X26.967 Y61.510
G01 F600 X27.236 Y61.453
G01 F600 X27.511 Y61.453
G01 F600 X27.780 Y61.510
G01 F600 X28.031 Y61.622
G01 F600 X28.254 Y61.784
G01 F600 X28.438 Y61.988
G01 F600 X28.575 Y62.226
G01 F600 X28.660 Y62.487
G01 F600 X28.689 Y62.761
G01 F600 X28.660 Y63.034
G01 F600 X28.575 Y63.295
G01 F600 X28.438 Y63.533
G01 F600 X28.254 Y63.738
G01 F600 X28.031 Y63.899
G01 F600 X27.780 Y64.011
G01 F600 X27.511 Y64.068
G01 F600 X27.236 Y64.068
G00 F3000 Z3.000
G00 F3000 X45.839 Y64.068
G00 F1500 Z0
G01 F600 Z-0.110
G01 F600 X45.570 Y64.011
G01 F600 X45.319 Y63.899
G01 F600 X45.096 Y63.738
G01 F600 X44.913 Y63.533
G01 F600 X44.775 Y63.295
G01 F600 X44.690 Y63.034
G01 F600 X44.661 Y62.761
G01 F600 X44.690 Y62.487
G01 F600 X44.775 Y62.226
G01 F600 X44.913 Y61.988
G01 F600 X45.096 Y61.784
G01 F600 X45.319 Y61.622
G01 F600 X45.570 Y61.510
G01 F600 X45.839 Y61.453
G01 F600 X46.114 Y61.453
G01 F600 X46.383 Y61.510
G01 F600 X46.634 Y61.622
G01 F600 X46.856 Y61.784
G01 F600 X47.040 Y61.988
G01 F600 X47.177 Y62.226
G01 F600 X47.262 Y62.487
G01 F600 X47.291 Y62.761
G01 F600 X47.262 Y63.034
G01 F600 X47.177 Y63.295
G01 F600 X47.040 Y63.533
G01 F600 X46.856 Y63.738
G01 F600 X46.634 Y63.899
G01 F600 X46.383 Y64.011
G01 F600 X46.114 Y64.068
G01 F600 X45.839 Y64.068
G00 F3000 Z3.000
G00 F3000 X39.336 Y64.068
G00 F1500 Z0
G01 F600 Z-0.110
G01 F600 X39.067 Y64.011
G01 F600 X38.816 Y63.899
G01 F600 X38.594 Y63.738
G01 F600 X38.410 Y63.533
G01 F600 X38.273 Y63.295
G01 F600 X38.188 Y63.034
G01 F600 X38.159 Y62.761
G01 F600 X38.188 Y62.487
G01 F600 X38.273 Y62.226
G01 F600 X38.410 Y61.988
G01 F600 X38.594 Y61.784
G01 F600 X38.816 Y61.622
G01 F600 X39.067 Y61.510
G01 F600 X39.336 Y61.453
G01 F600 X39.611 Y61.453
G01 F600 X39.880 Y61.510
G01 F600 X40.131 Y61.622
G01 F600 X40.354 Y61.784
G01 F600 X40.538 Y61.988
G01 F600 X40.675 Y62.226
G01 F600 X40.760 Y62.487
G01 F600 X40.789 Y62.761
G01 F600 X40.760 Y63.034
G01 F600 X40.675 Y63.295
G01 F600 X40.538 Y63.533
G01 F600 X40.354 Y63.738
G01 F600 X40.131 Y63.899
G01 F600 X39.880 Y64.011
G01 F600 X39.611 Y64.068
G01 F600 X39.336 Y64.068
G00 F3000 Z3.000
G00 F3000 X45.839 Y59.547
G00 F1500 Z0
G01 F600 Z-0.110
G01 F600 X45.570 Y59.490
G01 F600 X45.319 Y59.378
G01 F600 X45.096 Y59.217
G01 F600 X44.913 Y59.012
G01 F600 X44.775 Y58.774
G01 F600 X44.690 Y58.513
G01 F600 X44.661 Y58.239
G01 F600 X44.673 Y58.130
G01 F600 X43.653 Y57.111
G01 F600 X43.568 Y57.016
G01 F600 X43.490 Y56.880
G01 F600 X43.441 Y56.731
G01 F600 X43.427 Y56.595
G01 F600 X43.427 Y53.447
G01 F600 X43.426 Y53.447
G01 F600 X43.234 Y53.307
G01 F600 X43.075 Y53.130
G01 F600 X42.956 Y52.925
G01 F600 X42.883 Y52.698
G01 F600 X42.860 Y52.482
G01 F600 X42.860 Y50.918
G01 F600 X42.883 Y50.702
G01 F600 X42.956 Y50.476
G01 F600 X43.075 Y50.270
G01 F600 X43.234 Y50.093
G01 F600 X43.427 Y49.953
G01 F600 X43.644 Y49.857
G01 F600 X43.876 Y49.807
G01 F600 X44.114 Y49.807
G01 F600 X44.346 Y49.857
G01 F600 X44.564 Y49.953
G01 F600 X44.756 Y50.093
G01 F600 X44.915 Y50.270
G01 F600 X45.034 Y50.476
G01 F600 X45.107 Y50.702
G01 F600 X45.130 Y50.918
G01 F600 X45.130 Y52.482
G01 F600 X45.107 Y52.698
G01 F600 X45.034 Y52.925
G01 F600 X44.923 Y53.116
G01 F600 X44.923 Y56.266
G01 F600 X45.633 Y56.976
G01 F600 X45.839 Y56.932
G01 F600 X46.114 Y56.932
G01 F600 X46.383 Y56.989
G01 F600 X46.634 Y57.101
G01 F600 X46.856 Y57.262
G01 F600 X47.040 Y57.467
G01 F600 X47.177 Y57.705
G01 F600 X47.262 Y57.966
G01 F600 X47.291 Y58.239
G01 F600 X47.262 Y58.513
G01 F600 X47.177 Y58.774
G01 F600 X47.040 Y59.012
G01 F600 X46.856 Y59.217
G01 F600 X46.634 Y59.378
G01 F600 X46.383 Y59.490
G01 F600 X46.114 Y59.547
G01 F600 X45.839 Y59.547
G00 F3000 Z3.000
G00 F3000 X39.336 Y59.547
G00 F1500 Z0
G01 F600 Z-0.110
G01 F600 X39.067 Y59.490
G01 F600 X38.816 Y59.378
G01 F600 X38.594 Y59.217
G01 F600 X38.410 Y59.012
G01 F600 X38.273 Y58.774
G01 F600 X38.188 Y58.513
G01 F600 X38.159 Y58.239
G01 F600 X38.188 Y57.966
G01 F600 X38.273 Y57.705
G01 F600 X38.410 Y57.467
G01 F600 X38.594 Y57.262
G01 F600 X38.816 Y57.101
G01 F600 X39.067 Y56.989
G01 F600 X39.336 Y56.932
G01 F600 X39.611 Y56.932
G01 F600 X39.880 Y56.989
G01 F600 X40.131 Y57.101
G01 F600 X40.354 Y57.262
G01 F600 X40.538 Y57.467
G01 F600 X40.675 Y57.705
G01 F600 X40.760 Y57.966
G01 F600 X40.789 Y58.239
G01 F600 X40.760 Y58.513
G01 F600 X40.675 Y58.774
G01 F600 X40.538 Y59.012
G01 F600 X40.354 Y59.217
G01 F600 X40.131 Y59.378
G01 F600 X39.880 Y59.490
G01 F600 X39.611 Y59.547
G01 F600 X39.336 Y59.547
G00 F3000 Z3.000
G00 F3000 X33.739 Y59.547
G00 F1500 Z0
G01 F600 Z-0.110
G01 F600 X33.470 Y59.490
G01 F600 X33.219 Y59.378
G01 F600 X32.996 Y59.217
G01 F600 X32.813 Y59.012
G01 F600 X32.675 Y58.774
G01 F600 X32.590 Y58.513
G01 F600 X32.561 Y58.239
G01 F600 X32.590 Y57.966
G01 F600 X32.675 Y57.705
G01 F600 X32.813 Y57.467
G01 F600 X32.996 Y57.262
G01 F600 X33.219 Y57.101
G01 F600 X33.470 Y56.989
G01 F600 X33.739 Y56.932
G01 F600 X34.014 Y56.932
G01 F600 X34.283 Y56.989
G01 F600 X34.534 Y57.101
G01 F600 X34.756 Y57.262
G01 F600 X34.861 Y57.379
G01 F600 X36.114 Y57.379
G01 F600 X40.327 Y53.166
G01 F600 X40.327 Y52.548
G01 F600 X40.320 Y52.482
G01 F600 X40.320 Y50.918
G01 F600 X40.343 Y50.702
G01 F600 X40.416 Y50.476
G01 F600 X40.535 Y50.270
G01 F600 X40.694 Y50.093
G01 F600 X40.887 Y49.953
G01 F600 X41.104 Y49.857
G01 F600 X41.336 Y49.807
G01 F600 X41.574 Y49.807
G01 F600 X41.806 Y49.857
G01 F600 X42.023 Y49.953
G01 F600 X42.216 Y50.093
G01 F600 X42.375 Y50.270
G01 F600 X42.494 Y50.476
G01 F600 X42.567 Y50.702
G01 F600 X42.590 Y50.918
G01 F600 X42.590 Y52.482
G01 F600 X42.567 Y52.698
G01 F600 X42.494 Y52.925
G01 F600 X42.375 Y53.130
G01 F600 X42.216 Y53.307
G01 F600 X42.023 Y53.447
G01 F600 X41.818 Y53.538
G01 F600 X41.809 Y53.631
G01 F600 X41.760 Y53.780
G01 F600 X41.682 Y53.916
G01 F600 X41.597 Y54.011
G01 F600 X36.919 Y58.688
G01 F600 X36.800 Y58.775
G01 F600 X36.657 Y58.838
G01 F600 X36.503 Y58.871
G01 F600 X35.022 Y58.871
G01 F600 X34.940 Y59.012
G01 F600 X34.756 Y59.217
G01 F600 X34.534 Y59.378
G01 F600 X34.283 Y59.490
G01 F600 X34.014 Y59.547
G01 F600 X33.739 Y59.547
G00 F3000 Z3.000
G00 F3000 X27.236 Y59.547
G00 F1500 Z0
G01 F600 Z-0.110
G01 F600 X26.967 Y59.490
G01 F600 X26.716 Y59.378
G01 F600 X26.494 Y59.217
G01 F600 X26.310 Y59.012
G01 F600 X26.173 Y58.774
G01 F600 X26.088 Y58.513
G01 F600 X26.059 Y58.239
G01 F600 X26.088 Y57.966
G01 F600 X26.173 Y57.705
G01 F600 X26.310 Y57.467
G01 F600 X26.494 Y57.262
G01 F600 X26.716 Y57.101
G01 F600 X26.967 Y56.989
G01 F600 X27.236 Y56.932
G01 F600 X27.511 Y56.932
G01 F600 X27.780 Y56.989
G01 F600 X28.031 Y57.101
G01 F600 X28.254 Y57.262
G01 F600 X28.438 Y57.467
G01 F600 X28.575 Y57.705
G01 F600 X28.660 Y57.966
G01 F600 X28.689 Y58.239
G01 F600 X28.660 Y58.513
G01 F600 X28.575 Y58.774
G01 F600 X28.438 Y59.012
G01 F600 X28.254 Y59.217
G01 F600 X28.031 Y59.378
G01 F600 X27.780 Y59.490
G01 F600 X27.511 Y59.547
G01 F600 X27.236 Y59.547
G00 F3000 Z3.000
G00 F3000 X21.261 Y58.208
G00 F1500 Z0
G01 F600 Z-0.110
G01 F600 X20.432 Y57.993
G01 F600 X19.997 Y57.256
G01 F600 X20.212 Y56.427
G01 F600 X20.949 Y55.992
G01 F600 X21.778 Y56.207
G01 F600 X22.213 Y56.944
G01 F600 X21.998 Y57.773
G01 F600 X21.261 Y58.208
G00 F3000 Z3.000
G00 F3000 X38.796 Y53.593
G00 F1500 Z0
G01 F600 Z-0.110
G01 F600 X38.564 Y53.543
G01 F600 X38.346 Y53.447
G01 F600 X38.154 Y53.307
G01 F600 X37.995 Y53.130
G01 F600 X37.876 Y52.925
G01 F600 X37.803 Y52.698
G01 F600 X37.800 Y52.671
G01 F600 X11.440 Y52.671
G01 F600 X11.318 Y53.143
G01 F600 X10.581 Y53.578
G01 F600 X9.752 Y53.363
G01 F600 X9.317 Y52.626
G01 F600 X9.531 Y51.799
G01 F600 X10.005 Y51.514
G01 F600 X10.097 Y51.447
G01 F600 X10.253 Y51.377
G01 F600 X10.356 Y51.355
G01 F600 X10.483 Y51.272
G01 F600 X10.618 Y51.212
G01 F600 X10.772 Y51.179
G01 F600 X37.780 Y51.179
G01 F600 X37.780 Y50.918
G01 F600 X37.803 Y50.702
G01 F600 X37.876 Y50.476
G01 F600 X37.995 Y50.270
G01 F600 X38.154 Y50.093
G01 F600 X38.346 Y49.953
G01 F600 X38.564 Y49.857
G01 F600 X38.796 Y49.807
G01 F600 X39.034 Y49.807
G01 F600 X39.266 Y49.857
G01 F600 X39.483 Y49.953
G01 F600 X39.676 Y50.093
G01 F600 X39.835 Y50.270
G01 F600 X39.954 Y50.476
G01 F600 X40.027 Y50.702
G01 F600 X40.050 Y50.918
G01 F600 X40.050 Y52.482
G01 F600 X40.027 Y52.698
G01 F600 X39.954 Y52.925
G01 F600 X39.835 Y53.130
G01 F600 X39.676 Y53.307
G01 F600 X39.483 Y53.447
G01 F600 X39.266 Y53.543
G01 F600 X39.034 Y53.593
G01 F600 X38.796 Y53.593
G00 F3000 Z3.000
G00 F3000 X10.581 Y51.038
G00 F1500 Z0
G01 F600 Z-0.110
G01 F600 X9.752 Y50.823
G01 F600 X9.317 Y50.086
G01 F600 X9.375 Y49.861
G01 F600 X9.341 Y49.756
G01 F600 X9.327 Y49.620
G01 F600 X9.327 Y47.584
G01 F600 X4.903 Y43.160
G01 F600 X4.818 Y43.066
G01 F600 X4.740 Y42.930
G01 F600 X4.691 Y42.781
G01 F600 X4.677 Y42.645
G01 F600 X4.677 Y22.456
G01 F600 X4.691 Y22.319
G01 F600 X4.740 Y22.170
G01 F600 X4.818 Y22.034
G01 F600 X4.904 Y21.939
G01 F600 X11.470 Y15.373
G01 F600 X11.366 Y15.195
G01 F600 X11.293 Y14.968
G01 F600 X11.270 Y14.752
G01 F600 X11.270 Y13.188
G01 F600 X11.293 Y12.972
G01 F600 X11.366 Y12.745
G01 F600 X11.485 Y12.540
G01 F600 X11.644 Y12.363
G01 F600 X11.652 Y12.357
G01 F600 X11.652 Y10.056
G01 F600 X11.666 Y9.919
G01 F600 X11.715 Y9.770
G01 F600 X11.793 Y9.634
G01 F600 X11.879 Y9.539
G01 F600 X12.427 Y8.991
G01 F600 X12.427 Y7.731
G01 F600 X12.441 Y7.594
G01 F600 X12.490 Y7.445
G01 F600 X12.540 Y7.358
G01 F600 X12.540 Y6.838
G01 F600 X12.563 Y6.622
G01 F600 X12.636 Y6.396
G01 F600 X12.755 Y6.190
G01 F600 X12.914 Y6.013
G01 F600 X13.107 Y5.873
G01 F600 X13.324 Y5.777
G01 F600 X13.556 Y5.727
G01 F600 X13.794 Y5.727
G01 F600 X14.026 Y5.777
G01 F600 X14.071 Y5.797
G01 F600 X15.006 Y4.862
G01 F600 X15.125 Y4.776
G01 F600 X15.268 Y4.712
G01 F600 X15.422 Y4.679
G01 F600 X31.853 Y4.679
G01 F600 X32.007 Y4.712
G01 F600 X32.150 Y4.776
G01 F600 X32.269 Y4.862
G01 F600 X35.961 Y8.554
G01 F600 X44.639 Y8.554
G01 F600 X45.647 Y7.546
G01 F600 X45.583 Y7.348
G01 F600 X45.560 Y7.132
G01 F600 X45.560 Y5.568
G01 F600 X45.583 Y5.352
G01 F600 X45.656 Y5.126
G01 F600 X45.775 Y4.920
G01 F600 X45.934 Y4.743
G01 F600 X46.127 Y4.603
G01 F600 X46.344 Y4.507
G01 F600 X46.576 Y4.457
G01 F600 X46.814 Y4.457
G01 F600 X47.046 Y4.507
G01 F600 X47.264 Y4.603
G01 F600 X47.456 Y4.743
G01 F600 X47.615 Y4.920
G01 F600 X47.734 Y5.126
G01 F600 X47.807 Y5.352
G01 F600 X47.830 Y5.568
G01 F600 X47.830 Y7.132
G01 F600 X47.807 Y7.348
G01 F600 X47.734 Y7.575
G01 F600 X47.615 Y7.780
G01 F600 X47.456 Y7.957
G01 F600 X47.264 Y8.097
G01 F600 X47.126 Y8.158
G01 F600 X47.107 Y8.191
G01 F600 X47.022 Y8.286
G01 F600 X45.444 Y9.863
G01 F600 X45.325 Y9.950
G01 F600 X45.182 Y10.013
G01 F600 X45.028 Y10.046
G01 F600 X35.572 Y10.046
G01 F600 X35.418 Y10.013
G01 F600 X35.275 Y9.950
G01 F600 X35.154 Y9.861
G01 F600 X31.578 Y6.171
G01 F600 X15.811 Y6.171
G01 F600 X14.810 Y7.172
G01 F600 X14.810 Y8.402
G01 F600 X14.787 Y8.618
G01 F600 X14.714 Y8.845
G01 F600 X14.595 Y9.050
G01 F600 X14.436 Y9.227
G01 F600 X14.244 Y9.367
G01 F600 X14.026 Y9.463
G01 F600 X13.897 Y9.491
G01 F600 X13.860 Y9.605
G01 F600 X13.782 Y9.741
G01 F600 X13.697 Y9.835
G01 F600 X13.149 Y10.383
G01 F600 X13.158 Y12.357
G01 F600 X13.166 Y12.363
G01 F600 X13.325 Y12.540
G01 F600 X13.444 Y12.745
G01 F600 X13.517 Y12.972
G01 F600 X13.540 Y13.188
G01 F600 X13.540 Y14.752
G01 F600 X13.517 Y14.968
G01 F600 X13.444 Y15.195
G01 F600 X13.325 Y15.400
G01 F600 X13.164 Y15.579
G01 F600 X13.140 Y15.596
G01 F600 X13.134 Y15.656
G01 F600 X13.085 Y15.805
G01 F600 X13.007 Y15.941
G01 F600 X12.922 Y16.036
G01 F600 X6.173 Y22.784
G01 F600 X6.173 Y42.316
G01 F600 X10.597 Y46.739
G01 F600 X10.682 Y46.834
G01 F600 X10.760 Y46.970
G01 F600 X10.809 Y47.119
G01 F600 X10.823 Y47.256
G01 F600 X10.823 Y48.854
G01 F600 X19.839 Y48.854
G01 F600 X22.502 Y46.191
G01 F600 X22.502 Y45.706
G01 F600 X22.516 Y45.569
G01 F600 X22.565 Y45.420
G01 F600 X22.643 Y45.284
G01 F600 X22.748 Y45.168
G01 F600 X22.875 Y45.075
G01 F600 X23.018 Y45.012
G01 F600 X23.114 Y44.991
G01 F600 X23.146 Y44.955
G01 F600 X23.321 Y44.829
G01 F600 X23.517 Y44.741
G01 F600 X23.728 Y44.697
G01 F600 X23.943 Y44.697
G01 F600 X24.153 Y44.741
G01 F600 X24.350 Y44.829
G01 F600 X24.524 Y44.955
G01 F600 X24.668 Y45.115
G01 F600 X24.775 Y45.301
G01 F600 X24.842 Y45.506
G01 F600 X24.864 Y45.720
G01 F600 X24.842 Y45.934
G01 F600 X24.775 Y46.139
G01 F600 X24.668 Y46.325
G01 F600 X24.524 Y46.485
G01 F600 X24.350 Y46.611
G01 F600 X24.153 Y46.699
G01 F600 X23.956 Y46.741
G01 F600 X23.935 Y46.805
G01 F600 X23.857 Y46.941
G01 F600 X23.772 Y47.035
G01 F600 X20.644 Y50.163
G01 F600 X20.525 Y50.250
G01 F600 X20.382 Y50.313
G01 F600 X20.228 Y50.346
G01 F600 X11.385 Y50.346
G01 F600 X11.318 Y50.603
G01 F600 X10.581 Y51.038
G00 F3000 Z3.000
G00 F3000 X16.108 Y46.743
G00 F1500 Z0
G01 F600 Z-0.110
G01 F600 X15.897 Y46.699
G01 F600 X15.700 Y46.611
G01 F600 X15.526 Y46.485
G01 F600 X15.383 Y46.325
G01 F600 X15.275 Y46.139
G01 F600 X15.208 Y45.934
G01 F600 X15.186 Y45.720
G01 F600 X15.208 Y45.506
G01 F600 X15.275 Y45.301
G01 F600 X15.383 Y45.115
G01 F600 X15.383 Y45.115
G01 F600 X13.639 Y43.371
G01 F600 X9.222 Y43.371
G01 F600 X9.068 Y43.338
G01 F600 X8.925 Y43.275
G01 F600 X8.805 Y43.187
G01 F600 X8.661 Y43.041
G01 F600 X7.714 Y43.041
G01 F600 X7.482 Y42.991
G01 F600 X7.264 Y42.895
G01 F600 X7.072 Y42.755
G01 F600 X6.913 Y42.578
G01 F600 X6.794 Y42.373
G01 F600 X6.721 Y42.147
G01 F600 X6.696 Y41.910
G01 F600 X6.721 Y41.674
G01 F600 X6.794 Y41.448
G01 F600 X6.913 Y41.242
G01 F600 X7.072 Y41.065
G01 F600 X7.264 Y40.925
G01 F600 X7.482 Y40.829
G01 F600 X7.714 Y40.779
G01 F600 X9.476 Y40.779
G01 F600 X9.708 Y40.829
G01 F600 X9.926 Y40.925
G01 F600 X10.118 Y41.065
G01 F600 X10.277 Y41.242
G01 F600 X10.396 Y41.448
G01 F600 X10.469 Y41.674
G01 F600 X10.491 Y41.879
G01 F600 X14.028 Y41.879
G01 F600 X14.182 Y41.912
G01 F600 X14.325 Y41.976
G01 F600 X14.444 Y42.062
G01 F600 X16.797 Y44.415
G01 F600 X16.882 Y44.509
G01 F600 X16.960 Y44.645
G01 F600 X17.009 Y44.794
G01 F600 X17.023 Y44.929
G01 F600 X17.024 Y45.089
G01 F600 X17.047 Y45.115
G01 F600 X17.155 Y45.301
G01 F600 X17.222 Y45.506
G01 F600 X17.244 Y45.720
G01 F600 X17.222 Y45.934
G01 F600 X17.155 Y46.139
G01 F600 X17.047 Y46.325
G01 F600 X16.904 Y46.485
G01 F600 X16.730 Y46.611
G01 F600 X16.533 Y46.699
G01 F600 X16.323 Y46.743
G01 F600 X16.108 Y46.743
G00 F3000 Z3.000
G00 F3000 X44.047 Y46.743
G00 F1500 Z0
G01 F600 Z-0.110
G01 F600 X43.837 Y46.699
G01 F600 X43.641 Y46.611
G01 F600 X43.466 Y46.485
G01 F600 X43.323 Y46.325
G01 F600 X43.215 Y46.139
G01 F600 X43.148 Y45.934
G01 F600 X43.126 Y45.720
G01 F600 X43.148 Y45.506
G01 F600 X43.215 Y45.301
G01 F600 X43.323 Y45.115
G01 F600 X43.466 Y44.955
G01 F600 X43.641 Y44.829
G01 F600 X43.837 Y44.741
G01 F600 X44.047 Y44.697
G01 F600 X44.263 Y44.697
G01 F600 X44.473 Y44.741
G01 F600 X44.669 Y44.829
G01 F600 X44.844 Y44.955
G01 F600 X44.988 Y45.115
G01 F600 X45.095 Y45.301
G01 F600 X45.162 Y45.506
G01 F600 X45.184 Y45.720
G01 F600 X45.162 Y45.934
G01 F600 X45.095 Y46.139
G01 F600 X44.988 Y46.325
G01 F600 X44.844 Y46.485
G01 F600 X44.669 Y46.611
G01 F600 X44.473 Y46.699
G01 F600 X44.263 Y46.743
G01 F600 X44.047 Y46.743
G00 F3000 Z3.000
G00 F3000 X46.588 Y46.743
G00 F1500 Z0
G01 F600 Z-0.110
G01 F600 X46.377 Y46.699
G01 F600 X46.181 Y46.611
G01 F600 X46.006 Y46.485
G01 F600 X45.863 Y46.325
G01 F600 X45.755 Y46.139
G01 F600 X45.688 Y45.934
G01 F600 X45.666 Y45.720
G01 F600 X45.688 Y45.506
G01 F600 X45.755 Y45.301
G01 F600 X45.863 Y45.115
G01 F600 X46.006 Y44.955
G01 F600 X46.181 Y44.829
G01 F600 X46.377 Y44.741
G01 F600 X46.588 Y44.697
G01 F600 X46.803 Y44.697
G01 F600 X47.013 Y44.741
G01 F600 X47.210 Y44.829
G01 F600 X47.384 Y44.955
G01 F600 X47.528 Y45.115
G01 F600 X47.635 Y45.301
G01 F600 X47.702 Y45.506
G01 F600 X47.724 Y45.720
G01 F600 X47.702 Y45.934
G01 F600 X47.635 Y46.139
G01 F600 X47.528 Y46.325
G01 F600 X47.384 Y46.485
G01 F600 X47.210 Y46.611
G01 F600 X47.013 Y46.699
G01 F600 X46.803 Y46.743
G01 F600 X46.588 Y46.743
G00 F3000 Z3.000
G00 F3000 X38.968 Y46.743
G00 F1500 Z0
G01 F600 Z-0.110
G01 F600 X38.757 Y46.699
G01 F600 X38.561 Y46.611
G01 F600 X38.386 Y46.485
G01 F600 X38.242 Y46.325
G01 F600 X38.135 Y46.139
G01 F600 X38.068 Y45.934
G01 F600 X38.046 Y45.720
G01 F600 X38.068 Y45.506
G01 F600 X38.135 Y45.301
G01 F600 X38.242 Y45.115
G01 F600 X38.386 Y44.955
G01 F600 X38.561 Y44.829
G01 F600 X38.757 Y44.741
G01 F600 X38.968 Y44.697
G01 F600 X39.183 Y44.697
G01 F600 X39.393 Y44.741
G01 F600 X39.590 Y44.829
G01 F600 X39.764 Y44.955
G01 F600 X39.907 Y45.115
G01 F600 X40.015 Y45.301
G01 F600 X40.082 Y45.506
G01 F600 X40.104 Y45.720
G01 F600 X40.082 Y45.934
G01 F600 X40.015 Y46.139
G01 F600 X39.907 Y46.325
G01 F600 X39.764 Y46.485
G01 F600 X39.590 Y46.611
G01 F600 X39.393 Y46.699
G01 F600 X39.183 Y46.743
G01 F600 X38.968 Y46.743
G00 F3000 Z3.000
G00 F3000 X41.508 Y46.743
G00 F1500 Z0
G01 F600 Z-0.110
G01 F600 X41.297 Y46.699
G01 F600 X41.101 Y46.611
G01 F600 X40.926 Y46.485
G01 F600 X40.782 Y46.325
G01 F600 X40.675 Y46.139
G01 F600 X40.608 Y45.934
G01 F600 X40.586 Y45.720
G01 F600 X40.608 Y45.506
G01 F600 X40.675 Y45.301
G01 F600 X40.782 Y45.115
G01 F600 X40.926 Y44.955
G01 F600 X41.101 Y44.829
G01 F600 X41.297 Y44.741
G01 F600 X41.508 Y44.697
G01 F600 X41.723 Y44.697
G01 F600 X41.933 Y44.741
G01 F600 X42.130 Y44.829
G01 F600 X42.304 Y44.955
G01 F600 X42.448 Y45.115
G01 F600 X42.555 Y45.301
G01 F600 X42.622 Y45.506
G01 F600 X42.644 Y45.720
G01 F600 X42.622 Y45.934
G01 F600 X42.555 Y46.139
G01 F600 X42.448 Y46.325
G01 F600 X42.304 Y46.485
G01 F600 X42.130 Y46.611
G01 F600 X41.933 Y46.699
G01 F600 X41.723 Y46.743
G01 F600 X41.508 Y46.743
G00 F3000 Z3.000
G00 F3000 X49.128 Y46.743
G00 F1500 Z0
G01 F600 Z-0.110
G01 F600 X48.917 Y46.699
G01 F600 X48.721 Y46.611
G01 F600 X48.546 Y46.485
G01 F600 X48.403 Y46.325
G01 F600 X48.295 Y46.139
G01 F600 X48.228 Y45.934
G01 F600 X48.206 Y45.720
G01 F600 X48.228 Y45.506
G01 F600 X48.295 Y45.301
G01 F600 X48.403 Y45.115
G01 F600 X48.546 Y44.955
G01 F600 X48.721 Y44.829
G01 F600 X48.917 Y44.741
G01 F600 X49.128 Y44.697
G01 F600 X49.343 Y44.697
G01 F600 X49.553 Y44.741
G01 F600 X49.750 Y44.829
G01 F600 X49.924 Y44.955
G01 F600 X50.068 Y45.115
G01 F600 X50.175 Y45.301
G01 F600 X50.242 Y45.506
G01 F600 X50.264 Y45.720
G01 F600 X50.242 Y45.934
G01 F600 X50.175 Y46.139
G01 F600 X50.068 Y46.325
G01 F600 X49.924 Y46.485
G01 F600 X49.750 Y46.611
G01 F600 X49.553 Y46.699
G01 F600 X49.343 Y46.743
G01 F600 X49.128 Y46.743
G00 F3000 Z3.000
G00 F3000 X51.668 Y46.743
G00 F1500 Z0
G01 F600 Z-0.110
G01 F600 X51.457 Y46.699
G01 F600 X51.261 Y46.611
G01 F600 X51.086 Y46.485
G01 F600 X50.943 Y46.325
G01 F600 X50.835 Y46.139
G01 F600 X50.768 Y45.934
G01 F600 X50.746 Y45.720
G01 F600 X50.768 Y45.506
G01 F600 X50.835 Y45.301
G01 F600 X50.943 Y45.115
G01 F600 X51.086 Y44.955
G01 F600 X51.261 Y44.829
G01 F600 X51.457 Y44.741
G01 F600 X51.668 Y44.697
G01 F600 X51.883 Y44.697
G01 F600 X52.093 Y44.741
G01 F600 X52.290 Y44.829
G01 F600 X52.464 Y44.955
G01 F600 X52.608 Y45.115
G01 F600 X52.715 Y45.301
G01 F600 X52.782 Y45.506
G01 F600 X52.804 Y45.720
G01 F600 X52.782 Y45.934
G01 F600 X52.715 Y46.139
G01 F600 X52.608 Y46.325
G01 F600 X52.464 Y46.485
G01 F600 X52.290 Y46.611
G01 F600 X52.093 Y46.699
G01 F600 X51.883 Y46.743
G01 F600 X51.668 Y46.743
G00 F3000 Z3.000
G00 F3000 X26.268 Y46.743
G00 F1500 Z0
G01 F600 Z-0.110
G01 F600 X26.057 Y46.699
G01 F600 X25.861 Y46.611
G01 F600 X25.686 Y46.485
G01 F600 X25.543 Y46.325
G01 F600 X25.435 Y46.139
G01 F600 X25.368 Y45.934
G01 F600 X25.346 Y45.720
G01 F600 X25.368 Y45.506
G01 F600 X25.435 Y45.301
G01 F600 X25.543 Y45.115
G01 F600 X25.686 Y44.955
G01 F600 X25.861 Y44.829
G01 F600 X26.057 Y44.741
G01 F600 X26.268 Y44.697
G01 F600 X26.483 Y44.697
G01 F600 X26.693 Y44.741
G01 F600 X26.890 Y44.829
G01 F600 X27.064 Y44.955
G01 F600 X27.207 Y45.115
G01 F600 X27.315 Y45.301
G01 F600 X27.382 Y45.506
G01 F600 X27.404 Y45.720
G01 F600 X27.382 Y45.934
G01 F600 X27.315 Y46.139
G01 F600 X27.207 Y46.325
G01 F600 X27.064 Y46.485
G01 F600 X26.890 Y46.611
G01 F600 X26.693 Y46.699
G01 F600 X26.483 Y46.743
G01 F600 X26.268 Y46.743
G00 F3000 Z3.000
G00 F3000 X18.648 Y46.743
G00 F1500 Z0
G01 F600 Z-0.110
G01 F600 X18.437 Y46.699
G01 F600 X18.241 Y46.611
G01 F600 X18.066 Y46.485
G01 F600 X17.922 Y46.325
G01 F600 X17.815 Y46.139
G01 F600 X17.748 Y45.934
G01 F600 X17.726 Y45.720
G01 F600 X17.748 Y45.506
G01 F600 X17.815 Y45.301
G01 F600 X17.844 Y45.251
G01 F600 X12.864 Y40.271
G01 F600 X10.041 Y40.271
G01 F600 X9.926 Y40.355
G01 F600 X9.708 Y40.451
G01 F600 X9.476 Y40.501
G01 F600 X7.714 Y40.501
G01 F600 X7.482 Y40.451
G01 F600 X7.264 Y40.355
G01 F600 X7.072 Y40.215
G01 F600 X6.913 Y40.038
G01 F600 X6.794 Y39.833
G01 F600 X6.721 Y39.607
G01 F600 X6.696 Y39.370
G01 F600 X6.721 Y39.134
G01 F600 X6.794 Y38.907
G01 F600 X6.913 Y38.702
G01 F600 X7.072 Y38.525
G01 F600 X7.264 Y38.385
G01 F600 X7.482 Y38.289
G01 F600 X7.714 Y38.239
G01 F600 X9.476 Y38.239
G01 F600 X9.708 Y38.289
G01 F600 X9.926 Y38.385
G01 F600 X10.118 Y38.525
G01 F600 X10.277 Y38.702
G01 F600 X10.322 Y38.779
G01 F600 X13.253 Y38.779
G01 F600 X13.407 Y38.812
G01 F600 X13.550 Y38.876
G01 F600 X13.669 Y38.962
G01 F600 X19.122 Y44.415
G01 F600 X19.207 Y44.509
G01 F600 X19.285 Y44.645
G01 F600 X19.334 Y44.794
G01 F600 X19.343 Y44.882
G01 F600 X19.444 Y44.955
G01 F600 X19.588 Y45.115
G01 F600 X19.695 Y45.301
G01 F600 X19.762 Y45.506
G01 F600 X19.784 Y45.720
G01 F600 X19.762 Y45.934
G01 F600 X19.695 Y46.139
G01 F600 X19.588 Y46.325
G01 F600 X19.444 Y46.485
G01 F600 X19.270 Y46.611
G01 F600 X19.073 Y46.699
G01 F600 X18.863 Y46.743
G01 F600 X18.648 Y46.743
G00 F3000 Z3.000
G00 F3000 X21.188 Y46.743
G00 F1500 Z0
G01 F600 Z-0.110
G01 F600 X20.977 Y46.699
G01 F600 X20.780 Y46.611
G01 F600 X20.606 Y46.485
G01 F600 X20.463 Y46.325
G01 F600 X20.355 Y46.139
G01 F600 X20.288 Y45.934
G01 F600 X20.266 Y45.720
G01 F600 X20.288 Y45.506
G01 F600 X20.355 Y45.301
G01 F600 X20.463 Y45.115
G01 F600 X20.606 Y44.955
G01 F600 X20.780 Y44.829
G01 F600 X20.977 Y44.741
G01 F600 X21.188 Y44.697
G01 F600 X21.402 Y44.697
G01 F600 X21.613 Y44.741
G01 F600 X21.809 Y44.829
G01 F600 X21.984 Y44.955
G01 F600 X22.128 Y45.115
G01 F600 X22.235 Y45.301
G01 F600 X22.302 Y45.506
G01 F600 X22.324 Y45.720
G01 F600 X22.302 Y45.934
G01 F600 X22.235 Y46.139
G01 F600 X22.128 Y46.325
G01 F600 X21.984 Y46.485
G01 F600 X21.809 Y46.611
G01 F600 X21.613 Y46.699
G01 F600 X21.402 Y46.743
G01 F600 X21.188 Y46.743
G00 F3000 Z3.000
G00 F3000 X33.888 Y46.743
G00 F1500 Z0
G01 F600 Z-0.110
G01 F600 X33.677 Y46.699
G01 F600 X33.480 Y46.611
G01 F600 X33.306 Y46.485
G01 F600 X33.163 Y46.325
G01 F600 X33.055 Y46.139
G01 F600 X32.988 Y45.934
G01 F600 X32.966 Y45.720
G01 F600 X32.973 Y45.655
G01 F600 X21.389 Y34.071
G01 F600 X13.097 Y34.071
G01 F600 X12.943 Y34.038
G01 F600 X12.800 Y33.974
G01 F600 X12.681 Y33.888
G01 F600 X8.003 Y29.210
G01 F600 X7.918 Y29.116
G01 F600 X7.840 Y28.980
G01 F600 X7.791 Y28.831
G01 F600 X7.777 Y28.695
G01 F600 X7.777 Y21.681
G01 F600 X7.791 Y21.544
G01 F600 X7.840 Y21.395
G01 F600 X7.918 Y21.259
G01 F600 X8.004 Y21.164
G01 F600 X13.931 Y15.237
G01 F600 X13.906 Y15.195
G01 F600 X13.833 Y14.968
G01 F600 X13.810 Y14.752
G01 F600 X13.810 Y13.188
G01 F600 X13.833 Y12.972
G01 F600 X13.906 Y12.745
G01 F600 X14.025 Y12.540
G01 F600 X14.184 Y12.363
G01 F600 X14.377 Y12.223
G01 F600 X14.594 Y12.127
G01 F600 X14.826 Y12.077
G01 F600 X15.064 Y12.077
G01 F600 X15.296 Y12.127
G01 F600 X15.514 Y12.223
G01 F600 X15.706 Y12.363
G01 F600 X15.865 Y12.540
G01 F600 X15.984 Y12.745
G01 F600 X16.057 Y12.972
G01 F600 X16.080 Y13.188
G01 F600 X16.080 Y14.251
G01 F600 X16.116 Y14.300
G01 F600 X16.185 Y14.420
G01 F600 X16.234 Y14.569
G01 F600 X16.250 Y14.725
G01 F600 X16.234 Y14.881
G01 F600 X16.185 Y15.030
G01 F600 X16.107 Y15.166
G01 F600 X16.022 Y15.261
G01 F600 X9.273 Y22.009
G01 F600 X9.273 Y28.366
G01 F600 X13.486 Y32.579
G01 F600 X21.778 Y32.579
G01 F600 X21.932 Y32.612
G01 F600 X22.075 Y32.675
G01 F600 X22.194 Y32.762
G01 F600 X34.136 Y44.704
G01 F600 X34.313 Y44.741
G01 F600 X34.510 Y44.829
G01 F600 X34.684 Y44.955
G01 F600 X34.828 Y45.115
G01 F600 X34.935 Y45.301
G01 F600 X35.002 Y45.506
G01 F600 X35.024 Y45.720
G01 F600 X35.002 Y45.934
G01 F600 X34.935 Y46.139
G01 F600 X34.828 Y46.325
G01 F600 X34.684 Y46.485
G01 F600 X34.510 Y46.611
G01 F600 X34.313 Y46.699
G01 F600 X34.102 Y46.743
G01 F600 X33.888 Y46.743
G00 F3000 Z3.000
G00 F3000 X36.428 Y46.743
G00 F1500 Z0
G01 F600 Z-0.110
G01 F600 X36.217 Y46.699
G01 F600 X36.020 Y46.611
G01 F600 X35.846 Y46.485
G01 F600 X35.703 Y46.325
G01 F600 X35.595 Y46.139
G01 F600 X35.528 Y45.934
G01 F600 X35.506 Y45.720
G01 F600 X35.528 Y45.506
G01 F600 X35.595 Y45.301
G01 F600 X35.703 Y45.115
G01 F600 X35.846 Y44.955
G01 F600 X36.020 Y44.829
G01 F600 X36.217 Y44.741
G01 F600 X36.428 Y44.697
G01 F600 X36.642 Y44.697
G01 F600 X36.853 Y44.741
G01 F600 X37.050 Y44.829
G01 F600 X37.224 Y44.955
G01 F600 X37.367 Y45.115
G01 F600 X37.475 Y45.301
G01 F600 X37.542 Y45.506
G01 F600 X37.564 Y45.720
G01 F600 X37.542 Y45.934
G01 F600 X37.475 Y46.139
G01 F600 X37.367 Y46.325
G01 F600 X37.224 Y46.485
G01 F600 X37.050 Y46.611
G01 F600 X36.853 Y46.699
G01 F600 X36.642 Y46.743
G01 F600 X36.428 Y46.743
G00 F3000 Z3.000
G00 F3000 X28.808 Y46.743
G00 F1500 Z0
G01 F600 Z-0.110
G01 F600 X28.597 Y46.699
G01 F600 X28.401 Y46.611
G01 F600 X28.226 Y46.485
G01 F600 X28.082 Y46.325
G01 F600 X27.975 Y46.139
G01 F600 X27.908 Y45.934
G01 F600 X27.886 Y45.720
G01 F600 X27.908 Y45.506
G01 F600 X27.975 Y45.301
G01 F600 X28.082 Y45.115
G01 F600 X28.226 Y44.955
G01 F600 X28.401 Y44.829
G01 F600 X28.597 Y44.741
G01 F600 X28.808 Y44.697
G01 F600 X29.023 Y44.697
G01 F600 X29.233 Y44.741
G01 F600 X29.430 Y44.829
G01 F600 X29.604 Y44.955
G01 F600 X29.748 Y45.115
G01 F600 X29.855 Y45.301
G01 F600 X29.922 Y45.506
G01 F600 X29.944 Y45.720
G01 F600 X29.922 Y45.934
G01 F600 X29.855 Y46.139
G01 F600 X29.748 Y46.325
G01 F600 X29.604 Y46.485
G01 F600 X29.430 Y46.611
G01 F600 X29.233 Y46.699
G01 F600 X29.023 Y46.743
G01 F600 X28.808 Y46.743
G00 F3000 Z3.000
G00 F3000 X31.348 Y46.743
G00 F1500 Z0
G01 F600 Z-0.110
G01 F600 X31.137 Y46.699
G01 F600 X30.941 Y46.611
G01 F600 X30.766 Y46.485
G01 F600 X30.623 Y46.325
G01 F600 X30.515 Y46.139
G01 F600 X30.448 Y45.934
G01 F600 X30.426 Y45.720
G01 F600 X30.448 Y45.506
G01 F600 X30.515 Y45.301
G01 F600 X30.623 Y45.115
G01 F600 X30.766 Y44.955
G01 F600 X30.941 Y44.829
G01 F600 X31.137 Y44.741
G01 F600 X31.348 Y44.697
G01 F600 X31.563 Y44.697
G01 F600 X31.773 Y44.741
G01 F600 X31.970 Y44.829
G01 F600 X32.144 Y44.955
G01 F600 X32.288 Y45.115
G01 F600 X32.395 Y45.301
G01 F600 X32.462 Y45.506
G01 F600 X32.484 Y45.720
G01 F600 X32.462 Y45.934
G01 F600 X32.395 Y46.139
G01 F600 X32.288 Y46.325
G01 F600 X32.144 Y46.485
G01 F600 X31.970 Y46.611
G01 F600 X31.773 Y46.699
G01 F600 X31.563 Y46.743
G01 F600 X31.348 Y46.743
G00 F3000 Z3.000
G00 F3000 X50.748 Y31.507
G00 F1500 Z0
G01 F600 Z-0.110
G01 F600 X50.748 Y29.453
G01 F600 X52.802 Y29.453
G01 F600 X52.802 Y31.507
G01 F600 X50.748 Y31.507
G00 F3000 Z3.000
G00 F3000 X26.268 Y31.503
G00 F1500 Z0
G01 F600 Z-0.110
G01 F600 X26.057 Y31.459
G01 F600 X25.861 Y31.371
G01 F600 X25.686 Y31.245
G01 F600 X25.543 Y31.085
G01 F600 X25.435 Y30.899
G01 F600 X25.368 Y30.694
G01 F600 X25.346 Y30.480
G01 F600 X25.368 Y30.266
G01 F600 X25.435 Y30.061
G01 F600 X25.543 Y29.875
G01 F600 X25.686 Y29.715
G01 F600 X25.861 Y29.589
G01 F600 X26.057 Y29.501
G01 F600 X26.268 Y29.457
G01 F600 X26.483 Y29.457
G01 F600 X26.693 Y29.501
G01 F600 X26.890 Y29.589
G01 F600 X27.064 Y29.715
G01 F600 X27.207 Y29.875
G01 F600 X27.315 Y30.061
G01 F600 X27.382 Y30.266
G01 F600 X27.404 Y30.480
G01 F600 X27.382 Y30.694
G01 F600 X27.315 Y30.899
G01 F600 X27.207 Y31.085
G01 F600 X27.064 Y31.245
G01 F600 X26.890 Y31.371
G01 F600 X26.693 Y31.459
G01 F600 X26.483 Y31.503
G01 F600 X26.268 Y31.503
G00 F3000 Z3.000
G00 F3000 X23.728 Y31.503
G00 F1500 Z0
G01 F600 Z-0.110
G01 F600 X23.517 Y31.459
G01 F600 X23.321 Y31.371
G01 F600 X23.146 Y31.245
G01 F600 X23.003 Y31.085
G01 F600 X22.895 Y30.899
G01 F600 X22.828 Y30.694
G01 F600 X22.806 Y30.480
G01 F600 X22.828 Y30.266
G01 F600 X22.895 Y30.061
G01 F600 X23.003 Y29.875
G01 F600 X23.146 Y29.715
G01 F600 X23.321 Y29.589
G01 F600 X23.517 Y29.501
G01 F600 X23.728 Y29.457
G01 F600 X23.943 Y29.457
G01 F600 X24.153 Y29.501
G01 F600 X24.350 Y29.589
G01 F600 X24.524 Y29.715
G01 F600 X24.668 Y29.875
G01 F600 X24.775 Y30.061
G01 F600 X24.842 Y30.266
G01 F600 X24.864 Y30.480
G01 F600 X24.842 Y30.694
G01 F600 X24.775 Y30.899
G01 F600 X24.668 Y31.085
G01 F600 X24.524 Y31.245
G01 F600 X24.350 Y31.371
G01 F600 X24.153 Y31.459
G01 F600 X23.943 Y31.503
G01 F600 X23.728 Y31.503
G00 F3000 Z3.000
G00 F3000 X31.348 Y31.503
G00 F1500 Z0
G01 F600 Z-0.110
G01 F600 X31.137 Y31.459
G01 F600 X30.941 Y31.371
G01 F600 X30.766 Y31.245
G01 F600 X30.623 Y31.085
G01 F600 X30.515 Y30.899
G01 F600 X30.465 Y30.746
G01 F600 X30.393 Y30.666
G01 F600 X30.315 Y30.530
G01 F600 X30.266 Y30.381
G01 F600 X30.252 Y30.245
G01 F600 X30.252 Y28.209
G01 F600 X24.278 Y22.236
G01 F600 X24.193 Y22.141
G01 F600 X24.115 Y22.005
G01 F600 X24.066 Y21.856
G01 F600 X24.052 Y21.720
G01 F600 X24.052 Y21.501
G01 F600 X23.993 Y21.318
G01 F600 X23.970 Y21.102
G01 F600 X23.970 Y19.538
G01 F600 X23.993 Y19.322
G01 F600 X24.052 Y19.139
G01 F600 X24.052 Y11.341
G01 F600 X23.993 Y11.158
G01 F600 X23.970 Y10.942
G01 F600 X23.970 Y9.378
G01 F600 X23.993 Y9.162
G01 F600 X24.066 Y8.936
G01 F600 X24.185 Y8.730
G01 F600 X24.344 Y8.553
G01 F600 X24.537 Y8.413
G01 F600 X24.754 Y8.317
G01 F600 X24.986 Y8.267
G01 F600 X25.224 Y8.267
G01 F600 X25.456 Y8.317
G01 F600 X25.674 Y8.413
G01 F600 X25.866 Y8.553
G01 F600 X26.025 Y8.730
G01 F600 X26.144 Y8.936
G01 F600 X26.217 Y9.162
G01 F600 X26.240 Y9.378
G01 F600 X26.240 Y10.942
G01 F600 X26.217 Y11.158
G01 F600 X26.144 Y11.385
G01 F600 X26.025 Y11.590
G01 F600 X25.866 Y11.767
G01 F600 X25.674 Y11.907
G01 F600 X25.548 Y11.963
G01 F600 X25.557 Y18.521
G01 F600 X25.674 Y18.573
G01 F600 X25.866 Y18.713
G01 F600 X26.025 Y18.890
G01 F600 X26.144 Y19.096
G01 F600 X26.217 Y19.322
G01 F600 X26.240 Y19.538
G01 F600 X26.240 Y21.102
G01 F600 X26.217 Y21.318
G01 F600 X26.144 Y21.544
G01 F600 X26.025 Y21.750
G01 F600 X25.969 Y21.812
G01 F600 X31.522 Y27.364
G01 F600 X31.607 Y27.459
G01 F600 X31.685 Y27.595
G01 F600 X31.734 Y27.744
G01 F600 X31.748 Y27.879
G01 F600 X31.758 Y29.498
G01 F600 X31.773 Y29.501
G01 F600 X31.970 Y29.589
G01 F600 X32.144 Y29.715
G01 F600 X32.288 Y29.875
G01 F600 X32.395 Y30.061
G01 F600 X32.462 Y30.266
G01 F600 X32.484 Y30.480
G01 F600 X32.462 Y30.694
G01 F600 X32.395 Y30.899
G01 F600 X32.288 Y31.085
G01 F600 X32.144 Y31.245
G01 F600 X31.970 Y31.371
G01 F600 X31.773 Y31.459
G01 F600 X31.563 Y31.503
G01 F600 X31.348 Y31.503
G00 F3000 Z3.000
G00 F3000 X28.808 Y31.503
G00 F1500 Z0
G01 F600 Z-0.110
G01 F600 X28.597 Y31.459
G01 F600 X28.401 Y31.371
G01 F600 X28.226 Y31.245
G01 F600 X28.082 Y31.085
G01 F600 X27.975 Y30.899
G01 F600 X27.908 Y30.694
G01 F600 X27.886 Y30.480
G01 F600 X27.908 Y30.266
G01 F600 X27.975 Y30.061
G01 F600 X28.082 Y29.875
G01 F600 X28.226 Y29.715
G01 F600 X28.401 Y29.589
G01 F600 X28.597 Y29.501
G01 F600 X28.808 Y29.457
G01 F600 X29.023 Y29.457
G01 F600 X29.233 Y29.501
G01 F600 X29.430 Y29.589
G01 F600 X29.604 Y29.715
G01 F600 X29.748 Y29.875
G01 F600 X29.855 Y30.061
G01 F600 X29.922 Y30.266
G01 F600 X29.944 Y30.480
G01 F600 X29.922 Y30.694
G01 F600 X29.855 Y30.899
G01 F600 X29.748 Y31.085
G01 F600 X29.604 Y31.245
G01 F600 X29.430 Y31.371
G01 F600 X29.233 Y31.459
G01 F600 X29.023 Y31.503
G01 F600 X28.808 Y31.503
G00 F3000 Z3.000
G00 F3000 X16.108 Y31.503
G00 F1500 Z0
G01 F600 Z-0.110
G01 F600 X15.897 Y31.459
G01 F600 X15.700 Y31.371
G01 F600 X15.526 Y31.245
G01 F600 X15.383 Y31.085
G01 F600 X15.275 Y30.899
G01 F600 X15.208 Y30.694
G01 F600 X15.186 Y30.480
G01 F600 X15.208 Y30.266
G01 F600 X15.275 Y30.061
G01 F600 X15.383 Y29.875
G01 F600 X15.527 Y29.715
G01 F600 X15.527 Y25.884
G01 F600 X14.247 Y24.604
G01 F600 X14.244 Y24.607
G01 F600 X14.026 Y24.703
G01 F600 X13.794 Y24.753
G01 F600 X13.556 Y24.753
G01 F600 X13.324 Y24.703
G01 F600 X13.107 Y24.607
G01 F600 X12.914 Y24.467
G01 F600 X12.755 Y24.290
G01 F600 X12.636 Y24.085
G01 F600 X12.563 Y23.858
G01 F600 X12.540 Y23.642
G01 F600 X12.540 Y22.078
G01 F600 X12.563 Y21.862
G01 F600 X12.636 Y21.636
G01 F600 X12.755 Y21.430
G01 F600 X12.914 Y21.253
G01 F600 X13.107 Y21.113
G01 F600 X13.324 Y21.017
G01 F600 X13.556 Y20.967
G01 F600 X13.794 Y20.967
G01 F600 X14.026 Y21.017
G01 F600 X14.244 Y21.113
G01 F600 X14.436 Y21.253
G01 F600 X14.595 Y21.430
G01 F600 X14.714 Y21.636
G01 F600 X14.787 Y21.862
G01 F600 X14.810 Y22.078
G01 F600 X14.810 Y23.053
G01 F600 X16.797 Y25.040
G01 F600 X16.882 Y25.134
G01 F600 X16.960 Y25.270
G01 F600 X17.009 Y25.419
G01 F600 X17.023 Y25.555
G01 F600 X17.026 Y29.851
G01 F600 X17.047 Y29.875
G01 F600 X17.155 Y30.061
G01 F600 X17.222 Y30.266
G01 F600 X17.244 Y30.480
G01 F600 X17.222 Y30.694
G01 F600 X17.155 Y30.899
G01 F600 X17.047 Y31.085
G01 F600 X16.904 Y31.245
G01 F600 X16.730 Y31.371
G01 F600 X16.533 Y31.459
G01 F600 X16.323 Y31.503
G01 F600 X16.108 Y31.503
G00 F3000 Z3.000
G00 F3000 X21.188 Y31.503
G00 F1500 Z0
G01 F600 Z-0.110
G01 F600 X20.977 Y31.459
G01 F600 X20.780 Y31.371
G01 F600 X20.606 Y31.245
G01 F600 X20.463 Y31.085
G01 F600 X20.355 Y30.899
G01 F600 X20.288 Y30.694
G01 F600 X20.266 Y30.480
G01 F600 X20.288 Y30.266
G01 F600 X20.355 Y30.061
G01 F600 X20.463 Y29.875
G01 F600 X20.606 Y29.715
G01 F600 X20.780 Y29.589
G01 F600 X20.977 Y29.501
G01 F600 X21.188 Y29.457
G01 F600 X21.402 Y29.457
G01 F600 X21.613 Y29.501
G01 F600 X21.809 Y29.589
G01 F600 X21.984 Y29.715
G01 F600 X22.128 Y29.875
G01 F600 X22.235 Y30.061
G01 F600 X22.302 Y30.266
G01 F600 X22.324 Y30.480
G01 F600 X22.302 Y30.694
G01 F600 X22.235 Y30.899
G01 F600 X22.128 Y31.085
G01 F600 X21.984 Y31.245
G01 F600 X21.809 Y31.371
G01 F600 X21.613 Y31.459
G01 F600 X21.402 Y31.503
G01 F600 X21.188 Y31.503
G00 F3000 Z3.000
G00 F3000 X18.648 Y31.503
G00 F1500 Z0
G01 F600 Z-0.110
G01 F600 X18.437 Y31.459
G01 F600 X18.241 Y31.371
G01 F600 X18.066 Y31.245
G01 F600 X17.922 Y31.085
G01 F600 X17.815 Y30.899
G01 F600 X17.748 Y30.694
G01 F600 X17.726 Y30.480
G01 F600 X17.748 Y30.266
G01 F600 X17.815 Y30.061
G01 F600 X17.852 Y29.997
G01 F600 X17.852 Y24.334
G01 F600 X14.414 Y20.896
G01 F600 X12.711 Y20.896
G01 F600 X12.373 Y21.234
G01 F600 X12.373 Y22.495
G01 F600 X12.359 Y22.631
G01 F600 X12.310 Y22.780
G01 F600 X12.270 Y22.850
G01 F600 X12.270 Y23.642
G01 F600 X12.247 Y23.858
G01 F600 X12.174 Y24.085
G01 F600 X12.055 Y24.290
G01 F600 X11.896 Y24.467
G01 F600 X11.704 Y24.607
G01 F600 X11.486 Y24.703
G01 F600 X11.254 Y24.753
G01 F600 X11.016 Y24.753
G01 F600 X10.784 Y24.703
G01 F600 X10.567 Y24.607
G01 F600 X10.374 Y24.467
G01 F600 X10.215 Y24.290
G01 F600 X10.096 Y24.085
G01 F600 X10.023 Y23.858
G01 F600 X10.000 Y23.642
G01 F600 X10.000 Y22.078
G01 F600 X10.023 Y21.862
G01 F600 X10.096 Y21.636
G01 F600 X10.215 Y21.430
G01 F600 X10.374 Y21.253
G01 F600 X10.567 Y21.113
G01 F600 X10.784 Y21.017
G01 F600 X10.877 Y20.997
G01 F600 X10.877 Y20.905
G01 F600 X10.891 Y20.769
G01 F600 X10.940 Y20.620
G01 F600 X11.018 Y20.484
G01 F600 X11.104 Y20.389
G01 F600 X11.906 Y19.587
G01 F600 X12.025 Y19.501
G01 F600 X12.168 Y19.437
G01 F600 X12.322 Y19.404
G01 F600 X14.414 Y19.404
G01 F600 X17.077 Y16.741
G01 F600 X17.077 Y13.155
G01 F600 X17.091 Y13.019
G01 F600 X17.140 Y12.870
G01 F600 X17.218 Y12.734
G01 F600 X17.303 Y12.639
G01 F600 X23.531 Y6.412
G01 F600 X23.650 Y6.325
G01 F600 X23.793 Y6.262
G01 F600 X23.947 Y6.229
G01 F600 X28.753 Y6.229
G01 F600 X28.907 Y6.262
G01 F600 X29.050 Y6.325
G01 F600 X29.169 Y6.412
G01 F600 X30.747 Y7.990
G01 F600 X30.832 Y8.084
G01 F600 X30.910 Y8.220
G01 F600 X30.959 Y8.369
G01 F600 X30.973 Y8.505
G01 F600 X30.973 Y8.583
G01 F600 X31.105 Y8.730
G01 F600 X31.224 Y8.936
G01 F600 X31.297 Y9.162
G01 F600 X31.320 Y9.378
G01 F600 X31.320 Y10.942
G01 F600 X31.297 Y11.158
G01 F600 X31.224 Y11.385
G01 F600 X31.105 Y11.590
G01 F600 X30.973 Y11.737
G01 F600 X30.973 Y18.743
G01 F600 X31.105 Y18.890
G01 F600 X31.224 Y19.096
G01 F600 X31.297 Y19.322
