( PCB Contour )
( Generated by Rapid-PCB.com )
( Material Size)
( X= 127.000, Y= 101.600, Z= 1.550)
()
G00
G17
G21
G40
G49
G54
G80
G90
G94
G00 F3000 Z3.000
M03 S9000
G00 F3000 X18.585 Y37.000
G00 F1500 Z0
G01 F600 Z-0.110
G01 F600 X18.419 Y36.964
G01 F600 X18.265 Y36.896
G01 F600 X18.128 Y36.796
G01 F600 X18.015 Y36.671
G01 F600 X17.931 Y36.524
G01 F600 X17.878 Y36.363
G01 F600 X17.861 Y36.204
G01 F600 X17.861 Y34.916
G01 F600 X17.878 Y34.757
G01 F600 X17.931 Y34.595
G01 F600 X17.989 Y34.498
G01 F600 X17.989 Y34.289
G01 F600 X17.948 Y34.270
G01 F600 X17.703 Y34.093
G01 F600 X17.501 Y33.869
G01 F600 X17.350 Y33.607
G01 F600 X17.257 Y33.320
G01 F600 X17.226 Y33.020
G01 F600 X17.257 Y32.720
G01 F600 X17.350 Y32.433
G01 F600 X17.501 Y32.171
G01 F600 X17.703 Y31.947
G01 F600 X17.948 Y31.770
G01 F600 X18.223 Y31.647
G01 F600 X18.519 Y31.584
G01 F600 X18.820 Y31.584
G01 F600 X19.116 Y31.647
G01 F600 X19.392 Y31.770
G01 F600 X19.636 Y31.947
G01 F600 X19.838 Y32.171
G01 F600 X19.940 Y32.348
G01 F600 X20.041 Y32.171
G01 F600 X20.243 Y31.947
G01 F600 X20.488 Y31.770
G01 F600 X20.763 Y31.647
G01 F600 X21.059 Y31.584
G01 F600 X21.360 Y31.584
G01 F600 X21.656 Y31.647
G01 F600 X21.931 Y31.770
G01 F600 X22.176 Y31.947
G01 F600 X22.378 Y32.172
G01 F600 X22.474 Y32.342
G01 F600 X31.441 Y32.342
G01 F600 X31.580 Y32.371
G01 F600 X31.711 Y32.429
G01 F600 X31.826 Y32.513
G01 F600 X31.921 Y32.619
G01 F600 X31.993 Y32.743
G01 F600 X32.037 Y32.878
G01 F600 X32.050 Y33.011
G01 F600 X32.056 Y34.505
G01 F600 X32.108 Y34.596
G01 F600 X32.161 Y34.757
G01 F600 X32.178 Y34.916
G01 F600 X32.178 Y36.204
G01 F600 X32.161 Y36.363
G01 F600 X32.108 Y36.524
G01 F600 X32.024 Y36.671
G01 F600 X31.911 Y36.796
G01 F600 X31.774 Y36.896
G01 F600 X31.620 Y36.964
G01 F600 X31.454 Y37.000
G01 F600 X31.285 Y37.000
G01 F600 X31.120 Y36.964
G01 F600 X30.965 Y36.896
G01 F600 X30.828 Y36.796
G01 F600 X30.715 Y36.671
G01 F600 X30.631 Y36.524
G01 F600 X30.578 Y36.363
G01 F600 X30.562 Y36.204
G01 F600 X30.562 Y34.916
G01 F600 X30.578 Y34.757
G01 F600 X30.631 Y34.595
G01 F600 X30.689 Y34.498
G01 F600 X30.689 Y33.698
G01 F600 X22.470 Y33.709
G01 F600 X22.378 Y33.869
G01 F600 X22.176 Y34.093
G01 F600 X21.931 Y34.270
G01 F600 X21.892 Y34.288
G01 F600 X21.896 Y34.504
G01 F600 X21.949 Y34.596
G01 F600 X22.001 Y34.757
G01 F600 X22.018 Y34.916
G01 F600 X22.018 Y36.204
G01 F600 X22.001 Y36.363
G01 F600 X21.949 Y36.524
G01 F600 X21.864 Y36.671
G01 F600 X21.751 Y36.796
G01 F600 X21.614 Y36.896
G01 F600 X21.460 Y36.964
G01 F600 X21.294 Y37.000
G01 F600 X21.125 Y37.000
G01 F600 X20.960 Y36.964
G01 F600 X20.805 Y36.896
G01 F600 X20.668 Y36.796
G01 F600 X20.555 Y36.671
G01 F600 X20.471 Y36.524
G01 F600 X20.418 Y36.363
G01 F600 X20.402 Y36.204
G01 F600 X20.402 Y34.916
G01 F600 X20.418 Y34.757
G01 F600 X20.471 Y34.595
G01 F600 X20.529 Y34.498
G01 F600 X20.529 Y34.289
G01 F600 X20.488 Y34.270
G01 F600 X20.243 Y34.093
G01 F600 X20.041 Y33.869
G01 F600 X19.940 Y33.692
G01 F600 X19.838 Y33.869
G01 F600 X19.636 Y34.093
G01 F600 X19.392 Y34.270
G01 F600 X19.352 Y34.288
G01 F600 X19.355 Y34.504
G01 F600 X19.409 Y34.596
G01 F600 X19.461 Y34.757
G01 F600 X19.478 Y34.916
G01 F600 X19.478 Y36.204
G01 F600 X19.461 Y36.363
G01 F600 X19.409 Y36.524
G01 F600 X19.324 Y36.671
G01 F600 X19.211 Y36.796
G01 F600 X19.074 Y36.896
G01 F600 X18.919 Y36.964
G01 F600 X18.754 Y37.000
G01 F600 X18.585 Y37.000
G00 F3000 Z3.000
G00 F3000 X41.445 Y37.000
G00 F1500 Z0
G01 F600 Z-0.110
G01 F600 X41.279 Y36.964
G01 F600 X41.125 Y36.896
G01 F600 X40.988 Y36.796
G01 F600 X40.875 Y36.671
G01 F600 X40.791 Y36.524
G01 F600 X40.738 Y36.363
G01 F600 X40.721 Y36.204
G01 F600 X40.721 Y34.916
G01 F600 X40.738 Y34.757
G01 F600 X40.791 Y34.595
G01 F600 X40.849 Y34.498
G01 F600 X40.849 Y31.158
G01 F600 X16.811 Y31.158
G01 F600 X16.811 Y35.569
G01 F600 X16.797 Y35.702
G01 F600 X16.753 Y35.837
G01 F600 X16.681 Y35.961
G01 F600 X16.586 Y36.067
G01 F600 X16.471 Y36.151
G01 F600 X16.340 Y36.209
G01 F600 X16.201 Y36.238
G01 F600 X8.438 Y36.238
G01 F600 X8.299 Y36.209
G01 F600 X8.168 Y36.151
G01 F600 X8.053 Y36.067
G01 F600 X7.958 Y35.961
G01 F600 X7.887 Y35.837
G01 F600 X7.842 Y35.702
G01 F600 X7.829 Y35.569
G01 F600 X7.823 Y34.075
G01 F600 X7.771 Y33.984
G01 F600 X7.718 Y33.823
G01 F600 X7.702 Y33.664
G01 F600 X7.702 Y32.376
G01 F600 X7.718 Y32.217
G01 F600 X7.771 Y32.055
G01 F600 X7.829 Y31.958
G01 F600 X7.829 Y13.668
G01 F600 X7.713 Y13.584
G01 F600 X7.547 Y13.399
G01 F600 X7.422 Y13.184
G01 F600 X7.346 Y12.947
G01 F600 X7.320 Y12.700
G01 F600 X7.346 Y12.453
G01 F600 X7.422 Y12.216
G01 F600 X7.547 Y12.001
G01 F600 X7.713 Y11.816
G01 F600 X7.915 Y11.670
G01 F600 X8.142 Y11.568
G01 F600 X8.385 Y11.517
G01 F600 X8.634 Y11.517
G01 F600 X8.877 Y11.568
G01 F600 X9.104 Y11.670
G01 F600 X9.306 Y11.816
G01 F600 X9.472 Y12.001
G01 F600 X9.484 Y12.022
G01 F600 X12.908 Y12.022
G01 F600 X12.903 Y6.135
G01 F600 X12.851 Y6.044
G01 F600 X12.798 Y5.883
G01 F600 X12.782 Y5.724
G01 F600 X12.782 Y4.436
G01 F600 X12.798 Y4.277
G01 F600 X12.851 Y4.116
G01 F600 X12.935 Y3.970
G01 F600 X13.048 Y3.844
G01 F600 X13.185 Y3.744
G01 F600 X13.340 Y3.676
G01 F600 X13.505 Y3.641
G01 F600 X13.674 Y3.641
G01 F600 X13.840 Y3.676
G01 F600 X13.994 Y3.744
G01 F600 X14.131 Y3.844
G01 F600 X14.244 Y3.970
G01 F600 X14.329 Y4.116
G01 F600 X14.381 Y4.277
G01 F600 X14.398 Y4.436
G01 F600 X14.398 Y5.724
G01 F600 X14.381 Y5.883
G01 F600 X14.328 Y6.045
G01 F600 X14.271 Y6.142
G01 F600 X14.271 Y12.709
G01 F600 X14.257 Y12.842
G01 F600 X14.213 Y12.977
G01 F600 X14.141 Y13.101
G01 F600 X14.046 Y13.207
G01 F600 X13.931 Y13.291
G01 F600 X13.800 Y13.349
G01 F600 X13.661 Y13.378
G01 F600 X9.484 Y13.378
G01 F600 X9.472 Y13.399
G01 F600 X9.306 Y13.584
G01 F600 X9.191 Y13.668
G01 F600 X9.196 Y31.965
G01 F600 X9.248 Y32.056
G01 F600 X9.301 Y32.217
G01 F600 X9.318 Y32.376
G01 F600 X9.318 Y33.664
G01 F600 X9.301 Y33.823
G01 F600 X9.248 Y33.985
G01 F600 X9.191 Y34.082
G01 F600 X9.191 Y34.882
G01 F600 X15.449 Y34.882
G01 F600 X15.449 Y30.471
G01 F600 X15.462 Y30.338
G01 F600 X15.507 Y30.203
G01 F600 X15.578 Y30.079
G01 F600 X15.673 Y29.973
G01 F600 X15.789 Y29.889
G01 F600 X15.919 Y29.831
G01 F600 X16.058 Y29.802
G01 F600 X41.601 Y29.802
G01 F600 X41.740 Y29.831
G01 F600 X41.870 Y29.889
G01 F600 X41.986 Y29.973
G01 F600 X42.081 Y30.079
G01 F600 X42.153 Y30.203
G01 F600 X42.197 Y30.338
G01 F600 X42.211 Y30.471
G01 F600 X42.216 Y34.505
G01 F600 X42.269 Y34.596
G01 F600 X42.321 Y34.757
G01 F600 X42.337 Y34.916
G01 F600 X42.337 Y36.204
G01 F600 X42.321 Y36.363
G01 F600 X42.269 Y36.524
G01 F600 X42.184 Y36.671
G01 F600 X42.071 Y36.796
G01 F600 X41.934 Y36.896
G01 F600 X41.779 Y36.964
G01 F600 X41.614 Y37.000
G01 F600 X41.445 Y37.000
G00 F3000 Z3.000
G00 F3000 X33.825 Y37.000
G00 F1500 Z0
G01 F600 Z-0.110
G01 F600 X33.660 Y36.964
G01 F600 X33.505 Y36.896
G01 F600 X33.368 Y36.796
G01 F600 X33.255 Y36.671
G01 F600 X33.171 Y36.524
G01 F600 X33.118 Y36.363
G01 F600 X33.102 Y36.204
G01 F600 X33.102 Y34.916
G01 F600 X33.118 Y34.757
G01 F600 X33.171 Y34.596
G01 F600 X33.255 Y34.450
G01 F600 X33.368 Y34.324
G01 F600 X33.505 Y34.224
G01 F600 X33.660 Y34.156
G01 F600 X33.825 Y34.120
G01 F600 X33.994 Y34.120
G01 F600 X34.160 Y34.156
G01 F600 X34.314 Y34.224
G01 F600 X34.451 Y34.324
G01 F600 X34.564 Y34.450
G01 F600 X34.648 Y34.596
G01 F600 X34.701 Y34.757
G01 F600 X34.714 Y34.882
G01 F600 X35.769 Y34.882
G01 F600 X35.769 Y34.289
G01 F600 X35.727 Y34.270
G01 F600 X35.483 Y34.093
G01 F600 X35.281 Y33.869
G01 F600 X35.130 Y33.607
G01 F600 X35.037 Y33.320
G01 F600 X35.006 Y33.020
G01 F600 X35.037 Y32.720
G01 F600 X35.130 Y32.433
G01 F600 X35.281 Y32.171
G01 F600 X35.483 Y31.947
G01 F600 X35.727 Y31.770
G01 F600 X36.003 Y31.647
G01 F600 X36.299 Y31.584
G01 F600 X36.600 Y31.584
G01 F600 X36.896 Y31.647
G01 F600 X37.172 Y31.770
G01 F600 X37.416 Y31.947
G01 F600 X37.618 Y32.171
G01 F600 X37.769 Y32.433
G01 F600 X37.862 Y32.720
G01 F600 X37.894 Y33.020
G01 F600 X37.862 Y33.320
G01 F600 X37.769 Y33.607
G01 F600 X37.618 Y33.869
G01 F600 X37.416 Y34.093
G01 F600 X37.172 Y34.270
G01 F600 X37.131 Y34.289
G01 F600 X37.131 Y34.882
G01 F600 X38.185 Y34.882
G01 F600 X38.198 Y34.757
G01 F600 X38.251 Y34.596
G01 F600 X38.335 Y34.450
G01 F600 X38.448 Y34.324
G01 F600 X38.585 Y34.224
G01 F600 X38.739 Y34.156
G01 F600 X38.905 Y34.120
G01 F600 X39.074 Y34.120
G01 F600 X39.239 Y34.156
G01 F600 X39.394 Y34.224
G01 F600 X39.531 Y34.324
G01 F600 X39.644 Y34.450
G01 F600 X39.729 Y34.596
G01 F600 X39.781 Y34.757
G01 F600 X39.797 Y34.916
G01 F600 X39.797 Y36.204
G01 F600 X39.781 Y36.363
G01 F600 X39.729 Y36.524
G01 F600 X39.644 Y36.671
G01 F600 X39.531 Y36.796
G01 F600 X39.394 Y36.896
G01 F600 X39.239 Y36.964
G01 F600 X39.074 Y37.000
G01 F600 X38.905 Y37.000
G01 F600 X38.739 Y36.964
G01 F600 X38.585 Y36.896
G01 F600 X38.448 Y36.796
G01 F600 X38.335 Y36.671
G01 F600 X38.251 Y36.524
G01 F600 X38.198 Y36.363
G01 F600 X38.185 Y36.238
G01 F600 X34.714 Y36.238
G01 F600 X34.701 Y36.363
G01 F600 X34.648 Y36.524
G01 F600 X34.564 Y36.671
G01 F600 X34.451 Y36.796
G01 F600 X34.314 Y36.896
G01 F600 X34.160 Y36.964
G01 F600 X33.994 Y37.000
G01 F600 X33.825 Y37.000
G00 F3000 Z3.000
G00 F3000 X28.745 Y37.000
G00 F1500 Z0
G01 F600 Z-0.110
G01 F600 X28.580 Y36.964
G01 F600 X28.425 Y36.896
G01 F600 X28.288 Y36.796
G01 F600 X28.175 Y36.671
G01 F600 X28.091 Y36.524
G01 F600 X28.038 Y36.363
G01 F600 X28.025 Y36.241
G01 F600 X27.550 Y36.248
G01 F600 X27.458 Y36.409
G01 F600 X27.256 Y36.633
G01 F600 X27.012 Y36.811
G01 F600 X26.736 Y36.933
G01 F600 X26.440 Y36.996
G01 F600 X26.139 Y36.996
G01 F600 X25.843 Y36.933
G01 F600 X25.568 Y36.811
G01 F600 X25.323 Y36.633
G01 F600 X25.121 Y36.409
G01 F600 X24.970 Y36.147
G01 F600 X24.877 Y35.860
G01 F600 X24.846 Y35.560
G01 F600 X24.877 Y35.260
G01 F600 X24.970 Y34.973
G01 F600 X25.121 Y34.711
G01 F600 X25.323 Y34.487
G01 F600 X25.568 Y34.309
G01 F600 X25.843 Y34.187
G01 F600 X26.139 Y34.124
G01 F600 X26.440 Y34.124
G01 F600 X26.736 Y34.187
G01 F600 X27.012 Y34.309
G01 F600 X27.256 Y34.487
G01 F600 X27.458 Y34.712
G01 F600 X27.554 Y34.882
G01 F600 X28.025 Y34.882
G01 F600 X28.038 Y34.757
G01 F600 X28.091 Y34.596
G01 F600 X28.175 Y34.450
G01 F600 X28.288 Y34.324
G01 F600 X28.425 Y34.224
G01 F600 X28.580 Y34.156
G01 F600 X28.745 Y34.120
G01 F600 X28.914 Y34.120
G01 F600 X29.080 Y34.156
G01 F600 X29.234 Y34.224
G01 F600 X29.371 Y34.324
G01 F600 X29.484 Y34.450
G01 F600 X29.569 Y34.596
G01 F600 X29.621 Y34.757
G01 F600 X29.638 Y34.916
G01 F600 X29.638 Y36.204
G01 F600 X29.621 Y36.363
G01 F600 X29.569 Y36.524
G01 F600 X29.484 Y36.671
G01 F600 X29.371 Y36.796
G01 F600 X29.234 Y36.896
G01 F600 X29.080 Y36.964
G01 F600 X28.914 Y37.000
G01 F600 X28.745 Y37.000
G00 F3000 Z3.000
G00 F3000 X46.459 Y36.996
G00 F1500 Z0
G01 F600 Z-0.110
G01 F600 X46.163 Y36.933
G01 F600 X45.888 Y36.811
G01 F600 X45.643 Y36.633
G01 F600 X45.441 Y36.409
G01 F600 X45.290 Y36.147
G01 F600 X45.197 Y35.860
G01 F600 X45.166 Y35.560
G01 F600 X45.197 Y35.260
G01 F600 X45.290 Y34.973
G01 F600 X45.441 Y34.711
G01 F600 X45.643 Y34.487
G01 F600 X45.888 Y34.309
G01 F600 X46.163 Y34.187
G01 F600 X46.459 Y34.124
G01 F600 X46.760 Y34.124
G01 F600 X47.056 Y34.187
G01 F600 X47.332 Y34.309
G01 F600 X47.576 Y34.487
G01 F600 X47.778 Y34.711
G01 F600 X47.929 Y34.973
G01 F600 X48.022 Y35.260
G01 F600 X48.053 Y35.560
G01 F600 X48.022 Y35.860
G01 F600 X47.929 Y36.147
G01 F600 X47.778 Y36.409
G01 F600 X47.576 Y36.633
G01 F600 X47.332 Y36.811
G01 F600 X47.056 Y36.933
G01 F600 X46.760 Y36.996
G01 F600 X46.459 Y36.996
G00 F3000 Z3.000
G00 F3000 X5.819 Y36.996
G00 F1500 Z0
G01 F600 Z-0.110
G01 F600 X5.523 Y36.933
G01 F600 X5.248 Y36.811
G01 F600 X5.003 Y36.633
G01 F600 X4.801 Y36.409
G01 F600 X4.650 Y36.147
G01 F600 X4.557 Y35.860
G01 F600 X4.526 Y35.560
G01 F600 X4.557 Y35.260
G01 F600 X4.650 Y34.973
G01 F600 X4.801 Y34.711
G01 F600 X5.003 Y34.487
G01 F600 X5.248 Y34.309
G01 F600 X5.523 Y34.187
G01 F600 X5.819 Y34.124
G01 F600 X6.120 Y34.124
G01 F600 X6.416 Y34.187
G01 F600 X6.692 Y34.309
G01 F600 X6.936 Y34.487
G01 F600 X7.138 Y34.711
G01 F600 X7.289 Y34.973
G01 F600 X7.382 Y35.260
G01 F600 X7.413 Y35.560
G01 F600 X7.382 Y35.860
G01 F600 X7.289 Y36.147
G01 F600 X7.138 Y36.409
G01 F600 X6.936 Y36.633
G01 F600 X6.692 Y36.811
G01 F600 X6.416 Y36.933
G01 F600 X6.120 Y36.996
G01 F600 X5.819 Y36.996
G00 F3000 Z3.000
G00 F3000 X13.505 Y34.459
G00 F1500 Z0
G01 F600 Z-0.110
G01 F600 X13.340 Y34.424
G01 F600 X13.185 Y34.356
G01 F600 X13.048 Y34.256
G01 F600 X12.935 Y34.131
G01 F600 X12.851 Y33.984
G01 F600 X12.798 Y33.823
G01 F600 X12.782 Y33.664
G01 F600 X12.782 Y32.376
G01 F600 X12.798 Y32.217
G01 F600 X12.851 Y32.055
G01 F600 X12.909 Y31.958
G01 F600 X12.909 Y16.509
G01 F600 X12.868 Y16.491
G01 F600 X12.623 Y16.313
G01 F600 X12.421 Y16.089
G01 F600 X12.270 Y15.827
G01 F600 X12.177 Y15.540
G01 F600 X12.146 Y15.240
G01 F600 X12.177 Y14.940
G01 F600 X12.270 Y14.653
G01 F600 X12.421 Y14.391
G01 F600 X12.623 Y14.167
G01 F600 X12.868 Y13.990
G01 F600 X13.143 Y13.867
G01 F600 X13.439 Y13.804
G01 F600 X13.740 Y13.804
G01 F600 X14.036 Y13.867
G01 F600 X14.312 Y13.990
G01 F600 X14.556 Y14.167
G01 F600 X14.758 Y14.391
G01 F600 X14.909 Y14.653
G01 F600 X15.002 Y14.940
G01 F600 X15.034 Y15.240
G01 F600 X15.002 Y15.540
G01 F600 X14.909 Y15.827
G01 F600 X14.758 Y16.089
G01 F600 X14.556 Y16.313
G01 F600 X14.312 Y16.491
G01 F600 X14.271 Y16.509
G01 F600 X14.271 Y22.180
G01 F600 X15.074 Y22.174
G01 F600 X15.166 Y22.121
G01 F600 X15.326 Y22.069
G01 F600 X15.485 Y22.052
G01 F600 X16.774 Y22.052
G01 F600 X16.933 Y22.069
G01 F600 X17.094 Y22.121
G01 F600 X17.240 Y22.206
G01 F600 X17.366 Y22.319
G01 F600 X17.465 Y22.456
G01 F600 X17.534 Y22.610
G01 F600 X17.569 Y22.775
G01 F600 X17.569 Y22.945
G01 F600 X17.534 Y23.110
G01 F600 X17.465 Y23.265
G01 F600 X17.366 Y23.401
G01 F600 X17.240 Y23.515
G01 F600 X17.094 Y23.599
G01 F600 X16.933 Y23.651
G01 F600 X16.774 Y23.668
G01 F600 X15.485 Y23.668
G01 F600 X15.326 Y23.651
G01 F600 X15.164 Y23.599
G01 F600 X15.064 Y23.538
G01 F600 X14.271 Y23.538
G01 F600 X14.271 Y27.262
G01 F600 X16.181 Y27.262
G01 F600 X17.409 Y27.251
G01 F600 X17.501 Y27.091
G01 F600 X17.703 Y26.867
G01 F600 X17.948 Y26.690
G01 F600 X18.223 Y26.567
G01 F600 X18.519 Y26.504
G01 F600 X18.820 Y26.504
G01 F600 X19.116 Y26.567
G01 F600 X19.392 Y26.690
G01 F600 X19.636 Y26.867
G01 F600 X19.838 Y27.092
G01 F600 X19.934 Y27.262
G01 F600 X30.399 Y27.254
G01 F600 X30.407 Y27.241
G01 F600 X30.573 Y27.056
G01 F600 X30.774 Y26.910
G01 F600 X31.002 Y26.808
G01 F600 X31.245 Y26.757
G01 F600 X31.494 Y26.757
G01 F600 X31.737 Y26.808
G01 F600 X31.965 Y26.910
G01 F600 X32.166 Y27.056
G01 F600 X32.332 Y27.241
G01 F600 X32.339 Y27.253
G01 F600 X35.189 Y27.251
G01 F600 X35.281 Y27.091
G01 F600 X35.483 Y26.867
G01 F600 X35.727 Y26.690
G01 F600 X36.003 Y26.567
G01 F600 X36.299 Y26.504
G01 F600 X36.600 Y26.504
G01 F600 X36.896 Y26.567
G01 F600 X37.172 Y26.690
G01 F600 X37.416 Y26.867
G01 F600 X37.618 Y27.092
G01 F600 X37.714 Y27.262
G01 F600 X45.555 Y27.253
G01 F600 X45.646 Y27.201
G01 F600 X45.806 Y27.149
G01 F600 X45.965 Y27.132
G01 F600 X47.254 Y27.132
G01 F600 X47.413 Y27.149
G01 F600 X47.574 Y27.201
G01 F600 X47.720 Y27.286
G01 F600 X47.846 Y27.399
G01 F600 X47.945 Y27.536
G01 F600 X48.014 Y27.690
G01 F600 X48.049 Y27.855
G01 F600 X48.049 Y28.025
G01 F600 X48.014 Y28.190
G01 F600 X47.945 Y28.345
G01 F600 X47.846 Y28.481
G01 F600 X47.720 Y28.595
G01 F600 X47.574 Y28.679
G01 F600 X47.413 Y28.731
G01 F600 X47.254 Y28.748
G01 F600 X45.965 Y28.748
G01 F600 X45.806 Y28.731
G01 F600 X45.644 Y28.678
G01 F600 X45.544 Y28.618
G01 F600 X37.710 Y28.630
G01 F600 X37.618 Y28.789
G01 F600 X37.416 Y29.013
G01 F600 X37.172 Y29.191
G01 F600 X36.896 Y29.313
G01 F600 X36.600 Y29.376
G01 F600 X36.299 Y29.376
G01 F600 X36.003 Y29.313
G01 F600 X35.727 Y29.191
G01 F600 X35.483 Y29.013
G01 F600 X35.281 Y28.788
G01 F600 X35.185 Y28.618
G01 F600 X32.343 Y28.620
G01 F600 X32.332 Y28.639
G01 F600 X32.166 Y28.824
G01 F600 X31.965 Y28.971
G01 F600 X31.737 Y29.072
G01 F600 X31.494 Y29.123
G01 F600 X31.245 Y29.123
G01 F600 X31.002 Y29.072
G01 F600 X30.774 Y28.971
G01 F600 X30.573 Y28.824
G01 F600 X30.407 Y28.639
G01 F600 X30.397 Y28.622
G01 F600 X19.930 Y28.630
G01 F600 X19.838 Y28.789
G01 F600 X19.636 Y29.013
G01 F600 X19.392 Y29.191
G01 F600 X19.116 Y29.313
G01 F600 X18.820 Y29.376
G01 F600 X18.519 Y29.376
G01 F600 X18.223 Y29.313
G01 F600 X17.948 Y29.191
G01 F600 X17.703 Y29.013
G01 F600 X17.501 Y28.788
G01 F600 X17.405 Y28.618
G01 F600 X14.271 Y28.618
G01 F600 X14.276 Y31.965
G01 F600 X14.329 Y32.056
G01 F600 X14.381 Y32.217
G01 F600 X14.398 Y32.376
G01 F600 X14.398 Y33.664
G01 F600 X14.381 Y33.823
G01 F600 X14.329 Y33.984
G01 F600 X14.244 Y34.131
G01 F600 X14.131 Y34.256
G01 F600 X13.994 Y34.356
G01 F600 X13.840 Y34.424
G01 F600 X13.674 Y34.459
G01 F600 X13.505 Y34.459
G00 F3000 Z3.000
G00 F3000 X5.813 Y27.922
G00 F1500 Z0
G01 F600 Z-0.110
G01 F600 X3.807 Y27.919
G01 F600 X3.713 Y27.865
G01 F600 X3.654 Y27.784
G01 F600 X3.634 Y27.692
G01 F600 X3.640 Y27.654
G01 F600 X3.634 Y27.628
G01 F600 X3.640 Y27.590
G01 F600 X3.634 Y27.565
G01 F600 X3.640 Y27.527
G01 F600 X3.633 Y27.495
G01 F600 X3.654 Y27.397
G01 F600 X3.713 Y27.316
G01 F600 X3.799 Y27.266
G01 F600 X3.871 Y27.259
G01 F600 X4.272 Y27.259
G01 F600 X4.222 Y27.230
G01 F600 X4.216 Y27.222
G01 F600 X4.125 Y27.221
G01 F600 X4.031 Y27.167
G01 F600 X4.024 Y27.158
G01 F600 X3.935 Y27.157
G01 F600 X3.841 Y27.103
G01 F600 X3.834 Y27.093
G01 F600 X3.807 Y27.093
G01 F600 X3.713 Y27.039
G01 F600 X3.654 Y26.958
G01 F600 X3.634 Y26.866
G01 F600 X3.640 Y26.828
G01 F600 X3.634 Y26.803
G01 F600 X3.640 Y26.765
G01 F600 X3.634 Y26.739
G01 F600 X3.640 Y26.701
G01 F600 X3.633 Y26.670
G01 F600 X3.654 Y26.572
G01 F600 X3.713 Y26.491
G01 F600 X3.799 Y26.441
G01 F600 X3.834 Y26.438
G01 F600 X3.841 Y26.428
G01 F600 X3.927 Y26.378
G01 F600 X3.999 Y26.371
G01 F600 X4.026 Y26.371
G01 F600 X4.031 Y26.364
G01 F600 X4.086 Y26.333
G01 F600 X3.807 Y26.332
G01 F600 X3.713 Y26.278
G01 F600 X3.654 Y26.197
G01 F600 X3.634 Y26.105
G01 F600 X3.640 Y26.067
G01 F600 X3.634 Y26.041
G01 F600 X3.640 Y26.003
G01 F600 X3.634 Y25.977
G01 F600 X3.640 Y25.939
G01 F600 X3.633 Y25.908
G01 F600 X3.654 Y25.810
G01 F600 X3.713 Y25.729
G01 F600 X3.799 Y25.679
G01 F600 X3.871 Y25.672
G01 F600 X3.879 Y25.672
G01 F600 X3.870 Y25.659
G01 F600 X3.869 Y25.658
G01 F600 X3.841 Y25.642
G01 F600 X3.809 Y25.598
G01 F600 X3.808 Y25.596
G01 F600 X3.777 Y25.579
G01 F600 X3.745 Y25.535
G01 F600 X3.744 Y25.533
G01 F600 X3.713 Y25.516
G01 F600 X3.654 Y25.435
G01 F600 X3.634 Y25.343
G01 F600 X3.640 Y25.305
G01 F600 X3.634 Y25.279
G01 F600 X3.640 Y25.241
G01 F600 X3.634 Y25.215
G01 F600 X3.640 Y25.177
G01 F600 X3.634 Y25.152
G01 F600 X3.640 Y25.114
G01 F600 X3.634 Y25.088
G01 F600 X3.640 Y25.050
G01 F600 X3.634 Y25.024
G01 F600 X3.640 Y24.987
G01 F600 X3.634 Y24.962
G01 F600 X3.640 Y24.924
G01 F600 X3.634 Y24.898
G01 F600 X3.640 Y24.860
G01 F600 X3.634 Y24.834
G01 F600 X3.640 Y24.796
G01 F600 X3.634 Y24.771
G01 F600 X3.640 Y24.733
G01 F600 X3.633 Y24.701
G01 F600 X3.653 Y24.606
G01 F600 X3.634 Y24.517
G01 F600 X3.640 Y24.479
G01 F600 X3.634 Y24.454
G01 F600 X3.640 Y24.416
G01 F600 X3.634 Y24.390
G01 F600 X3.640 Y24.352
G01 F600 X3.633 Y24.320
G01 F600 X3.654 Y24.222
G01 F600 X3.713 Y24.141
G01 F600 X3.733 Y24.130
G01 F600 X3.713 Y24.118
G01 F600 X3.654 Y24.037
G01 F600 X3.634 Y23.945
G01 F600 X3.640 Y23.907
G01 F600 X3.634 Y23.882
G01 F600 X3.640 Y23.844
G01 F600 X3.633 Y23.813
G01 F600 X3.654 Y23.715
G01 F600 X3.713 Y23.634
G01 F600 X3.789 Y23.591
G01 F600 X3.713 Y23.547
G01 F600 X3.654 Y23.466
G01 F600 X3.634 Y23.373
G01 F600 X3.640 Y23.336
G01 F600 X3.634 Y23.311
G01 F600 X3.640 Y23.273
G01 F600 X3.634 Y23.247
G01 F600 X3.640 Y23.209
G01 F600 X3.633 Y23.177
G01 F600 X3.654 Y23.079
G01 F600 X3.713 Y22.998
G01 F600 X3.799 Y22.948
G01 F600 X3.871 Y22.941
G01 F600 X4.662 Y22.941
G01 F600 X4.666 Y22.935
G01 F600 X4.752 Y22.885
G01 F600 X4.785 Y22.882
G01 F600 X4.802 Y22.859
G01 F600 X4.827 Y22.850
G01 F600 X4.846 Y22.823
G01 F600 X4.841 Y22.803
G01 F600 X4.846 Y22.770
G01 F600 X4.806 Y22.714
G01 F600 X3.807 Y22.712
G01 F600 X3.713 Y22.658
G01 F600 X3.654 Y22.577
G01 F600 X3.634 Y22.485
G01 F600 X3.640 Y22.447
G01 F600 X3.634 Y22.422
G01 F600 X3.640 Y22.384
G01 F600 X3.634 Y22.358
G01 F600 X3.640 Y22.320
G01 F600 X3.633 Y22.288
G01 F600 X3.654 Y22.190
G01 F600 X3.713 Y22.109
G01 F600 X3.799 Y22.059
G01 F600 X3.871 Y22.052
G01 F600 X5.051 Y22.052
G01 F600 X5.138 Y22.080
G01 F600 X5.178 Y22.116
G01 F600 X5.242 Y22.116
G01 F600 X5.328 Y22.144
G01 F600 X5.402 Y22.211
G01 F600 X5.449 Y22.317
G01 F600 X5.448 Y22.323
G01 F600 X5.465 Y22.338
G01 F600 X5.506 Y22.429
G01 F600 X5.506 Y22.783
G01 F600 X5.465 Y22.874
G01 F600 X5.443 Y22.895
G01 F600 X5.443 Y23.037
G01 F600 X5.429 Y23.067
G01 F600 X5.465 Y23.100
G01 F600 X5.506 Y23.191
G01 F600 X5.506 Y23.418
G01 F600 X5.465 Y23.509
G01 F600 X5.391 Y23.576
G01 F600 X5.347 Y23.591
G01 F600 X5.391 Y23.605
G01 F600 X5.401 Y23.614
G01 F600 X5.451 Y23.584
G01 F600 X5.523 Y23.577
G01 F600 X5.814 Y23.577
G01 F600 X5.900 Y23.605
G01 F600 X5.974 Y23.672
G01 F600 X6.015 Y23.763
G01 F600 X6.015 Y23.989
G01 F600 X5.974 Y24.080
G01 F600 X5.900 Y24.147
G01 F600 X5.813 Y24.175
G01 F600 X5.459 Y24.172
G01 F600 X5.401 Y24.138
G01 F600 X5.391 Y24.147
G01 F600 X5.304 Y24.175
G01 F600 X5.198 Y24.175
G01 F600 X5.201 Y24.176
G01 F600 X5.241 Y24.212
G01 F600 X5.242 Y24.212
G01 F600 X5.328 Y24.240
G01 F600 X5.402 Y24.307
G01 F600 X5.439 Y24.390
G01 F600 X5.441 Y24.412
G01 F600 X5.465 Y24.434
G01 F600 X5.506 Y24.525
G01 F600 X5.506 Y25.259
G01 F600 X5.465 Y25.350
G01 F600 X5.409 Y25.400
G01 F600 X5.408 Y25.402
G01 F600 X5.402 Y25.414
G01 F600 X5.346 Y25.464
G01 F600 X5.345 Y25.466
G01 F600 X5.339 Y25.478
G01 F600 X5.281 Y25.530
G01 F600 X5.279 Y25.531
G01 F600 X5.275 Y25.541
G01 F600 X5.218 Y25.593
G01 F600 X5.217 Y25.593
G01 F600 X5.212 Y25.604
G01 F600 X5.138 Y25.671
G01 F600 X5.136 Y25.672
G01 F600 X5.814 Y25.672
G01 F600 X5.900 Y25.700
G01 F600 X5.974 Y25.767
G01 F600 X6.015 Y25.858
G01 F600 X6.015 Y26.212
G01 F600 X5.974 Y26.303
G01 F600 X5.900 Y26.370
G01 F600 X5.822 Y26.395
G01 F600 X5.743 Y26.404
G01 F600 X5.709 Y26.434
G01 F600 X5.631 Y26.460
G01 F600 X5.552 Y26.467
G01 F600 X5.519 Y26.497
G01 F600 X5.447 Y26.520
G01 F600 X5.432 Y26.523
G01 F600 X5.391 Y26.560
G01 F600 X5.313 Y26.585
G01 F600 X5.235 Y26.594
G01 F600 X5.201 Y26.624
G01 F600 X5.123 Y26.649
G01 F600 X5.044 Y26.658
G01 F600 X5.010 Y26.688
G01 F600 X4.939 Y26.711
G01 F600 X4.925 Y26.714
G01 F600 X4.884 Y26.751
G01 F600 X4.871 Y26.755
G01 F600 X4.947 Y26.780
G01 F600 X4.986 Y26.815
G01 F600 X5.051 Y26.815
G01 F600 X5.138 Y26.843
G01 F600 X5.177 Y26.878
G01 F600 X5.242 Y26.878
G01 F600 X5.328 Y26.906
G01 F600 X5.368 Y26.942
G01 F600 X5.433 Y26.942
G01 F600 X5.519 Y26.970
G01 F600 X5.558 Y27.005
G01 F600 X5.623 Y27.005
G01 F600 X5.709 Y27.033
G01 F600 X5.749 Y27.069
G01 F600 X5.814 Y27.069
G01 F600 X5.900 Y27.097
G01 F600 X5.974 Y27.164
G01 F600 X6.015 Y27.255
G01 F600 X6.015 Y27.736
G01 F600 X5.974 Y27.827
G01 F600 X5.900 Y27.894
G01 F600 X5.813 Y27.922
G00 F3000 Z3.000
G00 F3000 X26.139 Y26.836
G00 F1500 Z0
G01 F600 Z-0.110
G01 F600 X25.843 Y26.773
G01 F600 X25.568 Y26.651
G01 F600 X25.323 Y26.473
G01 F600 X25.121 Y26.249
G01 F600 X24.970 Y25.987
G01 F600 X24.877 Y25.700
G01 F600 X24.846 Y25.400
G01 F600 X24.877 Y25.100
G01 F600 X24.970 Y24.813
G01 F600 X25.121 Y24.551
G01 F600 X25.323 Y24.327
G01 F600 X25.568 Y24.149
G01 F600 X25.843 Y24.027
G01 F600 X26.139 Y23.964
G01 F600 X26.440 Y23.964
G01 F600 X26.736 Y24.027
G01 F600 X27.012 Y24.149
G01 F600 X27.256 Y24.327
G01 F600 X27.458 Y24.552
G01 F600 X27.554 Y24.722
G01 F600 X35.769 Y24.722
G01 F600 X35.769 Y15.918
G01 F600 X32.344 Y15.918
G01 F600 X32.332 Y15.939
G01 F600 X32.166 Y16.124
G01 F600 X31.965 Y16.271
G01 F600 X31.737 Y16.372
G01 F600 X31.494 Y16.423
G01 F600 X31.245 Y16.423
G01 F600 X31.002 Y16.372
G01 F600 X30.774 Y16.271
G01 F600 X30.573 Y16.124
G01 F600 X30.407 Y15.939
G01 F600 X30.282 Y15.724
G01 F600 X30.206 Y15.487
G01 F600 X30.180 Y15.240
G01 F600 X30.206 Y14.993
G01 F600 X30.282 Y14.756
G01 F600 X30.407 Y14.541
G01 F600 X30.573 Y14.356
G01 F600 X30.774 Y14.210
G01 F600 X31.002 Y14.108
G01 F600 X31.245 Y14.057
G01 F600 X31.494 Y14.057
G01 F600 X31.737 Y14.108
G01 F600 X31.965 Y14.210
G01 F600 X32.166 Y14.356
G01 F600 X32.332 Y14.541
G01 F600 X32.344 Y14.562
G01 F600 X36.521 Y14.562
G01 F600 X36.660 Y14.591
G01 F600 X36.791 Y14.649
G01 F600 X36.906 Y14.733
G01 F600 X37.001 Y14.839
G01 F600 X37.073 Y14.963
G01 F600 X37.117 Y15.098
G01 F600 X37.131 Y15.231
G01 F600 X37.131 Y24.722
G01 F600 X45.555 Y24.713
G01 F600 X45.646 Y24.661
G01 F600 X45.806 Y24.609
G01 F600 X45.965 Y24.592
G01 F600 X47.254 Y24.592
G01 F600 X47.413 Y24.609
G01 F600 X47.574 Y24.661
G01 F600 X47.720 Y24.745
G01 F600 X47.846 Y24.859
G01 F600 X47.945 Y24.995
G01 F600 X48.014 Y25.150
G01 F600 X48.049 Y25.315
G01 F600 X48.049 Y25.485
G01 F600 X48.014 Y25.650
G01 F600 X47.945 Y25.805
G01 F600 X47.846 Y25.941
G01 F600 X47.720 Y26.055
G01 F600 X47.574 Y26.139
G01 F600 X47.413 Y26.191
G01 F600 X47.254 Y26.208
G01 F600 X45.965 Y26.208
G01 F600 X45.806 Y26.191
G01 F600 X45.644 Y26.139
G01 F600 X45.544 Y26.078
G01 F600 X27.550 Y26.090
G01 F600 X27.458 Y26.249
G01 F600 X27.256 Y26.473
G01 F600 X27.012 Y26.651
G01 F600 X26.736 Y26.773
G01 F600 X26.440 Y26.836
G01 F600 X26.139 Y26.836
G00 F3000 Z3.000
G00 F3000 X4.627 Y25.672
G00 F1500 Z0
G01 F600 Z-0.110
G01 F600 X4.718 Y25.672
G01 F600 X4.666 Y25.642
G01 F600 X4.664 Y25.639
G01 F600 X4.629 Y25.671
G01 F600 X4.627 Y25.672
G00 F3000 Z3.000
G00 F3000 X45.965 Y23.668
G00 F1500 Z0
G01 F600 Z-0.110
G01 F600 X45.806 Y23.651
G01 F600 X45.644 Y23.599
G01 F600 X45.544 Y23.538
G01 F600 X38.918 Y23.538
G01 F600 X38.779 Y23.509
G01 F600 X38.648 Y23.451
G01 F600 X38.533 Y23.367
G01 F600 X38.438 Y23.261
G01 F600 X38.367 Y23.137
G01 F600 X38.322 Y23.002
G01 F600 X38.309 Y22.869
G01 F600 X38.309 Y15.231
G01 F600 X38.322 Y15.098
G01 F600 X38.367 Y14.963
G01 F600 X38.438 Y14.839
G01 F600 X38.533 Y14.733
G01 F600 X38.648 Y14.649
G01 F600 X38.779 Y14.591
G01 F600 X38.918 Y14.562
G01 F600 X45.555 Y14.553
G01 F600 X45.646 Y14.501
G01 F600 X45.806 Y14.449
G01 F600 X45.965 Y14.432
G01 F600 X47.254 Y14.432
G01 F600 X47.413 Y14.449
G01 F600 X47.574 Y14.501
G01 F600 X47.720 Y14.586
G01 F600 X47.846 Y14.699
G01 F600 X47.945 Y14.836
G01 F600 X48.014 Y14.990
G01 F600 X48.049 Y15.155
G01 F600 X48.049 Y15.325
G01 F600 X48.014 Y15.490
G01 F600 X47.945 Y15.645
G01 F600 X47.846 Y15.781
G01 F600 X47.720 Y15.895
G01 F600 X47.574 Y15.979
G01 F600 X47.413 Y16.031
G01 F600 X47.254 Y16.048
G01 F600 X45.965 Y16.048
G01 F600 X45.806 Y16.031
G01 F600 X45.644 Y15.979
G01 F600 X45.544 Y15.918
G01 F600 X39.671 Y15.918
G01 F600 X39.671 Y22.182
G01 F600 X45.555 Y22.173
G01 F600 X45.646 Y22.121
G01 F600 X45.806 Y22.069
G01 F600 X45.965 Y22.052
G01 F600 X47.254 Y22.052
G01 F600 X47.413 Y22.069
G01 F600 X47.574 Y22.121
G01 F600 X47.720 Y22.206
G01 F600 X47.846 Y22.319
G01 F600 X47.945 Y22.456
G01 F600 X48.014 Y22.610
G01 F600 X48.049 Y22.775
G01 F600 X48.049 Y22.945
G01 F600 X48.014 Y23.110
G01 F600 X47.945 Y23.265
G01 F600 X47.846 Y23.401
G01 F600 X47.720 Y23.515
G01 F600 X47.574 Y23.599
G01 F600 X47.413 Y23.651
G01 F600 X47.254 Y23.668
G01 F600 X45.965 Y23.668
G00 F3000 Z3.000
G00 F3000 X18.598 Y23.538
G00 F1500 Z0
G01 F600 Z-0.110
G01 F600 X18.459 Y23.509
G01 F600 X18.329 Y23.451
G01 F600 X18.213 Y23.367
G01 F600 X18.118 Y23.261
G01 F600 X18.047 Y23.137
G01 F600 X18.002 Y23.002
G01 F600 X17.989 Y22.869
G01 F600 X17.989 Y21.000
G01 F600 X17.185 Y21.006
G01 F600 X17.094 Y21.059
G01 F600 X16.933 Y21.111
G01 F600 X16.774 Y21.128
G01 F600 X15.485 Y21.128
G01 F600 X15.326 Y21.111
G01 F600 X15.166 Y21.059
G01 F600 X15.019 Y20.975
G01 F600 X14.893 Y20.861
G01 F600 X14.794 Y20.725
G01 F600 X14.725 Y20.570
G01 F600 X14.690 Y20.405
G01 F600 X14.690 Y20.235
G01 F600 X14.725 Y20.070
G01 F600 X14.794 Y19.916
G01 F600 X14.893 Y19.779
G01 F600 X15.019 Y19.666
G01 F600 X15.166 Y19.581
G01 F600 X15.326 Y19.529
G01 F600 X15.485 Y19.512
G01 F600 X16.774 Y19.512
G01 F600 X16.933 Y19.529
G01 F600 X17.095 Y19.582
G01 F600 X17.195 Y19.642
G01 F600 X18.741 Y19.642
G01 F600 X18.880 Y19.671
G01 F600 X19.011 Y19.729
G01 F600 X19.126 Y19.813
G01 F600 X19.221 Y19.919
G01 F600 X19.293 Y20.043
G01 F600 X19.337 Y20.178
G01 F600 X19.351 Y20.311
G01 F600 X19.351 Y22.182
G01 F600 X33.229 Y22.182
G01 F600 X33.229 Y21.288
G01 F600 X33.113 Y21.204
G01 F600 X32.947 Y21.019
G01 F600 X32.822 Y20.804
G01 F600 X32.746 Y20.567
G01 F600 X32.720 Y20.320
G01 F600 X32.746 Y20.073
G01 F600 X32.822 Y19.836
G01 F600 X32.947 Y19.621
G01 F600 X33.113 Y19.436
G01 F600 X33.315 Y19.290
G01 F600 X33.542 Y19.188
G01 F600 X33.785 Y19.137
G01 F600 X34.034 Y19.137
G01 F600 X34.277 Y19.188
G01 F600 X34.505 Y19.290
G01 F600 X34.706 Y19.436
G01 F600 X34.872 Y19.621
G01 F600 X34.997 Y19.836
G01 F600 X35.073 Y20.073
G01 F600 X35.099 Y20.320
G01 F600 X35.073 Y20.567
G01 F600 X34.997 Y20.804
G01 F600 X34.872 Y21.019
G01 F600 X34.706 Y21.204
G01 F600 X34.590 Y21.288
G01 F600 X34.590 Y22.869
G01 F600 X34.577 Y23.002
G01 F600 X34.532 Y23.137
G01 F600 X34.461 Y23.261
G01 F600 X34.366 Y23.367
G01 F600 X34.251 Y23.451
G01 F600 X34.120 Y23.509
G01 F600 X33.981 Y23.538
G01 F600 X18.598 Y23.538
G00 F3000 Z3.000
G00 F3000 X26.205 Y21.760
G00 F1500 Z0
G01 F600 Z-0.110
G01 F600 X26.040 Y21.724
G01 F600 X25.885 Y21.656
G01 F600 X25.748 Y21.556
G01 F600 X25.635 Y21.431
G01 F600 X25.550 Y21.284
G01 F600 X25.498 Y21.123
G01 F600 X25.485 Y20.999
G01 F600 X22.470 Y21.009
G01 F600 X22.378 Y21.169
G01 F600 X22.176 Y21.393
G01 F600 X21.931 Y21.571
G01 F600 X21.656 Y21.693
G01 F600 X21.360 Y21.756
G01 F600 X21.059 Y21.756
G01 F600 X20.763 Y21.693
G01 F600 X20.488 Y21.571
G01 F600 X20.243 Y21.393
G01 F600 X20.041 Y21.169
G01 F600 X19.890 Y20.907
G01 F600 X19.797 Y20.620
G01 F600 X19.765 Y20.320
G01 F600 X19.797 Y20.020
G01 F600 X19.890 Y19.733
G01 F600 X20.041 Y19.471
G01 F600 X20.243 Y19.247
G01 F600 X20.488 Y19.070
G01 F600 X20.763 Y18.947
G01 F600 X21.059 Y18.884
G01 F600 X21.360 Y18.884
G01 F600 X21.656 Y18.947
G01 F600 X21.931 Y19.070
G01 F600 X22.176 Y19.247
G01 F600 X22.378 Y19.472
G01 F600 X22.474 Y19.642
G01 F600 X23.069 Y19.642
G01 F600 X23.069 Y10.839
G01 F600 X19.930 Y10.849
G01 F600 X19.838 Y11.009
G01 F600 X19.636 Y11.233
G01 F600 X19.392 Y11.411
G01 F600 X19.116 Y11.533
G01 F600 X18.820 Y11.596
G01 F600 X18.519 Y11.596
G01 F600 X18.223 Y11.533
G01 F600 X17.948 Y11.411
G01 F600 X17.703 Y11.233
G01 F600 X17.501 Y11.009
G01 F600 X17.350 Y10.747
G01 F600 X17.257 Y10.460
G01 F600 X17.226 Y10.160
G01 F600 X17.257 Y9.860
G01 F600 X17.350 Y9.573
G01 F600 X17.501 Y9.311
G01 F600 X17.703 Y9.087
G01 F600 X17.948 Y8.910
G01 F600 X18.223 Y8.787
G01 F600 X18.519 Y8.724
G01 F600 X18.820 Y8.724
G01 F600 X19.116 Y8.787
G01 F600 X19.392 Y8.910
G01 F600 X19.636 Y9.087
G01 F600 X19.838 Y9.312
G01 F600 X19.934 Y9.482
G01 F600 X23.068 Y9.482
G01 F600 X23.063 Y6.135
G01 F600 X23.011 Y6.044
G01 F600 X22.958 Y5.883
G01 F600 X22.942 Y5.724
G01 F600 X22.942 Y4.436
G01 F600 X22.958 Y4.277
G01 F600 X23.011 Y4.116
G01 F600 X23.095 Y3.970
G01 F600 X23.208 Y3.844
G01 F600 X23.345 Y3.744
G01 F600 X23.500 Y3.676
G01 F600 X23.665 Y3.641
G01 F600 X23.834 Y3.641
G01 F600 X24.000 Y3.676
G01 F600 X24.154 Y3.744
G01 F600 X24.291 Y3.844
G01 F600 X24.404 Y3.970
G01 F600 X24.489 Y4.116
G01 F600 X24.541 Y4.277
G01 F600 X24.558 Y4.436
G01 F600 X24.558 Y5.724
G01 F600 X24.541 Y5.883
G01 F600 X24.488 Y6.045
G01 F600 X24.431 Y6.142
G01 F600 X24.431 Y9.482
G01 F600 X35.768 Y9.482
G01 F600 X35.763 Y6.135
G01 F600 X35.711 Y6.044
G01 F600 X35.658 Y5.883
G01 F600 X35.642 Y5.724
G01 F600 X35.642 Y4.436
G01 F600 X35.658 Y4.277
G01 F600 X35.711 Y4.116
G01 F600 X35.795 Y3.970
G01 F600 X35.908 Y3.844
G01 F600 X36.045 Y3.744
G01 F600 X36.200 Y3.676
G01 F600 X36.365 Y3.641
G01 F600 X36.534 Y3.641
G01 F600 X36.700 Y3.676
G01 F600 X36.854 Y3.744
G01 F600 X36.991 Y3.844
G01 F600 X37.104 Y3.970
G01 F600 X37.189 Y4.116
G01 F600 X37.241 Y4.277
G01 F600 X37.258 Y4.436
G01 F600 X37.258 Y5.724
G01 F600 X37.241 Y5.883
G01 F600 X37.188 Y6.045
G01 F600 X37.131 Y6.142
G01 F600 X37.131 Y10.169
G01 F600 X37.117 Y10.302
G01 F600 X37.073 Y10.437
G01 F600 X37.001 Y10.561
G01 F600 X36.906 Y10.667
G01 F600 X36.791 Y10.751
G01 F600 X36.660 Y10.809
G01 F600 X36.521 Y10.838
G01 F600 X24.431 Y10.838
G01 F600 X24.431 Y19.642
G01 F600 X25.485 Y19.642
G01 F600 X25.498 Y19.517
G01 F600 X25.550 Y19.356
G01 F600 X25.635 Y19.210
G01 F600 X25.748 Y19.084
G01 F600 X25.885 Y18.984
G01 F600 X26.040 Y18.916
G01 F600 X26.205 Y18.881
G01 F600 X26.374 Y18.881
G01 F600 X26.540 Y18.916
G01 F600 X26.694 Y18.984
G01 F600 X26.831 Y19.084
G01 F600 X26.944 Y19.210
G01 F600 X27.029 Y19.356
G01 F600 X27.081 Y19.517
G01 F600 X27.098 Y19.676
G01 F600 X27.098 Y20.964
G01 F600 X27.081 Y21.123
G01 F600 X27.029 Y21.284
G01 F600 X26.944 Y21.431
G01 F600 X26.831 Y21.556
G01 F600 X26.694 Y21.656
G01 F600 X26.540 Y21.724
G01 F600 X26.374 Y21.760
G01 F600 X26.205 Y21.760
G00 F3000 Z3.000
G00 F3000 X28.745 Y21.760
G00 F1500 Z0
G01 F600 Z-0.110
G01 F600 X28.580 Y21.724
G01 F600 X28.425 Y21.656
G01 F600 X28.288 Y21.556
G01 F600 X28.175 Y21.431
G01 F600 X28.091 Y21.284
G01 F600 X28.038 Y21.123
G01 F600 X28.021 Y20.964
G01 F600 X28.021 Y19.676
G01 F600 X28.038 Y19.517
G01 F600 X28.091 Y19.356
G01 F600 X28.175 Y19.210
G01 F600 X28.288 Y19.084
G01 F600 X28.425 Y18.984
G01 F600 X28.580 Y18.916
G01 F600 X28.745 Y18.881
G01 F600 X28.914 Y18.881
G01 F600 X29.080 Y18.916
G01 F600 X29.234 Y18.984
G01 F600 X29.371 Y19.084
G01 F600 X29.484 Y19.210
G01 F600 X29.569 Y19.356
G01 F600 X29.621 Y19.517
G01 F600 X29.634 Y19.642
G01 F600 X30.395 Y19.642
G01 F600 X30.407 Y19.621
G01 F600 X30.573 Y19.436
G01 F600 X30.774 Y19.290
G01 F600 X31.002 Y19.188
G01 F600 X31.245 Y19.137
G01 F600 X31.494 Y19.137
G01 F600 X31.737 Y19.188
G01 F600 X31.965 Y19.290
G01 F600 X32.166 Y19.436
G01 F600 X32.332 Y19.621
G01 F600 X32.457 Y19.836
G01 F600 X32.533 Y20.073
G01 F600 X32.559 Y20.320
G01 F600 X32.533 Y20.567
G01 F600 X32.457 Y20.804
G01 F600 X32.332 Y21.019
G01 F600 X32.166 Y21.204
G01 F600 X31.965 Y21.351
G01 F600 X31.737 Y21.452
G01 F600 X31.494 Y21.503
G01 F600 X31.245 Y21.503
G01 F600 X31.002 Y21.452
G01 F600 X30.774 Y21.351
G01 F600 X30.573 Y21.204
G01 F600 X30.407 Y21.019
G01 F600 X30.395 Y20.998
G01 F600 X29.634 Y20.998
G01 F600 X29.621 Y21.123
G01 F600 X29.569 Y21.284
G01 F600 X29.484 Y21.431
G01 F600 X29.371 Y21.556
G01 F600 X29.234 Y21.656
G01 F600 X29.080 Y21.724
G01 F600 X28.914 Y21.760
G01 F600 X28.745 Y21.760
G00 F3000 Z3.000
G00 F3000 X41.405 Y21.503
G00 F1500 Z0
G01 F600 Z-0.110
G01 F600 X41.162 Y21.452
G01 F600 X40.934 Y21.351
G01 F600 X40.733 Y21.204
G01 F600 X40.567 Y21.019
G01 F600 X40.442 Y20.804
G01 F600 X40.366 Y20.567
G01 F600 X40.340 Y20.320
G01 F600 X40.366 Y20.073
G01 F600 X40.442 Y19.836
G01 F600 X40.567 Y19.621
G01 F600 X40.733 Y19.436
G01 F600 X40.934 Y19.290
G01 F600 X41.162 Y19.188
G01 F600 X41.405 Y19.137
G01 F600 X41.654 Y19.137
G01 F600 X41.897 Y19.188
G01 F600 X42.125 Y19.290
G01 F600 X42.326 Y19.436
G01 F600 X42.492 Y19.620
G01 F600 X42.503 Y19.640
G01 F600 X45.555 Y19.633
G01 F600 X45.646 Y19.581
G01 F600 X45.806 Y19.529
G01 F600 X45.965 Y19.512
G01 F600 X47.254 Y19.512
G01 F600 X47.413 Y19.529
G01 F600 X47.574 Y19.581
G01 F600 X47.720 Y19.666
G01 F600 X47.846 Y19.779
G01 F600 X47.945 Y19.916
G01 F600 X48.014 Y20.070
G01 F600 X48.049 Y20.235
G01 F600 X48.049 Y20.405
G01 F600 X48.014 Y20.570
G01 F600 X47.945 Y20.725
G01 F600 X47.846 Y20.861
G01 F600 X47.720 Y20.975
G01 F600 X47.574 Y21.059
G01 F600 X47.413 Y21.111
G01 F600 X47.254 Y21.128
G01 F600 X45.965 Y21.128
G01 F600 X45.806 Y21.111
G01 F600 X45.644 Y21.059
G01 F600 X45.544 Y20.998
G01 F600 X42.504 Y20.998
G01 F600 X42.492 Y21.019
G01 F600 X42.326 Y21.204
G01 F600 X42.125 Y21.351
G01 F600 X41.897 Y21.452
G01 F600 X41.654 Y21.503
G01 F600 X41.405 Y21.503
G00 F3000 Z3.000
G00 F3000 X5.813 Y20.556
G00 F1500 Z0
G01 F600 Z-0.110
G01 F600 X3.807 Y20.553
G01 F600 X3.713 Y20.499
G01 F600 X3.654 Y20.418
G01 F600 X3.634 Y20.326
G01 F600 X3.640 Y20.288
G01 F600 X3.634 Y20.262
G01 F600 X3.640 Y20.224
G01 F600 X3.634 Y20.198
G01 F600 X3.640 Y20.161
G01 F600 X3.633 Y20.130
G01 F600 X3.654 Y20.032
G01 F600 X3.713 Y19.951
G01 F600 X3.799 Y19.901
G01 F600 X3.871 Y19.894
G01 F600 X4.400 Y19.893
G01 F600 X4.397 Y19.881
G01 F600 X4.403 Y19.843
G01 F600 X4.397 Y19.818
G01 F600 X4.403 Y19.780
G01 F600 X4.397 Y19.754
G01 F600 X4.403 Y19.716
G01 F600 X4.397 Y19.691
G01 F600 X4.403 Y19.653
G01 F600 X4.397 Y19.628
G01 F600 X4.403 Y19.590
G01 F600 X4.397 Y19.564
G01 F600 X4.403 Y19.526
G01 F600 X4.397 Y19.500
G01 F600 X4.403 Y19.462
G01 F600 X4.397 Y19.437
G01 F600 X4.403 Y19.399
G01 F600 X4.397 Y19.373
G01 F600 X4.403 Y19.335
G01 F600 X4.396 Y19.304
G01 F600 X4.417 Y19.206
G01 F600 X4.468 Y19.136
G01 F600 X4.480 Y19.079
G01 F600 X4.532 Y19.007
G01 F600 X4.544 Y18.952
G01 F600 X4.578 Y18.905
G01 F600 X4.189 Y18.902
G01 F600 X4.095 Y18.848
G01 F600 X4.062 Y18.803
G01 F600 X4.060 Y18.801
G01 F600 X4.031 Y18.784
G01 F600 X3.999 Y18.740
G01 F600 X3.998 Y18.738
G01 F600 X3.967 Y18.721
G01 F600 X3.933 Y18.675
G01 F600 X3.933 Y18.675
G01 F600 X3.904 Y18.658
G01 F600 X3.870 Y18.611
G01 F600 X3.869 Y18.610
G01 F600 X3.841 Y18.594
G01 F600 X3.809 Y18.550
G01 F600 X3.808 Y18.548
G01 F600 X3.777 Y18.531
G01 F600 X3.744 Y18.486
G01 F600 X3.742 Y18.484
G01 F600 X3.713 Y18.467
G01 F600 X3.654 Y18.386
G01 F600 X3.634 Y18.294
G01 F600 X3.640 Y18.256
G01 F600 X3.634 Y18.230
G01 F600 X3.640 Y18.192
G01 F600 X3.634 Y18.166
G01 F600 X3.640 Y18.129
G01 F600 X3.634 Y18.104
G01 F600 X3.640 Y18.066
G01 F600 X3.634 Y18.040
G01 F600 X3.640 Y18.002
G01 F600 X3.634 Y17.977
G01 F600 X3.640 Y17.939
G01 F600 X3.634 Y17.913
G01 F600 X3.640 Y17.875
G01 F600 X3.634 Y17.849
G01 F600 X3.640 Y17.811
G01 F600 X3.633 Y17.780
G01 F600 X3.654 Y17.682
G01 F600 X3.721 Y17.590
G01 F600 X3.745 Y17.581
G01 F600 X3.786 Y17.525
G01 F600 X3.811 Y17.515
G01 F600 X3.850 Y17.462
G01 F600 X3.873 Y17.453
G01 F600 X3.911 Y17.401
G01 F600 X3.935 Y17.392
G01 F600 X3.975 Y17.336
G01 F600 X3.999 Y17.326
G01 F600 X4.031 Y17.283
G01 F600 X4.117 Y17.233
G01 F600 X4.189 Y17.226
G01 F600 X4.335 Y17.226
G01 F600 X4.285 Y17.197
G01 F600 X4.278 Y17.188
G01 F600 X4.189 Y17.187
G01 F600 X4.095 Y17.133
G01 F600 X4.089 Y17.125
G01 F600 X3.998 Y17.124
G01 F600 X3.904 Y17.070
G01 F600 X3.898 Y17.062
G01 F600 X3.807 Y17.061
G01 F600 X3.713 Y17.007
G01 F600 X3.654 Y16.926
G01 F600 X3.634 Y16.834
G01 F600 X3.640 Y16.796
G01 F600 X3.634 Y16.770
G01 F600 X3.640 Y16.732
G01 F600 X3.634 Y16.707
G01 F600 X3.640 Y16.669
G01 F600 X3.633 Y16.637
G01 F600 X3.654 Y16.539
G01 F600 X3.713 Y16.458
G01 F600 X3.799 Y16.408
G01 F600 X3.871 Y16.401
G01 F600 X3.899 Y16.401
G01 F600 X3.904 Y16.394
G01 F600 X3.990 Y16.344
G01 F600 X4.024 Y16.341
G01 F600 X3.967 Y16.308
G01 F600 X3.961 Y16.300
G01 F600 X3.807 Y16.299
G01 F600 X3.713 Y16.245
G01 F600 X3.654 Y16.164
G01 F600 X3.634 Y16.072
G01 F600 X3.640 Y16.034
G01 F600 X3.634 Y16.008
G01 F600 X3.640 Y15.970
G01 F600 X3.634 Y15.944
G01 F600 X3.640 Y15.906
G01 F600 X3.634 Y15.881
G01 F600 X3.640 Y15.843
G01 F600 X3.633 Y15.812
G01 F600 X3.654 Y15.714
G01 F600 X3.713 Y15.633
G01 F600 X3.799 Y15.583
G01 F600 X3.871 Y15.576
G01 F600 X3.899 Y15.576
G01 F600 X3.904 Y15.569
G01 F600 X3.990 Y15.519
G01 F600 X4.062 Y15.512
G01 F600 X4.090 Y15.512
G01 F600 X4.095 Y15.505
G01 F600 X4.181 Y15.455
G01 F600 X4.253 Y15.448
G01 F600 X4.281 Y15.448
G01 F600 X4.285 Y15.442
G01 F600 X4.339 Y15.411
G01 F600 X4.189 Y15.410
G01 F600 X4.095 Y15.356
G01 F600 X4.088 Y15.346
G01 F600 X4.061 Y15.346
G01 F600 X3.967 Y15.292
G01 F600 X3.933 Y15.246
G01 F600 X3.933 Y15.246
G01 F600 X3.904 Y15.229
G01 F600 X3.870 Y15.182
G01 F600 X3.869 Y15.181
G01 F600 X3.841 Y15.165
G01 F600 X3.808 Y15.120
G01 F600 X3.806 Y15.118
G01 F600 X3.777 Y15.101
G01 F600 X3.745 Y15.057
G01 F600 X3.744 Y15.055
G01 F600 X3.713 Y15.038
G01 F600 X3.654 Y14.957
G01 F600 X3.634 Y14.865
G01 F600 X3.640 Y14.827
G01 F600 X3.634 Y14.802
G01 F600 X3.640 Y14.764
G01 F600 X3.634 Y14.738
G01 F600 X3.640 Y14.700
G01 F600 X3.634 Y14.674
G01 F600 X3.640 Y14.636
G01 F600 X3.634 Y14.611
G01 F600 X3.640 Y14.573
G01 F600 X3.634 Y14.546
G01 F600 X3.640 Y14.509
G01 F600 X3.634 Y14.484
G01 F600 X3.640 Y14.446
G01 F600 X3.634 Y14.421
G01 F600 X3.640 Y14.383
G01 F600 X3.634 Y14.357
G01 F600 X3.640 Y14.319
G01 F600 X3.633 Y14.287
G01 F600 X3.654 Y14.189
G01 F600 X3.722 Y14.096
G01 F600 X3.747 Y14.087
G01 F600 X3.786 Y14.033
G01 F600 X3.811 Y14.024
G01 F600 X3.848 Y13.972
G01 F600 X3.872 Y13.963
G01 F600 X3.913 Y13.906
G01 F600 X3.936 Y13.897
G01 F600 X3.945 Y13.886
G01 F600 X3.807 Y13.885
G01 F600 X3.713 Y13.831
G01 F600 X3.654 Y13.750
G01 F600 X3.634 Y13.658
G01 F600 X3.640 Y13.620
G01 F600 X3.634 Y13.595
G01 F600 X3.640 Y13.557
G01 F600 X3.634 Y13.530
G01 F600 X3.640 Y13.493
G01 F600 X3.633 Y13.462
G01 F600 X3.654 Y13.364
G01 F600 X3.713 Y13.283
G01 F600 X3.799 Y13.233
G01 F600 X3.871 Y13.226
G01 F600 X4.725 Y13.226
G01 F600 X4.737 Y13.209
G01 F600 X4.761 Y13.200
G01 F600 X4.783 Y13.170
G01 F600 X4.778 Y13.151
G01 F600 X4.784 Y13.113
G01 F600 X4.778 Y13.087
G01 F600 X4.784 Y13.049
G01 F600 X4.778 Y13.024
G01 F600 X4.784 Y12.986
G01 F600 X4.777 Y12.954
G01 F600 X4.798 Y12.856
G01 F600 X4.857 Y12.775
G01 F600 X4.943 Y12.725
G01 F600 X5.015 Y12.718
G01 F600 X5.242 Y12.718
G01 F600 X5.328 Y12.746
G01 F600 X5.402 Y12.813
G01 F600 X5.407 Y12.825
G01 F600 X5.465 Y12.877
G01 F600 X5.506 Y12.968
G01 F600 X5.506 Y13.046
G01 F600 X5.530 Y13.099
G01 F600 X5.506 Y13.101
G01 F600 X5.506 Y13.258
G01 F600 X5.465 Y13.349
G01 F600 X5.446 Y13.367
G01 F600 X5.465 Y13.384
G01 F600 X5.506 Y13.475
G01 F600 X5.506 Y13.702
G01 F600 X5.465 Y13.793
G01 F600 X5.391 Y13.860
G01 F600 X5.304 Y13.888
G01 F600 X5.198 Y13.888
G01 F600 X5.201 Y13.889
G01 F600 X5.275 Y13.956
G01 F600 X5.312 Y14.038
G01 F600 X5.314 Y14.060
G01 F600 X5.336 Y14.080
G01 F600 X5.342 Y14.092
G01 F600 X5.400 Y14.144
G01 F600 X5.406 Y14.157
G01 F600 X5.465 Y14.210
G01 F600 X5.506 Y14.301
G01 F600 X5.506 Y14.846
G01 F600 X5.465 Y14.937
G01 F600 X5.408 Y14.989
G01 F600 X5.407 Y14.989
G01 F600 X5.402 Y15.000
G01 F600 X5.345 Y15.052
G01 F600 X5.344 Y15.052
G01 F600 X5.339 Y15.063
G01 F600 X5.316 Y15.084
G01 F600 X5.316 Y15.100
G01 F600 X5.275 Y15.191
G01 F600 X5.271 Y15.195
G01 F600 X5.304 Y15.195
G01 F600 X5.391 Y15.223
G01 F600 X5.465 Y15.290
G01 F600 X5.506 Y15.381
G01 F600 X5.506 Y15.607
G01 F600 X5.465 Y15.698
G01 F600 X5.391 Y15.765
G01 F600 X5.311 Y15.791
G01 F600 X5.169 Y15.801
G01 F600 X5.138 Y15.829
G01 F600 X5.060 Y15.855
G01 F600 X4.980 Y15.862
G01 F600 X4.947 Y15.892
G01 F600 X4.945 Y15.893
G01 F600 X4.987 Y15.893
G01 F600 X5.074 Y15.921
G01 F600 X5.113 Y15.956
G01 F600 X5.304 Y15.956
G01 F600 X5.391 Y15.984
G01 F600 X5.465 Y16.051
G01 F600 X5.506 Y16.142
G01 F600 X5.506 Y16.497
G01 F600 X5.465 Y16.588
G01 F600 X5.391 Y16.655
G01 F600 X5.309 Y16.682
G01 F600 X5.103 Y16.692
G01 F600 X5.074 Y16.718
G01 F600 X5.031 Y16.732
G01 F600 X5.074 Y16.746
G01 F600 X5.114 Y16.782
G01 F600 X5.304 Y16.782
G01 F600 X5.391 Y16.810
G01 F600 X5.465 Y16.877
G01 F600 X5.506 Y16.968
G01 F600 X5.506 Y17.259
G01 F600 X5.465 Y17.350
G01 F600 X5.391 Y17.417
G01 F600 X5.304 Y17.445
G01 F600 X5.271 Y17.445
G01 F600 X5.271 Y17.445
G01 F600 X5.276 Y17.455
G01 F600 X5.336 Y17.509
G01 F600 X5.342 Y17.521
G01 F600 X5.400 Y17.573
G01 F600 X5.406 Y17.586
G01 F600 X5.465 Y17.639
G01 F600 X5.506 Y17.730
G01 F600 X5.506 Y18.338
G01 F600 X5.465 Y18.429
G01 F600 X5.409 Y18.479
G01 F600 X5.408 Y18.480
G01 F600 X5.402 Y18.493
G01 F600 X5.380 Y18.513
G01 F600 X5.380 Y18.529
G01 F600 X5.339 Y18.620
G01 F600 X5.265 Y18.687
G01 F600 X5.559 Y18.687
G01 F600 X5.646 Y18.715
G01 F600 X5.717 Y18.779
G01 F600 X5.723 Y18.791
G01 F600 X5.781 Y18.843
G01 F600 X5.787 Y18.856
G01 F600 X5.846 Y18.909
G01 F600 X5.883 Y18.991
G01 F600 X5.885 Y19.013
G01 F600 X5.910 Y19.036
G01 F600 X5.947 Y19.118
G01 F600 X5.949 Y19.140
G01 F600 X5.974 Y19.163
G01 F600 X6.015 Y19.254
G01 F600 X6.015 Y20.370
G01 F600 X5.974 Y20.461
G01 F600 X5.900 Y20.528
G01 F600 X5.813 Y20.556
G00 F3000 Z3.000
G00 F3000 X5.121 Y19.894
G00 F1500 Z0
G01 F600 Z-0.110
G01 F600 X5.352 Y19.893
G01 F600 X5.349 Y19.881
G01 F600 X5.355 Y19.843
G01 F600 X5.349 Y19.818
G01 F600 X5.355 Y19.780
G01 F600 X5.349 Y19.754
G01 F600 X5.355 Y19.716
G01 F600 X5.349 Y19.691
G01 F600 X5.355 Y19.653
G01 F600 X5.349 Y19.628
G01 F600 X5.355 Y19.590
G01 F600 X5.349 Y19.564
G01 F600 X5.354 Y19.531
G01 F600 X5.306 Y19.465
G01 F600 X5.286 Y19.373
G01 F600 X5.289 Y19.354
G01 F600 X5.166 Y19.359
G01 F600 X5.155 Y19.369
G01 F600 X5.153 Y19.371
G01 F600 X5.148 Y19.382
G01 F600 X5.125 Y19.403
G01 F600 X5.125 Y19.802
G01 F600 X5.121 Y19.894
G00 F3000 Z3.000
G00 F3000 X15.485 Y18.588
G00 F1500 Z0
G01 F600 Z-0.110
G01 F600 X15.326 Y18.571
G01 F600 X15.166 Y18.519
G01 F600 X15.019 Y18.434
G01 F600 X14.893 Y18.321
G01 F600 X14.794 Y18.184
G01 F600 X14.725 Y18.030
G01 F600 X14.690 Y17.865
G01 F600 X14.690 Y17.695
G01 F600 X14.725 Y17.530
G01 F600 X14.794 Y17.376
G01 F600 X14.893 Y17.239
G01 F600 X15.019 Y17.126
G01 F600 X15.166 Y17.041
G01 F600 X15.326 Y16.989
G01 F600 X15.449 Y16.976
G01 F600 X15.449 Y13.668
G01 F600 X15.333 Y13.584
G01 F600 X15.167 Y13.399
G01 F600 X15.042 Y13.184
G01 F600 X14.966 Y12.947
G01 F600 X14.940 Y12.700
G01 F600 X14.966 Y12.453
G01 F600 X15.042 Y12.216
G01 F600 X15.167 Y12.001
G01 F600 X15.333 Y11.816
G01 F600 X15.448 Y11.732
G01 F600 X15.443 Y6.135
G01 F600 X15.391 Y6.044
G01 F600 X15.338 Y5.883
G01 F600 X15.322 Y5.724
G01 F600 X15.322 Y4.436
G01 F600 X15.338 Y4.277
G01 F600 X15.391 Y4.116
G01 F600 X15.475 Y3.970
G01 F600 X15.588 Y3.844
G01 F600 X15.725 Y3.744
G01 F600 X15.880 Y3.676
G01 F600 X16.045 Y3.641
G01 F600 X16.214 Y3.641
G01 F600 X16.380 Y3.676
G01 F600 X16.534 Y3.744
G01 F600 X16.671 Y3.844
G01 F600 X16.784 Y3.970
G01 F600 X16.869 Y4.116
G01 F600 X16.921 Y4.277
G01 F600 X16.938 Y4.436
G01 F600 X16.938 Y5.724
G01 F600 X16.921 Y5.883
G01 F600 X16.868 Y6.045
G01 F600 X16.811 Y6.142
G01 F600 X16.811 Y11.732
G01 F600 X16.926 Y11.816
G01 F600 X17.092 Y12.001
G01 F600 X17.217 Y12.216
G01 F600 X17.293 Y12.453
G01 F600 X17.320 Y12.700
G01 F600 X17.293 Y12.947
G01 F600 X17.217 Y13.184
G01 F600 X17.092 Y13.399
G01 F600 X16.926 Y13.584
G01 F600 X16.811 Y13.668
G01 F600 X16.811 Y16.976
G01 F600 X16.933 Y16.989
G01 F600 X17.094 Y17.041
G01 F600 X17.240 Y17.126
G01 F600 X17.366 Y17.239
G01 F600 X17.465 Y17.376
G01 F600 X17.534 Y17.530
G01 F600 X17.569 Y17.695
G01 F600 X17.569 Y17.865
G01 F600 X17.534 Y18.030
G01 F600 X17.465 Y18.184
G01 F600 X17.366 Y18.321
G01 F600 X17.240 Y18.434
G01 F600 X17.094 Y18.519
G01 F600 X16.933 Y18.571
G01 F600 X16.774 Y18.588
G01 F600 X15.485 Y18.588
G00 F3000 Z3.000
G00 F3000 X4.478 Y18.243
G00 F1500 Z0
G01 F600 Z-0.110
G01 F600 X4.662 Y18.242
G01 F600 X4.666 Y18.236
G01 F600 X4.752 Y18.186
G01 F600 X4.786 Y18.183
G01 F600 X4.801 Y18.162
G01 F600 X4.825 Y18.152
G01 F600 X4.846 Y18.124
G01 F600 X4.841 Y18.104
G01 F600 X4.847 Y18.066
G01 F600 X4.841 Y18.040
G01 F600 X4.847 Y18.002
G01 F600 X4.841 Y17.977
G01 F600 X4.846 Y17.944
G01 F600 X4.824 Y17.913
G01 F600 X4.822 Y17.912
G01 F600 X4.793 Y17.895
G01 F600 X4.790 Y17.891
G01 F600 X4.338 Y17.901
G01 F600 X4.329 Y17.908
G01 F600 X4.327 Y17.910
G01 F600 X4.322 Y17.921
G01 F600 X4.300 Y17.942
G01 F600 X4.300 Y18.091
G01 F600 X4.297 Y18.124
G01 F600 X4.319 Y18.144
G01 F600 X4.325 Y18.155
G01 F600 X4.351 Y18.179
G01 F600 X4.353 Y18.179
G01 F600 X4.439 Y18.207
G01 F600 X4.478 Y18.243
G00 F3000 Z3.000
G00 F3000 X26.139 Y16.676
G00 F1500 Z0
G01 F600 Z-0.110
G01 F600 X25.843 Y16.613
G01 F600 X25.568 Y16.491
G01 F600 X25.323 Y16.313
G01 F600 X25.121 Y16.089
G01 F600 X24.970 Y15.827
G01 F600 X24.877 Y15.540
G01 F600 X24.846 Y15.240
G01 F600 X24.877 Y14.940
G01 F600 X24.970 Y14.653
G01 F600 X25.121 Y14.391
G01 F600 X25.323 Y14.167
G01 F600 X25.568 Y13.990
G01 F600 X25.843 Y13.867
G01 F600 X26.139 Y13.804
G01 F600 X26.440 Y13.804
G01 F600 X26.736 Y13.867
G01 F600 X27.012 Y13.990
G01 F600 X27.256 Y14.167
G01 F600 X27.458 Y14.392
G01 F600 X27.554 Y14.562
G01 F600 X28.149 Y14.562
G01 F600 X28.149 Y12.691
G01 F600 X28.162 Y12.558
G01 F600 X28.207 Y12.423
G01 F600 X28.278 Y12.299
G01 F600 X28.373 Y12.193
G01 F600 X28.489 Y12.109
G01 F600 X28.619 Y12.051
G01 F600 X28.758 Y12.022
G01 F600 X32.649 Y12.011
G01 F600 X32.741 Y11.851
G01 F600 X32.943 Y11.627
G01 F600 X33.188 Y11.450
G01 F600 X33.463 Y11.327
G01 F600 X33.759 Y11.264
G01 F600 X34.060 Y11.264
G01 F600 X34.356 Y11.327
G01 F600 X34.632 Y11.450
G01 F600 X34.876 Y11.627
G01 F600 X35.078 Y11.852
G01 F600 X35.174 Y12.022
G01 F600 X38.309 Y12.022
G01 F600 X38.309 Y11.429
G01 F600 X38.267 Y11.411
G01 F600 X38.023 Y11.233
G01 F600 X37.821 Y11.009
G01 F600 X37.670 Y10.747
G01 F600 X37.577 Y10.460
G01 F600 X37.546 Y10.160
G01 F600 X37.577 Y9.860
G01 F600 X37.670 Y9.573
G01 F600 X37.821 Y9.311
G01 F600 X38.023 Y9.087
G01 F600 X38.267 Y8.910
G01 F600 X38.308 Y8.891
G01 F600 X38.303 Y6.135
G01 F600 X38.251 Y6.044
G01 F600 X38.198 Y5.883
G01 F600 X38.181 Y5.724
G01 F600 X38.181 Y4.436
G01 F600 X38.198 Y4.277
G01 F600 X38.251 Y4.116
G01 F600 X38.335 Y3.970
G01 F600 X38.448 Y3.844
G01 F600 X38.585 Y3.744
G01 F600 X38.739 Y3.676
G01 F600 X38.905 Y3.641
G01 F600 X39.074 Y3.641
G01 F600 X39.239 Y3.676
G01 F600 X39.394 Y3.744
G01 F600 X39.531 Y3.844
G01 F600 X39.644 Y3.970
G01 F600 X39.729 Y4.116
G01 F600 X39.781 Y4.277
G01 F600 X39.797 Y4.436
G01 F600 X39.797 Y5.724
G01 F600 X39.781 Y5.883
G01 F600 X39.728 Y6.045
G01 F600 X39.671 Y6.142
G01 F600 X39.671 Y8.891
G01 F600 X39.712 Y8.910
G01 F600 X39.956 Y9.087
G01 F600 X40.158 Y9.311
G01 F600 X40.309 Y9.573
G01 F600 X40.402 Y9.860
G01 F600 X40.434 Y10.160
G01 F600 X40.402 Y10.460
G01 F600 X40.309 Y10.747
G01 F600 X40.158 Y11.009
G01 F600 X39.956 Y11.233
G01 F600 X39.712 Y11.411
G01 F600 X39.671 Y11.429
G01 F600 X39.671 Y12.709
G01 F600 X39.657 Y12.842
G01 F600 X39.613 Y12.977
G01 F600 X39.541 Y13.101
G01 F600 X39.446 Y13.207
G01 F600 X39.331 Y13.291
G01 F600 X39.200 Y13.349
G01 F600 X39.061 Y13.378
G01 F600 X35.170 Y13.389
G01 F600 X35.078 Y13.549
G01 F600 X34.876 Y13.773
G01 F600 X34.632 Y13.950
G01 F600 X34.356 Y14.073
G01 F600 X34.060 Y14.136
G01 F600 X33.759 Y14.136
G01 F600 X33.463 Y14.073
G01 F600 X33.188 Y13.950
G01 F600 X32.943 Y13.773
G01 F600 X32.741 Y13.548
G01 F600 X32.645 Y13.378
G01 F600 X29.511 Y13.378
G01 F600 X29.511 Y15.249
G01 F600 X29.497 Y15.382
G01 F600 X29.453 Y15.517
G01 F600 X29.381 Y15.641
G01 F600 X29.286 Y15.747
G01 F600 X29.171 Y15.831
G01 F600 X29.040 Y15.889
G01 F600 X28.902 Y15.918
G01 F600 X27.550 Y15.929
G01 F600 X27.458 Y16.089
G01 F600 X27.256 Y16.313
G01 F600 X27.012 Y16.491
G01 F600 X26.736 Y16.613
G01 F600 X26.440 Y16.676
G01 F600 X26.139 Y16.676
G00 F3000 Z3.000
G00 F3000 X45.965 Y13.508
G00 F1500 Z0
G01 F600 Z-0.110
G01 F600 X45.806 Y13.491
G01 F600 X45.644 Y13.439
G01 F600 X45.544 Y13.378
G01 F600 X41.458 Y13.378
G01 F600 X41.319 Y13.349
G01 F600 X41.189 Y13.291
G01 F600 X41.073 Y13.207
G01 F600 X40.978 Y13.101
G01 F600 X40.907 Y12.977
G01 F600 X40.862 Y12.842
G01 F600 X40.849 Y12.709
G01 F600 X40.843 Y6.135
G01 F600 X40.791 Y6.044
G01 F600 X40.738 Y5.883
G01 F600 X40.721 Y5.724
G01 F600 X40.721 Y4.436
G01 F600 X40.738 Y4.277
G01 F600 X40.791 Y4.116
G01 F600 X40.875 Y3.970
G01 F600 X40.988 Y3.844
G01 F600 X41.125 Y3.744
G01 F600 X41.279 Y3.676
G01 F600 X41.445 Y3.641
G01 F600 X41.614 Y3.641
G01 F600 X41.779 Y3.676
G01 F600 X41.934 Y3.744
G01 F600 X42.071 Y3.844
G01 F600 X42.184 Y3.970
G01 F600 X42.269 Y4.116
G01 F600 X42.321 Y4.277
G01 F600 X42.337 Y4.436
G01 F600 X42.337 Y5.724
G01 F600 X42.321 Y5.883
G01 F600 X42.268 Y6.045
G01 F600 X42.211 Y6.142
G01 F600 X42.211 Y12.021
G01 F600 X45.555 Y12.013
G01 F600 X45.646 Y11.961
G01 F600 X45.806 Y11.909
G01 F600 X45.965 Y11.892
G01 F600 X47.254 Y11.892
G01 F600 X47.413 Y11.909
G01 F600 X47.574 Y11.961
G01 F600 X47.720 Y12.046
G01 F600 X47.846 Y12.159
G01 F600 X47.945 Y12.296
G01 F600 X48.014 Y12.450
G01 F600 X48.049 Y12.615
G01 F600 X48.049 Y12.785
G01 F600 X48.014 Y12.950
G01 F600 X47.945 Y13.104
G01 F600 X47.846 Y13.241
G01 F600 X47.720 Y13.354
G01 F600 X47.574 Y13.439
G01 F600 X47.413 Y13.491
G01 F600 X47.254 Y13.508
G01 F600 X45.965 Y13.508
G00 F3000 Z3.000
G00 F3000 X10.899 Y11.596
G00 F1500 Z0
G01 F600 Z-0.110
G01 F600 X10.603 Y11.533
G01 F600 X10.328 Y11.411
G01 F600 X10.083 Y11.233
G01 F600 X9.881 Y11.009
G01 F600 X9.730 Y10.747
G01 F600 X9.637 Y10.460
G01 F600 X9.606 Y10.160
G01 F600 X9.637 Y9.860
G01 F600 X9.730 Y9.573
G01 F600 X9.881 Y9.311
G01 F600 X10.083 Y9.087
G01 F600 X10.328 Y8.910
G01 F600 X10.368 Y8.891
G01 F600 X10.363 Y6.135
G01 F600 X10.311 Y6.044
G01 F600 X10.258 Y5.883
G01 F600 X10.242 Y5.724
G01 F600 X10.242 Y4.436
G01 F600 X10.258 Y4.277
G01 F600 X10.311 Y4.116
G01 F600 X10.395 Y3.970
G01 F600 X10.508 Y3.844
G01 F600 X10.645 Y3.744
G01 F600 X10.800 Y3.676
G01 F600 X10.965 Y3.641
G01 F600 X11.134 Y3.641
G01 F600 X11.300 Y3.676
G01 F600 X11.454 Y3.744
G01 F600 X11.591 Y3.844
G01 F600 X11.704 Y3.970
G01 F600 X11.789 Y4.116
G01 F600 X11.841 Y4.277
G01 F600 X11.857 Y4.436
G01 F600 X11.857 Y5.724
G01 F600 X11.841 Y5.883
G01 F600 X11.788 Y6.045
G01 F600 X11.731 Y6.142
G01 F600 X11.731 Y8.891
G01 F600 X11.772 Y8.910
G01 F600 X12.016 Y9.087
G01 F600 X12.218 Y9.311
G01 F600 X12.369 Y9.573
G01 F600 X12.462 Y9.860
G01 F600 X12.494 Y10.160
G01 F600 X12.462 Y10.460
G01 F600 X12.369 Y10.747
G01 F600 X12.218 Y11.009
G01 F600 X12.016 Y11.233
G01 F600 X11.772 Y11.411
G01 F600 X11.496 Y11.533
G01 F600 X11.200 Y11.596
G01 F600 X10.899 Y11.596
G00 F3000 Z3.000
G00 F3000 X43.919 Y11.596
G00 F1500 Z0
G01 F600 Z-0.110
G01 F600 X43.623 Y11.533
G01 F600 X43.348 Y11.411
G01 F600 X43.103 Y11.233
G01 F600 X42.901 Y11.009
G01 F600 X42.750 Y10.747
G01 F600 X42.657 Y10.460
G01 F600 X42.626 Y10.160
G01 F600 X42.657 Y9.860
G01 F600 X42.750 Y9.573
G01 F600 X42.901 Y9.311
G01 F600 X43.103 Y9.087
G01 F600 X43.348 Y8.910
G01 F600 X43.623 Y8.787
G01 F600 X43.919 Y8.724
G01 F600 X44.220 Y8.724
G01 F600 X44.516 Y8.787
G01 F600 X44.791 Y8.910
G01 F600 X45.036 Y9.087
G01 F600 X45.238 Y9.312
G01 F600 X45.333 Y9.479
G01 F600 X45.553 Y9.474
G01 F600 X45.646 Y9.421
G01 F600 X45.806 Y9.369
G01 F600 X45.965 Y9.352
G01 F600 X47.254 Y9.352
G01 F600 X47.413 Y9.369
G01 F600 X47.574 Y9.421
G01 F600 X47.720 Y9.505
G01 F600 X47.846 Y9.619
G01 F600 X47.945 Y9.755
G01 F600 X48.014 Y9.910
G01 F600 X48.049 Y10.075
G01 F600 X48.049 Y10.245
G01 F600 X48.014 Y10.410
G01 F600 X47.945 Y10.565
G01 F600 X47.846 Y10.701
G01 F600 X47.720 Y10.815
G01 F600 X47.574 Y10.899
G01 F600 X47.413 Y10.951
G01 F600 X47.254 Y10.968
G01 F600 X45.965 Y10.968
G01 F600 X45.806 Y10.951
G01 F600 X45.644 Y10.899
G01 F600 X45.546 Y10.840
G01 F600 X45.331 Y10.847
G01 F600 X45.238 Y11.009
G01 F600 X45.036 Y11.233
G01 F600 X44.791 Y11.411
G01 F600 X44.516 Y11.533
G01 F600 X44.220 Y11.596
G01 F600 X43.919 Y11.596
G00 F3000 Z3.000
G00 F3000 X33.759 Y9.056
G00 F1500 Z0
G01 F600 Z-0.110
G01 F600 X33.463 Y8.993
G01 F600 X33.188 Y8.870
G01 F600 X32.943 Y8.693
G01 F600 X32.741 Y8.468
G01 F600 X32.645 Y8.298
G01 F600 X26.218 Y8.298
G01 F600 X26.079 Y8.269
G01 F600 X25.949 Y8.211
G01 F600 X25.833 Y8.127
G01 F600 X25.738 Y8.021
G01 F600 X25.667 Y7.897
G01 F600 X25.622 Y7.762
G01 F600 X25.609 Y7.629
G01 F600 X25.603 Y6.135
G01 F600 X25.550 Y6.044
G01 F600 X25.498 Y5.883
G01 F600 X25.482 Y5.724
G01 F600 X25.482 Y4.436
G01 F600 X25.498 Y4.277
G01 F600 X25.550 Y4.116
G01 F600 X25.635 Y3.970
G01 F600 X25.748 Y3.844
G01 F600 X25.885 Y3.744
G01 F600 X26.040 Y3.676
G01 F600 X26.205 Y3.641
G01 F600 X26.374 Y3.641
G01 F600 X26.540 Y3.676
G01 F600 X26.694 Y3.744
G01 F600 X26.831 Y3.844
G01 F600 X26.944 Y3.970
G01 F600 X27.029 Y4.116
G01 F600 X27.081 Y4.277
G01 F600 X27.098 Y4.436
G01 F600 X27.098 Y5.724
G01 F600 X27.081 Y5.883
G01 F600 X27.028 Y6.045
G01 F600 X26.971 Y6.142
G01 F600 X26.971 Y6.942
G01 F600 X32.649 Y6.931
G01 F600 X32.741 Y6.771
G01 F600 X32.943 Y6.547
G01 F600 X33.188 Y6.370
G01 F600 X33.463 Y6.247
G01 F600 X33.759 Y6.184
G01 F600 X34.060 Y6.184
G01 F600 X34.356 Y6.247
G01 F600 X34.632 Y6.370
G01 F600 X34.876 Y6.547
G01 F600 X35.078 Y6.771
G01 F600 X35.229 Y7.033
G01 F600 X35.322 Y7.320
G01 F600 X35.354 Y7.620
G01 F600 X35.322 Y7.920
G01 F600 X35.229 Y8.207
G01 F600 X35.078 Y8.469
G01 F600 X34.876 Y8.693
G01 F600 X34.632 Y8.870
G01 F600 X34.356 Y8.993
G01 F600 X34.060 Y9.056
G01 F600 X33.759 Y9.056
G00 F3000 Z3.000
G00 F3000 X28.745 Y6.520
G00 F1500 Z0
G01 F600 Z-0.110
G01 F600 X28.580 Y6.484
G01 F600 X28.425 Y6.416
G01 F600 X28.288 Y6.316
G01 F600 X28.175 Y6.191
G01 F600 X28.091 Y6.044
G01 F600 X28.038 Y5.883
G01 F600 X28.021 Y5.724
G01 F600 X28.021 Y4.436
G01 F600 X28.038 Y4.277
G01 F600 X28.091 Y4.116
G01 F600 X28.175 Y3.970
G01 F600 X28.288 Y3.844
G01 F600 X28.425 Y3.744
G01 F600 X28.580 Y3.676
G01 F600 X28.745 Y3.641
G01 F600 X28.914 Y3.641
G01 F600 X29.080 Y3.676
G01 F600 X29.234 Y3.744
G01 F600 X29.371 Y3.844
G01 F600 X29.484 Y3.970
G01 F600 X29.569 Y4.116
G01 F600 X29.621 Y4.277
G01 F600 X29.634 Y4.402
G01 F600 X30.395 Y4.402
G01 F600 X30.407 Y4.381
G01 F600 X30.573 Y4.196
G01 F600 X30.774 Y4.050
G01 F600 X31.002 Y3.948
G01 F600 X31.245 Y3.897
G01 F600 X31.494 Y3.897
G01 F600 X31.737 Y3.948
G01 F600 X31.965 Y4.050
G01 F600 X32.166 Y4.196
G01 F600 X32.332 Y4.381
G01 F600 X32.457 Y4.596
G01 F600 X32.533 Y4.833
G01 F600 X32.559 Y5.080
G01 F600 X32.533 Y5.327
G01 F600 X32.457 Y5.564
G01 F600 X32.332 Y5.779
G01 F600 X32.166 Y5.964
G01 F600 X31.965 Y6.111
G01 F600 X31.737 Y6.212
G01 F600 X31.494 Y6.263
G01 F600 X31.245 Y6.263
G01 F600 X31.002 Y6.212
G01 F600 X30.774 Y6.111
G01 F600 X30.573 Y5.964
G01 F600 X30.407 Y5.779
G01 F600 X30.395 Y5.758
G01 F600 X29.634 Y5.758
G01 F600 X29.621 Y5.883
G01 F600 X29.569 Y6.044
G01 F600 X29.484 Y6.191
G01 F600 X29.371 Y6.316
G01 F600 X29.234 Y6.416
G01 F600 X29.080 Y6.484
G01 F600 X28.914 Y6.520
G01 F600 X28.745 Y6.520
G00 F3000 Z3.000
G00 F3000 X46.459 Y6.516
G00 F1500 Z0
G01 F600 Z-0.110
G01 F600 X46.163 Y6.453
G01 F600 X45.888 Y6.331
G01 F600 X45.643 Y6.153
G01 F600 X45.441 Y5.929
G01 F600 X45.290 Y5.667
G01 F600 X45.197 Y5.380
G01 F600 X45.166 Y5.080
G01 F600 X45.197 Y4.780
G01 F600 X45.290 Y4.493
G01 F600 X45.441 Y4.231
G01 F600 X45.643 Y4.007
G01 F600 X45.888 Y3.830
G01 F600 X46.163 Y3.707
G01 F600 X46.459 Y3.644
G01 F600 X46.760 Y3.644
G01 F600 X47.056 Y3.707
G01 F600 X47.332 Y3.830
G01 F600 X47.576 Y4.007
G01 F600 X47.778 Y4.231
G01 F600 X47.929 Y4.493
G01 F600 X48.022 Y4.780
G01 F600 X48.053 Y5.080
G01 F600 X48.022 Y5.380
G01 F600 X47.929 Y5.667
G01 F600 X47.778 Y5.929
G01 F600 X47.576 Y6.153
G01 F600 X47.332 Y6.331
G01 F600 X47.056 Y6.453
G01 F600 X46.760 Y6.516
G01 F600 X46.459 Y6.516
G00 F3000 Z3.000
G00 F3000 X5.819 Y6.516
G00 F1500 Z0
G01 F600 Z-0.110
G01 F600 X5.523 Y6.453
G01 F600 X5.248 Y6.331
G01 F600 X5.003 Y6.153
G01 F600 X4.801 Y5.929
G01 F600 X4.650 Y5.667
G01 F600 X4.557 Y5.380
G01 F600 X4.526 Y5.080
G01 F600 X4.557 Y4.780
G01 F600 X4.650 Y4.493
G01 F600 X4.801 Y4.231
G01 F600 X5.003 Y4.007
G01 F600 X5.248 Y3.830
G01 F600 X5.523 Y3.707
G01 F600 X5.819 Y3.644
G01 F600 X6.120 Y3.644
G01 F600 X6.416 Y3.707
G01 F600 X6.692 Y3.830
G01 F600 X6.936 Y4.007
G01 F600 X7.138 Y4.231
G01 F600 X7.289 Y4.493
G01 F600 X7.382 Y4.780
G01 F600 X7.413 Y5.080
G01 F600 X7.382 Y5.380
G01 F600 X7.289 Y5.667
G01 F600 X7.138 Y5.929
G01 F600 X6.936 Y6.153
G01 F600 X6.692 Y6.331
G01 F600 X6.416 Y6.453
G01 F600 X6.120 Y6.516
G01 F600 X5.819 Y6.516
G00 F3000 Z3.000
G00 F3000 X28.724 Y37.200
G00 F1500 Z0
G01 F600 Z-0.110
G01 F600 X28.517 Y37.156
G01 F600 X28.324 Y37.070
G01 F600 X28.154 Y36.946
G01 F600 X28.012 Y36.789
G01 F600 X27.907 Y36.606
G01 F600 X27.854 Y36.443
G01 F600 X27.667 Y36.446
G01 F600 X27.620 Y36.527
G01 F600 X27.390 Y36.782
G01 F600 X27.112 Y36.985
G01 F600 X26.798 Y37.125
G01 F600 X26.461 Y37.196
G01 F600 X26.118 Y37.196
G01 F600 X25.781 Y37.125
G01 F600 X25.467 Y36.985
G01 F600 X25.189 Y36.782
G01 F600 X24.959 Y36.527
G01 F600 X24.787 Y36.229
G01 F600 X24.680 Y35.902
G01 F600 X24.644 Y35.560
G01 F600 X24.680 Y35.218
G01 F600 X24.787 Y34.891
G01 F600 X24.959 Y34.593
G01 F600 X25.189 Y34.337
G01 F600 X25.467 Y34.135
G01 F600 X25.781 Y33.995
G01 F600 X26.118 Y33.924
G01 F600 X26.461 Y33.924
G01 F600 X26.798 Y33.995
G01 F600 X27.112 Y34.135
G01 F600 X27.390 Y34.337
G01 F600 X27.622 Y34.594
G01 F600 X27.671 Y34.682
G01 F600 X27.852 Y34.682
G01 F600 X27.907 Y34.514
G01 F600 X28.012 Y34.331
G01 F600 X28.154 Y34.174
G01 F600 X28.324 Y34.050
G01 F600 X28.517 Y33.964
G01 F600 X28.724 Y33.921
G01 F600 X28.935 Y33.921
G01 F600 X29.142 Y33.964
G01 F600 X29.335 Y34.050
G01 F600 X29.505 Y34.174
G01 F600 X29.647 Y34.331
G01 F600 X29.752 Y34.514
G01 F600 X29.818 Y34.715
G01 F600 X29.838 Y34.905
G01 F600 X29.838 Y36.215
G01 F600 X29.818 Y36.405
G01 F600 X29.752 Y36.606
G01 F600 X29.647 Y36.789
G01 F600 X29.505 Y36.946
G01 F600 X29.335 Y37.070
G01 F600 X29.142 Y37.156
G01 F600 X28.935 Y37.200
G01 F600 X28.724 Y37.200
G00 F3000 Z3.000
G00 F3000 X33.804 Y37.200
G00 F1500 Z0
G01 F600 Z-0.110
G01 F600 X33.597 Y37.156
G01 F600 X33.404 Y37.070
G01 F600 X33.234 Y36.946
G01 F600 X33.092 Y36.789
G01 F600 X32.987 Y36.606
G01 F600 X32.922 Y36.405
G01 F600 X32.901 Y36.215
G01 F600 X32.901 Y34.905
G01 F600 X32.922 Y34.715
G01 F600 X32.987 Y34.514
G01 F600 X33.092 Y34.331
G01 F600 X33.234 Y34.174
G01 F600 X33.404 Y34.050
G01 F600 X33.597 Y33.964
G01 F600 X33.804 Y33.921
G01 F600 X34.015 Y33.921
G01 F600 X34.222 Y33.964
G01 F600 X34.415 Y34.050
G01 F600 X34.585 Y34.174
G01 F600 X34.727 Y34.331
G01 F600 X34.832 Y34.514
G01 F600 X34.887 Y34.682
G01 F600 X35.569 Y34.682
G01 F600 X35.569 Y34.402
G01 F600 X35.349 Y34.242
G01 F600 X35.119 Y33.987
G01 F600 X34.947 Y33.689
G01 F600 X34.840 Y33.362
G01 F600 X34.804 Y33.020
G01 F600 X34.840 Y32.678
G01 F600 X34.947 Y32.351
G01 F600 X35.119 Y32.053
G01 F600 X35.349 Y31.798
G01 F600 X35.627 Y31.595
G01 F600 X35.941 Y31.455
G01 F600 X36.278 Y31.384
G01 F600 X36.621 Y31.384
G01 F600 X36.958 Y31.455
G01 F600 X37.272 Y31.595
G01 F600 X37.550 Y31.798
G01 F600 X37.780 Y32.053
G01 F600 X37.952 Y32.351
G01 F600 X38.059 Y32.678
G01 F600 X38.095 Y33.020
G01 F600 X38.059 Y33.362
G01 F600 X37.952 Y33.689
G01 F600 X37.780 Y33.987
G01 F600 X37.550 Y34.242
G01 F600 X37.331 Y34.402
G01 F600 X37.331 Y34.682
G01 F600 X38.012 Y34.682
G01 F600 X38.067 Y34.514
G01 F600 X38.172 Y34.331
G01 F600 X38.314 Y34.174
G01 F600 X38.484 Y34.050
G01 F600 X38.677 Y33.964
G01 F600 X38.884 Y33.921
G01 F600 X39.095 Y33.921
G01 F600 X39.302 Y33.964
G01 F600 X39.495 Y34.050
G01 F600 X39.665 Y34.174
G01 F600 X39.807 Y34.331
G01 F600 X39.912 Y34.514
G01 F600 X39.977 Y34.715
G01 F600 X39.998 Y34.905
G01 F600 X39.998 Y36.215
G01 F600 X39.977 Y36.405
G01 F600 X39.912 Y36.606
G01 F600 X39.807 Y36.789
G01 F600 X39.665 Y36.946
G01 F600 X39.495 Y37.070
G01 F600 X39.302 Y37.156
G01 F600 X39.095 Y37.200
G01 F600 X38.884 Y37.200
G01 F600 X38.677 Y37.156
G01 F600 X38.484 Y37.070
G01 F600 X38.314 Y36.946
G01 F600 X38.172 Y36.789
G01 F600 X38.067 Y36.606
G01 F600 X38.012 Y36.438
G01 F600 X34.887 Y36.438
G01 F600 X34.832 Y36.606
G01 F600 X34.727 Y36.789
G01 F600 X34.585 Y36.946
G01 F600 X34.415 Y37.070
G01 F600 X34.222 Y37.156
G01 F600 X34.015 Y37.200
G01 F600 X33.804 Y37.200
G00 F3000 Z3.000
G00 F3000 X41.424 Y37.200
G00 F1500 Z0
G01 F600 Z-0.110
G01 F600 X41.217 Y37.156
G01 F600 X41.024 Y37.070
G01 F600 X40.854 Y36.946
G01 F600 X40.712 Y36.789
G01 F600 X40.607 Y36.606
G01 F600 X40.541 Y36.405
G01 F600 X40.522 Y36.215
G01 F600 X40.522 Y34.905
G01 F600 X40.541 Y34.715
G01 F600 X40.608 Y34.512
G01 F600 X40.648 Y34.443
G01 F600 X40.648 Y31.358
G01 F600 X17.011 Y31.358
G01 F600 X17.011 Y35.580
G01 F600 X16.993 Y35.744
G01 F600 X16.936 Y35.919
G01 F600 X16.844 Y36.079
G01 F600 X16.720 Y36.216
G01 F600 X16.571 Y36.325
G01 F600 X16.402 Y36.400
G01 F600 X16.222 Y36.438
G01 F600 X8.417 Y36.438
G01 F600 X8.237 Y36.400
G01 F600 X8.068 Y36.325
G01 F600 X7.919 Y36.216
G01 F600 X7.795 Y36.079
G01 F600 X7.703 Y35.919
G01 F600 X7.646 Y35.744
G01 F600 X7.629 Y35.580
G01 F600 X7.623 Y34.129
G01 F600 X7.587 Y34.066
G01 F600 X7.522 Y33.865
G01 F600 X7.502 Y33.675
G01 F600 X7.502 Y32.365
G01 F600 X7.522 Y32.175
G01 F600 X7.588 Y31.972
G01 F600 X7.629 Y31.903
G01 F600 X7.629 Y13.770
G01 F600 X7.579 Y13.734
G01 F600 X7.384 Y13.518
G01 F600 X7.239 Y13.266
G01 F600 X7.149 Y12.989
G01 F600 X7.118 Y12.700
G01 F600 X7.149 Y12.411
G01 F600 X7.239 Y12.134
G01 F600 X7.384 Y11.882
G01 F600 X7.579 Y11.666
G01 F600 X7.814 Y11.495
G01 F600 X8.080 Y11.377
G01 F600 X8.364 Y11.317
G01 F600 X8.655 Y11.317
G01 F600 X8.939 Y11.377
G01 F600 X9.205 Y11.495
G01 F600 X9.440 Y11.666
G01 F600 X9.580 Y11.822
G01 F600 X12.708 Y11.822
G01 F600 X12.703 Y6.188
G01 F600 X12.667 Y6.126
G01 F600 X12.602 Y5.925
G01 F600 X12.582 Y5.735
G01 F600 X12.582 Y4.425
G01 F600 X12.602 Y4.235
G01 F600 X12.667 Y4.034
G01 F600 X12.772 Y3.851
G01 F600 X12.914 Y3.694
G01 F600 X13.084 Y3.570
G01 F600 X13.277 Y3.484
G01 F600 X13.484 Y3.441
G01 F600 X13.695 Y3.441
G01 F600 X13.902 Y3.484
G01 F600 X14.095 Y3.570
G01 F600 X14.265 Y3.694
G01 F600 X14.407 Y3.851
G01 F600 X14.512 Y4.034
G01 F600 X14.578 Y4.235
G01 F600 X14.598 Y4.425
G01 F600 X14.598 Y5.735
G01 F600 X14.578 Y5.925
G01 F600 X14.511 Y6.128
G01 F600 X14.471 Y6.197
G01 F600 X14.471 Y12.720
G01 F600 X14.453 Y12.884
G01 F600 X14.396 Y13.059
G01 F600 X14.304 Y13.219
G01 F600 X14.180 Y13.356
G01 F600 X14.031 Y13.465
G01 F600 X13.862 Y13.540
G01 F600 X13.682 Y13.578
G01 F600 X9.580 Y13.578
G01 F600 X9.440 Y13.734
G01 F600 X9.391 Y13.770
G01 F600 X9.396 Y31.912
G01 F600 X9.432 Y31.974
G01 F600 X9.498 Y32.175
G01 F600 X9.518 Y32.365
G01 F600 X9.518 Y33.675
G01 F600 X9.498 Y33.865
G01 F600 X9.431 Y34.068
G01 F600 X9.391 Y34.137
G01 F600 X9.391 Y34.682
G01 F600 X15.248 Y34.682
G01 F600 X15.248 Y30.460
G01 F600 X15.266 Y30.296
G01 F600 X15.323 Y30.121
G01 F600 X15.415 Y29.961
G01 F600 X15.539 Y29.824
G01 F600 X15.688 Y29.715
G01 F600 X15.857 Y29.640
G01 F600 X16.037 Y29.602
G01 F600 X41.622 Y29.602
G01 F600 X41.802 Y29.640
G01 F600 X41.971 Y29.715
G01 F600 X42.120 Y29.824
G01 F600 X42.244 Y29.961
G01 F600 X42.336 Y30.121
G01 F600 X42.393 Y30.296
G01 F600 X42.410 Y30.460
G01 F600 X42.416 Y34.452
G01 F600 X42.452 Y34.514
G01 F600 X42.518 Y34.715
G01 F600 X42.538 Y34.905
G01 F600 X42.538 Y36.215
G01 F600 X42.518 Y36.405
G01 F600 X42.452 Y36.606
G01 F600 X42.347 Y36.789
G01 F600 X42.205 Y36.946
G01 F600 X42.035 Y37.070
G01 F600 X41.842 Y37.156
G01 F600 X41.635 Y37.200
G01 F600 X41.424 Y37.200
G00 F3000 Z3.000
G00 F3000 X18.564 Y37.200
G00 F1500 Z0
G01 F600 Z-0.110
G01 F600 X18.357 Y37.156
G01 F600 X18.164 Y37.070
G01 F600 X17.994 Y36.946
G01 F600 X17.852 Y36.789
G01 F600 X17.747 Y36.606
G01 F600 X17.681 Y36.405
G01 F600 X17.662 Y36.215
G01 F600 X17.662 Y34.905
G01 F600 X17.681 Y34.715
G01 F600 X17.748 Y34.512
G01 F600 X17.788 Y34.443
G01 F600 X17.788 Y34.402
G01 F600 X17.569 Y34.242
G01 F600 X17.339 Y33.987
G01 F600 X17.167 Y33.689
G01 F600 X17.060 Y33.362
G01 F600 X17.024 Y33.020
G01 F600 X17.060 Y32.678
G01 F600 X17.167 Y32.351
G01 F600 X17.339 Y32.053
G01 F600 X17.569 Y31.798
G01 F600 X17.847 Y31.595
G01 F600 X18.161 Y31.455
G01 F600 X18.498 Y31.384
G01 F600 X18.841 Y31.384
G01 F600 X19.178 Y31.455
G01 F600 X19.492 Y31.595
G01 F600 X19.770 Y31.798
G01 F600 X19.940 Y31.986
G01 F600 X20.109 Y31.798
G01 F600 X20.387 Y31.595
G01 F600 X20.701 Y31.455
G01 F600 X21.038 Y31.384
G01 F600 X21.381 Y31.384
G01 F600 X21.718 Y31.455
G01 F600 X22.032 Y31.595
G01 F600 X22.310 Y31.798
G01 F600 X22.542 Y32.054
G01 F600 X22.591 Y32.142
G01 F600 X31.462 Y32.142
G01 F600 X31.642 Y32.180
G01 F600 X31.811 Y32.255
G01 F600 X31.960 Y32.364
G01 F600 X32.084 Y32.501
G01 F600 X32.176 Y32.661
G01 F600 X32.233 Y32.836
G01 F600 X32.251 Y33.000
G01 F600 X32.256 Y34.451
G01 F600 X32.292 Y34.514
G01 F600 X32.358 Y34.715
G01 F600 X32.378 Y34.905
G01 F600 X32.378 Y36.215
G01 F600 X32.358 Y36.405
G01 F600 X32.292 Y36.606
G01 F600 X32.187 Y36.789
G01 F600 X32.045 Y36.946
G01 F600 X31.875 Y37.070
G01 F600 X31.682 Y37.156
G01 F600 X31.475 Y37.200
G01 F600 X31.264 Y37.200
G01 F600 X31.057 Y37.156
G01 F600 X30.864 Y37.070
G01 F600 X30.694 Y36.946
G01 F600 X30.552 Y36.789
G01 F600 X30.447 Y36.606
G01 F600 X30.382 Y36.405
G01 F600 X30.362 Y36.215
G01 F600 X30.362 Y34.905
G01 F600 X30.382 Y34.715
G01 F600 X30.448 Y34.512
G01 F600 X30.489 Y34.443
G01 F600 X30.489 Y33.899
G01 F600 X22.585 Y33.909
G01 F600 X22.540 Y33.987
G01 F600 X22.310 Y34.242
G01 F600 X22.094 Y34.400
G01 F600 X22.095 Y34.449
G01 F600 X22.132 Y34.514
G01 F600 X22.198 Y34.715
G01 F600 X22.218 Y34.905
G01 F600 X22.218 Y36.215
G01 F600 X22.198 Y36.405
G01 F600 X22.132 Y36.606
G01 F600 X22.027 Y36.789
G01 F600 X21.885 Y36.946
G01 F600 X21.715 Y37.070
G01 F600 X21.522 Y37.156
G01 F600 X21.315 Y37.200
G01 F600 X21.104 Y37.200
G01 F600 X20.897 Y37.156
G01 F600 X20.704 Y37.070
G01 F600 X20.534 Y36.946
G01 F600 X20.392 Y36.789
G01 F600 X20.287 Y36.606
G01 F600 X20.222 Y36.405
G01 F600 X20.201 Y36.215
G01 F600 X20.201 Y34.905
G01 F600 X20.222 Y34.715
G01 F600 X20.288 Y34.512
G01 F600 X20.329 Y34.443
G01 F600 X20.329 Y34.402
G01 F600 X20.109 Y34.242
G01 F600 X19.940 Y34.055
G01 F600 X19.770 Y34.242
G01 F600 X19.554 Y34.400
G01 F600 X19.555 Y34.449
G01 F600 X19.592 Y34.514
G01 F600 X19.658 Y34.715
G01 F600 X19.678 Y34.905
G01 F600 X19.678 Y36.215
G01 F600 X19.658 Y36.405
G01 F600 X19.592 Y36.606
G01 F600 X19.487 Y36.789
G01 F600 X19.345 Y36.946
G01 F600 X19.175 Y37.070
G01 F600 X18.982 Y37.156
G01 F600 X18.775 Y37.200
G01 F600 X18.564 Y37.200
G00 F3000 Z3.000
G00 F3000 X5.798 Y37.196
G00 F1500 Z0
G01 F600 Z-0.110
G01 F600 X5.461 Y37.125
G01 F600 X5.147 Y36.985
G01 F600 X4.869 Y36.782
G01 F600 X4.639 Y36.527
G01 F600 X4.467 Y36.229
G01 F600 X4.360 Y35.902
G01 F600 X4.324 Y35.560
G01 F600 X4.360 Y35.218
G01 F600 X4.467 Y34.891
G01 F600 X4.639 Y34.593
G01 F600 X4.869 Y34.337
G01 F600 X5.147 Y34.135
G01 F600 X5.461 Y33.995
G01 F600 X5.798 Y33.924
G01 F600 X6.141 Y33.924
G01 F600 X6.478 Y33.995
G01 F600 X6.792 Y34.135
G01 F600 X7.070 Y34.337
G01 F600 X7.300 Y34.593
G01 F600 X7.472 Y34.891
G01 F600 X7.579 Y35.218
G01 F600 X7.615 Y35.560
G01 F600 X7.579 Y35.902
G01 F600 X7.472 Y36.229
G01 F600 X7.300 Y36.527
G01 F600 X7.070 Y36.782
G01 F600 X6.792 Y36.985
G01 F600 X6.478 Y37.125
G01 F600 X6.141 Y37.196
G01 F600 X5.798 Y37.196
G00 F3000 Z3.000
G00 F3000 X46.438 Y37.196
G00 F1500 Z0
G01 F600 Z-0.110
G01 F600 X46.101 Y37.125
G01 F600 X45.787 Y36.985
G01 F600 X45.509 Y36.782
G01 F600 X45.279 Y36.527
G01 F600 X45.107 Y36.229
G01 F600 X45.000 Y35.902
G01 F600 X44.964 Y35.560
G01 F600 X45.000 Y35.218
G01 F600 X45.107 Y34.891
G01 F600 X45.279 Y34.593
G01 F600 X45.509 Y34.337
G01 F600 X45.787 Y34.135
G01 F600 X46.101 Y33.995
G01 F600 X46.438 Y33.924
G01 F600 X46.781 Y33.924
G01 F600 X47.118 Y33.995
G01 F600 X47.432 Y34.135
G01 F600 X47.710 Y34.337
G01 F600 X47.940 Y34.593
G01 F600 X48.112 Y34.891
G01 F600 X48.219 Y35.218
G01 F600 X48.255 Y35.560
G01 F600 X48.219 Y35.902
G01 F600 X48.112 Y36.229
G01 F600 X47.940 Y36.527
G01 F600 X47.710 Y36.782
G01 F600 X47.432 Y36.985
G01 F600 X47.118 Y37.125
G01 F600 X46.781 Y37.196
G01 F600 X46.438 Y37.196
G00 F3000 Z3.000
G00 F3000 X13.484 Y34.660
G00 F1500 Z0
G01 F600 Z-0.110
G01 F600 X13.277 Y34.616
G01 F600 X13.084 Y34.530
G01 F600 X12.914 Y34.406
G01 F600 X12.772 Y34.249
G01 F600 X12.667 Y34.066
G01 F600 X12.602 Y33.865
G01 F600 X12.582 Y33.675
G01 F600 X12.582 Y32.365
G01 F600 X12.602 Y32.175
G01 F600 X12.668 Y31.972
G01 F600 X12.709 Y31.903
G01 F600 X12.709 Y16.622
G01 F600 X12.489 Y16.463
G01 F600 X12.259 Y16.207
G01 F600 X12.087 Y15.909
G01 F600 X11.980 Y15.582
G01 F600 X11.944 Y15.240
G01 F600 X11.980 Y14.898
G01 F600 X12.087 Y14.571
G01 F600 X12.259 Y14.273
G01 F600 X12.489 Y14.018
G01 F600 X12.767 Y13.815
G01 F600 X13.081 Y13.675
G01 F600 X13.418 Y13.604
G01 F600 X13.761 Y13.604
G01 F600 X14.098 Y13.675
G01 F600 X14.412 Y13.815
G01 F600 X14.690 Y14.018
G01 F600 X14.920 Y14.273
G01 F600 X15.092 Y14.571
G01 F600 X15.199 Y14.898
G01 F600 X15.235 Y15.240
G01 F600 X15.199 Y15.582
G01 F600 X15.092 Y15.909
G01 F600 X14.920 Y16.207
G01 F600 X14.690 Y16.463
G01 F600 X14.471 Y16.622
G01 F600 X14.471 Y21.979
G01 F600 X15.020 Y21.974
G01 F600 X15.084 Y21.937
G01 F600 X15.285 Y21.872
G01 F600 X15.475 Y21.852
G01 F600 X16.784 Y21.852
G01 F600 X16.975 Y21.872
G01 F600 X17.175 Y21.937
G01 F600 X17.358 Y22.043
G01 F600 X17.515 Y22.184
G01 F600 X17.639 Y22.355
G01 F600 X17.725 Y22.548
G01 F600 X17.769 Y22.754
G01 F600 X17.769 Y22.966
G01 F600 X17.725 Y23.172
G01 F600 X17.639 Y23.365
G01 F600 X17.515 Y23.536
G01 F600 X17.358 Y23.677
G01 F600 X17.175 Y23.783
G01 F600 X16.975 Y23.848
G01 F600 X16.784 Y23.868
G01 F600 X15.475 Y23.868
G01 F600 X15.285 Y23.848
G01 F600 X15.080 Y23.782
G01 F600 X15.008 Y23.738
G01 F600 X14.471 Y23.738
G01 F600 X14.471 Y27.062
G01 F600 X16.179 Y27.062
G01 F600 X17.293 Y27.052
G01 F600 X17.339 Y26.973
G01 F600 X17.569 Y26.718
G01 F600 X17.847 Y26.515
G01 F600 X18.161 Y26.375
G01 F600 X18.498 Y26.304
G01 F600 X18.841 Y26.304
G01 F600 X19.178 Y26.375
G01 F600 X19.492 Y26.515
G01 F600 X19.770 Y26.717
G01 F600 X20.002 Y26.974
G01 F600 X20.051 Y27.062
G01 F600 X30.306 Y27.054
G01 F600 X30.439 Y26.906
G01 F600 X30.674 Y26.735
G01 F600 X30.940 Y26.617
G01 F600 X31.224 Y26.557
G01 F600 X31.515 Y26.557
G01 F600 X31.799 Y26.617
G01 F600 X32.065 Y26.735
G01 F600 X32.300 Y26.906
G01 F600 X32.432 Y27.053
G01 F600 X35.074 Y27.051
G01 F600 X35.119 Y26.973
G01 F600 X35.349 Y26.718
G01 F600 X35.627 Y26.515
G01 F600 X35.941 Y26.375
G01 F600 X36.278 Y26.304
G01 F600 X36.621 Y26.304
G01 F600 X36.958 Y26.375
G01 F600 X37.272 Y26.515
G01 F600 X37.550 Y26.717
G01 F600 X37.782 Y26.974
G01 F600 X37.831 Y27.062
G01 F600 X45.501 Y27.053
G01 F600 X45.564 Y27.017
G01 F600 X45.765 Y26.952
G01 F600 X45.955 Y26.932
G01 F600 X47.264 Y26.932
G01 F600 X47.455 Y26.952
G01 F600 X47.655 Y27.017
G01 F600 X47.838 Y27.123
G01 F600 X47.995 Y27.264
G01 F600 X48.119 Y27.435
G01 F600 X48.205 Y27.628
G01 F600 X48.249 Y27.834
G01 F600 X48.249 Y28.046
G01 F600 X48.205 Y28.252
G01 F600 X48.119 Y28.445
G01 F600 X47.995 Y28.616
G01 F600 X47.838 Y28.757
G01 F600 X47.655 Y28.863
G01 F600 X47.455 Y28.928
G01 F600 X47.264 Y28.948
G01 F600 X45.955 Y28.948
G01 F600 X45.765 Y28.928
G01 F600 X45.560 Y28.862
G01 F600 X45.489 Y28.818
G01 F600 X37.825 Y28.829
G01 F600 X37.780 Y28.907
G01 F600 X37.550 Y29.163
G01 F600 X37.272 Y29.365
G01 F600 X36.958 Y29.505
G01 F600 X36.621 Y29.576
G01 F600 X36.278 Y29.576
G01 F600 X35.941 Y29.505
G01 F600 X35.627 Y29.365
G01 F600 X35.349 Y29.163
G01 F600 X35.117 Y28.906
G01 F600 X35.068 Y28.818
G01 F600 X32.439 Y28.820
G01 F600 X32.300 Y28.974
G01 F600 X32.065 Y29.145
G01 F600 X31.799 Y29.263
G01 F600 X31.515 Y29.323
G01 F600 X31.224 Y29.323
G01 F600 X30.940 Y29.263
G01 F600 X30.674 Y29.145
G01 F600 X30.439 Y28.974
G01 F600 X30.302 Y28.822
G01 F600 X20.045 Y28.829
G01 F600 X20.000 Y28.907
G01 F600 X19.770 Y29.163
G01 F600 X19.492 Y29.365
G01 F600 X19.178 Y29.505
G01 F600 X18.841 Y29.576
G01 F600 X18.498 Y29.576
G01 F600 X18.161 Y29.505
G01 F600 X17.847 Y29.365
G01 F600 X17.569 Y29.163
G01 F600 X17.338 Y28.906
G01 F600 X17.288 Y28.818
G01 F600 X14.471 Y28.818
G01 F600 X14.476 Y31.912
G01 F600 X14.512 Y31.974
G01 F600 X14.578 Y32.175
G01 F600 X14.598 Y32.365
G01 F600 X14.598 Y33.675
G01 F600 X14.578 Y33.865
G01 F600 X14.512 Y34.066
G01 F600 X14.407 Y34.249
G01 F600 X14.265 Y34.406
G01 F600 X14.095 Y34.530
G01 F600 X13.902 Y34.616
G01 F600 X13.695 Y34.660
G01 F600 X13.484 Y34.660
G00 F3000 Z3.000
G00 F3000 X5.845 Y28.122
G00 F1500 Z0
G01 F600 Z-0.110
G01 F600 X3.754 Y28.119
G01 F600 X3.576 Y28.017
G01 F600 X3.467 Y27.867
G01 F600 X3.431 Y27.699
G01 F600 X3.437 Y27.661
G01 F600 X3.431 Y27.634
G01 F600 X3.437 Y27.597
G01 F600 X3.431 Y27.572
G01 F600 X3.437 Y27.534
G01 F600 X3.429 Y27.495
G01 F600 X3.467 Y27.314
G01 F600 X3.566 Y27.178
G01 F600 X3.467 Y27.041
G01 F600 X3.431 Y26.872
G01 F600 X3.437 Y26.835
G01 F600 X3.431 Y26.810
G01 F600 X3.437 Y26.771
G01 F600 X3.431 Y26.745
G01 F600 X3.437 Y26.708
G01 F600 X3.429 Y26.670
G01 F600 X3.467 Y26.489
G01 F600 X3.543 Y26.385
G01 F600 X3.467 Y26.280
G01 F600 X3.431 Y26.112
G01 F600 X3.437 Y26.074
G01 F600 X3.431 Y26.048
G01 F600 X3.437 Y26.010
G01 F600 X3.431 Y25.983
G01 F600 X3.437 Y25.946
G01 F600 X3.429 Y25.908
G01 F600 X3.467 Y25.727
G01 F600 X3.543 Y25.623
G01 F600 X3.467 Y25.518
G01 F600 X3.431 Y25.350
G01 F600 X3.437 Y25.312
G01 F600 X3.431 Y25.286
G01 F600 X3.437 Y25.248
G01 F600 X3.431 Y25.221
G01 F600 X3.437 Y25.184
G01 F600 X3.431 Y25.159
G01 F600 X3.437 Y25.120
G01 F600 X3.431 Y25.094
G01 F600 X3.437 Y25.057
G01 F600 X3.431 Y25.031
G01 F600 X3.437 Y24.994
G01 F600 X3.431 Y24.969
G01 F600 X3.437 Y24.931
G01 F600 X3.431 Y24.905
G01 F600 X3.437 Y24.867
G01 F600 X3.431 Y24.840
G01 F600 X3.437 Y24.803
G01 F600 X3.431 Y24.778
G01 F600 X3.437 Y24.740
G01 F600 X3.429 Y24.701
G01 F600 X3.449 Y24.606
G01 F600 X3.431 Y24.523
G01 F600 X3.437 Y24.486
G01 F600 X3.431 Y24.461
G01 F600 X3.437 Y24.423
G01 F600 X3.431 Y24.397
G01 F600 X3.437 Y24.359
G01 F600 X3.429 Y24.320
G01 F600 X3.467 Y24.139
G01 F600 X3.474 Y24.130
G01 F600 X3.467 Y24.120
G01 F600 X3.431 Y23.951
G01 F600 X3.437 Y23.914
G01 F600 X3.431 Y23.888
G01 F600 X3.437 Y23.851
G01 F600 X3.429 Y23.813
G01 F600 X3.467 Y23.632
G01 F600 X3.497 Y23.591
G01 F600 X3.467 Y23.549
G01 F600 X3.431 Y23.380
G01 F600 X3.437 Y23.343
G01 F600 X3.431 Y23.318
G01 F600 X3.437 Y23.280
G01 F600 X3.431 Y23.254
G01 F600 X3.437 Y23.216
G01 F600 X3.429 Y23.177
G01 F600 X3.467 Y22.996
G01 F600 X3.576 Y22.847
G01 F600 X3.608 Y22.828
G01 F600 X3.576 Y22.810
G01 F600 X3.467 Y22.660
G01 F600 X3.431 Y22.491
G01 F600 X3.437 Y22.454
G01 F600 X3.431 Y22.429
G01 F600 X3.437 Y22.391
G01 F600 X3.431 Y22.365
G01 F600 X3.437 Y22.327
G01 F600 X3.429 Y22.288
G01 F600 X3.467 Y22.107
G01 F600 X3.576 Y21.957
G01 F600 X3.736 Y21.865
G01 F600 X3.861 Y21.852
G01 F600 X5.083 Y21.852
G01 F600 X5.240 Y21.903
G01 F600 X5.254 Y21.916
G01 F600 X5.273 Y21.916
G01 F600 X5.430 Y21.967
G01 F600 X5.567 Y22.091
G01 F600 X5.620 Y22.208
G01 F600 X5.630 Y22.217
G01 F600 X5.706 Y22.387
G01 F600 X5.706 Y22.826
G01 F600 X5.643 Y22.967
G01 F600 X5.643 Y23.007
G01 F600 X5.706 Y23.149
G01 F600 X5.706 Y23.377
G01 F600 X5.845 Y23.377
G01 F600 X6.002 Y23.428
G01 F600 X6.139 Y23.552
G01 F600 X6.215 Y23.721
G01 F600 X6.215 Y24.032
G01 F600 X6.139 Y24.201
G01 F600 X6.002 Y24.324
G01 F600 X5.843 Y24.376
G01 F600 X5.657 Y24.374
G01 F600 X5.706 Y24.483
G01 F600 X5.706 Y25.302
G01 F600 X5.630 Y25.471
G01 F600 X5.629 Y25.472
G01 F600 X5.845 Y25.472
G01 F600 X6.002 Y25.523
G01 F600 X6.139 Y25.646
G01 F600 X6.215 Y25.816
G01 F600 X6.215 Y26.255
G01 F600 X6.139 Y26.424
G01 F600 X6.002 Y26.547
G01 F600 X5.864 Y26.592
G01 F600 X5.828 Y26.596
G01 F600 X5.811 Y26.611
G01 F600 X5.671 Y26.657
G01 F600 X5.637 Y26.660
G01 F600 X5.621 Y26.674
G01 F600 X5.530 Y26.704
G01 F600 X5.493 Y26.737
G01 F600 X5.472 Y26.744
G01 F600 X5.621 Y26.793
G01 F600 X5.634 Y26.805
G01 F600 X5.654 Y26.805
G01 F600 X5.811 Y26.856
G01 F600 X5.825 Y26.869
G01 F600 X5.845 Y26.869
G01 F600 X6.002 Y26.920
G01 F600 X6.139 Y27.044
G01 F600 X6.215 Y27.213
G01 F600 X6.215 Y27.779
G01 F600 X6.139 Y27.948
G01 F600 X6.002 Y28.071
G01 F600 X5.845 Y28.122
G00 F3000 Z3.000
G00 F3000 X26.118 Y27.036
G00 F1500 Z0
G01 F600 Z-0.110
G01 F600 X25.781 Y26.965
G01 F600 X25.467 Y26.825
G01 F600 X25.189 Y26.623
G01 F600 X24.959 Y26.367
G01 F600 X24.787 Y26.069
G01 F600 X24.680 Y25.742
G01 F600 X24.644 Y25.400
G01 F600 X24.680 Y25.058
G01 F600 X24.787 Y24.731
G01 F600 X24.959 Y24.433
G01 F600 X25.189 Y24.178
G01 F600 X25.467 Y23.975
G01 F600 X25.781 Y23.835
G01 F600 X26.118 Y23.764
G01 F600 X26.461 Y23.764
G01 F600 X26.798 Y23.835
G01 F600 X27.112 Y23.975
G01 F600 X27.390 Y24.177
G01 F600 X27.622 Y24.434
G01 F600 X27.671 Y24.522
G01 F600 X35.569 Y24.522
G01 F600 X35.569 Y16.118
G01 F600 X32.440 Y16.118
G01 F600 X32.300 Y16.274
G01 F600 X32.065 Y16.445
G01 F600 X31.799 Y16.563
G01 F600 X31.515 Y16.623
G01 F600 X31.224 Y16.623
G01 F600 X30.940 Y16.563
G01 F600 X30.674 Y16.445
G01 F600 X30.439 Y16.274
G01 F600 X30.244 Y16.058
G01 F600 X30.099 Y15.806
G01 F600 X30.009 Y15.529
G01 F600 X29.978 Y15.240
G01 F600 X30.009 Y14.951
G01 F600 X30.099 Y14.674
G01 F600 X30.244 Y14.422
G01 F600 X30.439 Y14.206
G01 F600 X30.674 Y14.035
G01 F600 X30.940 Y13.917
G01 F600 X31.224 Y13.857
G01 F600 X31.515 Y13.857
G01 F600 X31.799 Y13.917
G01 F600 X32.065 Y14.035
G01 F600 X32.300 Y14.206
G01 F600 X32.440 Y14.362
G01 F600 X36.542 Y14.362
G01 F600 X36.722 Y14.400
G01 F600 X36.891 Y14.475
G01 F600 X37.040 Y14.584
G01 F600 X37.164 Y14.721
G01 F600 X37.256 Y14.881
G01 F600 X37.313 Y15.056
G01 F600 X37.331 Y15.221
G01 F600 X37.331 Y24.521
G01 F600 X45.501 Y24.513
G01 F600 X45.564 Y24.477
G01 F600 X45.765 Y24.412
G01 F600 X45.955 Y24.392
G01 F600 X47.264 Y24.392
G01 F600 X47.455 Y24.412
G01 F600 X47.655 Y24.477
G01 F600 X47.838 Y24.583
G01 F600 X47.995 Y24.724
G01 F600 X48.119 Y24.895
G01 F600 X48.205 Y25.088
G01 F600 X48.249 Y25.294
G01 F600 X48.249 Y25.506
G01 F600 X48.205 Y25.712
G01 F600 X48.119 Y25.905
G01 F600 X47.995 Y26.076
G01 F600 X47.838 Y26.217
G01 F600 X47.655 Y26.323
G01 F600 X47.455 Y26.388
G01 F600 X47.264 Y26.408
G01 F600 X45.955 Y26.408
G01 F600 X45.765 Y26.388
G01 F600 X45.560 Y26.322
G01 F600 X45.488 Y26.278
G01 F600 X27.665 Y26.289
G01 F600 X27.620 Y26.367
G01 F600 X27.390 Y26.623
G01 F600 X27.112 Y26.825
G01 F600 X26.798 Y26.965
G01 F600 X26.461 Y27.036
G01 F600 X26.118 Y27.036
G00 F3000 Z3.000
G00 F3000 X45.955 Y23.868
G00 F1500 Z0
G01 F600 Z-0.110
G01 F600 X45.765 Y23.848
G01 F600 X45.560 Y23.782
G01 F600 X45.488 Y23.738
G01 F600 X38.897 Y23.738
G01 F600 X38.717 Y23.700
G01 F600 X38.548 Y23.625
G01 F600 X38.399 Y23.516
G01 F600 X38.275 Y23.379
G01 F600 X38.183 Y23.219
G01 F600 X38.126 Y23.044
G01 F600 X38.108 Y22.880
G01 F600 X38.108 Y15.221
G01 F600 X38.126 Y15.056
G01 F600 X38.183 Y14.881
G01 F600 X38.275 Y14.721
G01 F600 X38.399 Y14.584
G01 F600 X38.548 Y14.475
G01 F600 X38.717 Y14.400
G01 F600 X38.897 Y14.362
G01 F600 X45.501 Y14.354
G01 F600 X45.564 Y14.317
G01 F600 X45.765 Y14.252
G01 F600 X45.955 Y14.232
G01 F600 X47.264 Y14.232
G01 F600 X47.455 Y14.252
G01 F600 X47.655 Y14.317
G01 F600 X47.838 Y14.423
G01 F600 X47.995 Y14.564
G01 F600 X48.119 Y14.735
G01 F600 X48.205 Y14.928
G01 F600 X48.249 Y15.134
G01 F600 X48.249 Y15.346
G01 F600 X48.205 Y15.552
G01 F600 X48.119 Y15.745
G01 F600 X47.995 Y15.916
G01 F600 X47.838 Y16.057
G01 F600 X47.655 Y16.163
G01 F600 X47.455 Y16.228
G01 F600 X47.264 Y16.248
G01 F600 X45.955 Y16.248
G01 F600 X45.765 Y16.228
G01 F600 X45.560 Y16.162
G01 F600 X45.488 Y16.118
G01 F600 X39.870 Y16.118
G01 F600 X39.870 Y21.981
G01 F600 X45.501 Y21.974
G01 F600 X45.564 Y21.937
G01 F600 X45.765 Y21.872
G01 F600 X45.955 Y21.852
G01 F600 X47.264 Y21.852
G01 F600 X47.455 Y21.872
G01 F600 X47.655 Y21.937
G01 F600 X47.838 Y22.043
G01 F600 X47.995 Y22.184
G01 F600 X48.119 Y22.355
G01 F600 X48.205 Y22.548
G01 F600 X48.249 Y22.754
G01 F600 X48.249 Y22.966
G01 F600 X48.205 Y23.172
G01 F600 X48.119 Y23.365
G01 F600 X47.995 Y23.536
G01 F600 X47.838 Y23.677
G01 F600 X47.655 Y23.783
G01 F600 X47.455 Y23.848
G01 F600 X47.264 Y23.868
G01 F600 X45.955 Y23.868
G00 F3000 Z3.000
G00 F3000 X18.577 Y23.738
G00 F1500 Z0
G01 F600 Z-0.110
G01 F600 X18.397 Y23.700
G01 F600 X18.228 Y23.625
G01 F600 X18.079 Y23.516
G01 F600 X17.955 Y23.379
G01 F600 X17.863 Y23.219
G01 F600 X17.806 Y23.044
G01 F600 X17.788 Y22.880
G01 F600 X17.788 Y21.201
G01 F600 X17.239 Y21.206
G01 F600 X17.175 Y21.243
G01 F600 X16.975 Y21.308
G01 F600 X16.784 Y21.328
G01 F600 X15.475 Y21.328
G01 F600 X15.285 Y21.308
G01 F600 X15.084 Y21.243
G01 F600 X14.901 Y21.137
G01 F600 X14.744 Y20.996
G01 F600 X14.620 Y20.825
G01 F600 X14.534 Y20.632
G01 F600 X14.490 Y20.426
G01 F600 X14.490 Y20.214
G01 F600 X14.534 Y20.008
G01 F600 X14.620 Y19.815
G01 F600 X14.744 Y19.644
G01 F600 X14.901 Y19.503
G01 F600 X15.084 Y19.397
G01 F600 X15.285 Y19.332
G01 F600 X15.475 Y19.312
G01 F600 X16.784 Y19.312
G01 F600 X16.975 Y19.332
G01 F600 X17.179 Y19.398
G01 F600 X17.251 Y19.442
G01 F600 X18.762 Y19.442
G01 F600 X18.942 Y19.480
G01 F600 X19.111 Y19.555
G01 F600 X19.260 Y19.664
G01 F600 X19.384 Y19.801
G01 F600 X19.476 Y19.961
G01 F600 X19.533 Y20.136
G01 F600 X19.550 Y20.300
G01 F600 X19.550 Y21.982
G01 F600 X33.029 Y21.982
G01 F600 X33.029 Y21.390
G01 F600 X32.979 Y21.354
G01 F600 X32.784 Y21.138
G01 F600 X32.639 Y20.887
G01 F600 X32.495 Y21.138
G01 F600 X32.300 Y21.354
G01 F600 X32.065 Y21.525
G01 F600 X31.799 Y21.643
G01 F600 X31.515 Y21.703
G01 F600 X31.224 Y21.703
G01 F600 X30.940 Y21.643
G01 F600 X30.674 Y21.525
G01 F600 X30.439 Y21.354
G01 F600 X30.299 Y21.198
G01 F600 X29.807 Y21.198
G01 F600 X29.752 Y21.366
G01 F600 X29.647 Y21.549
G01 F600 X29.505 Y21.706
G01 F600 X29.335 Y21.830
G01 F600 X29.142 Y21.916
G01 F600 X28.935 Y21.960
G01 F600 X28.724 Y21.960
G01 F600 X28.517 Y21.916
G01 F600 X28.324 Y21.830
G01 F600 X28.154 Y21.706
G01 F600 X28.012 Y21.549
G01 F600 X27.907 Y21.366
G01 F600 X27.841 Y21.165
G01 F600 X27.822 Y20.975
G01 F600 X27.822 Y19.665
G01 F600 X27.841 Y19.475
G01 F600 X27.907 Y19.274
G01 F600 X28.012 Y19.091
G01 F600 X28.154 Y18.934
G01 F600 X28.324 Y18.810
G01 F600 X28.517 Y18.724
G01 F600 X28.724 Y18.681
G01 F600 X28.935 Y18.681
G01 F600 X29.142 Y18.724
G01 F600 X29.335 Y18.810
G01 F600 X29.505 Y18.934
G01 F600 X29.647 Y19.091
G01 F600 X29.752 Y19.274
G01 F600 X29.807 Y19.442
G01 F600 X30.299 Y19.442
G01 F600 X30.439 Y19.286
G01 F600 X30.674 Y19.115
G01 F600 X30.940 Y18.997
G01 F600 X31.224 Y18.937
G01 F600 X31.515 Y18.937
G01 F600 X31.799 Y18.997
G01 F600 X32.065 Y19.115
G01 F600 X32.300 Y19.286
G01 F600 X32.495 Y19.502
G01 F600 X32.639 Y19.753
G01 F600 X32.784 Y19.502
G01 F600 X32.979 Y19.286
G01 F600 X33.214 Y19.115
G01 F600 X33.480 Y18.997
G01 F600 X33.764 Y18.937
G01 F600 X34.055 Y18.937
G01 F600 X34.339 Y18.997
G01 F600 X34.605 Y19.115
G01 F600 X34.840 Y19.286
G01 F600 X35.035 Y19.502
G01 F600 X35.180 Y19.754
G01 F600 X35.270 Y20.031
G01 F600 X35.301 Y20.320
G01 F600 X35.270 Y20.609
G01 F600 X35.180 Y20.886
G01 F600 X35.035 Y21.138
G01 F600 X34.840 Y21.354
G01 F600 X34.791 Y21.390
G01 F600 X34.791 Y22.880
G01 F600 X34.773 Y23.044
G01 F600 X34.716 Y23.219
G01 F600 X34.624 Y23.379
G01 F600 X34.500 Y23.516
G01 F600 X34.351 Y23.625
G01 F600 X34.182 Y23.700
G01 F600 X34.002 Y23.738
G01 F600 X18.577 Y23.738
G00 F3000 Z3.000
G00 F3000 X26.184 Y21.960
G00 F1500 Z0
G01 F600 Z-0.110
G01 F600 X25.977 Y21.916
G01 F600 X25.784 Y21.830
G01 F600 X25.614 Y21.706
G01 F600 X25.472 Y21.549
G01 F600 X25.367 Y21.366
G01 F600 X25.313 Y21.199
G01 F600 X22.585 Y21.209
G01 F600 X22.540 Y21.287
G01 F600 X22.310 Y21.543
G01 F600 X22.032 Y21.745
G01 F600 X21.718 Y21.885
G01 F600 X21.381 Y21.956
G01 F600 X21.038 Y21.956
G01 F600 X20.701 Y21.885
G01 F600 X20.387 Y21.745
G01 F600 X20.109 Y21.543
G01 F600 X19.879 Y21.287
G01 F600 X19.707 Y20.989
G01 F600 X19.600 Y20.662
G01 F600 X19.564 Y20.320
G01 F600 X19.600 Y19.978
G01 F600 X19.707 Y19.651
G01 F600 X19.879 Y19.353
G01 F600 X20.109 Y19.098
G01 F600 X20.387 Y18.895
G01 F600 X20.701 Y18.755
G01 F600 X21.038 Y18.684
G01 F600 X21.381 Y18.684
G01 F600 X21.718 Y18.755
G01 F600 X22.032 Y18.895
G01 F600 X22.310 Y19.098
G01 F600 X22.542 Y19.354
G01 F600 X22.591 Y19.442
G01 F600 X22.869 Y19.442
G01 F600 X22.869 Y11.040
G01 F600 X20.046 Y11.049
G01 F600 X20.000 Y11.127
G01 F600 X19.770 Y11.383
G01 F600 X19.492 Y11.585
G01 F600 X19.178 Y11.725
G01 F600 X18.841 Y11.796
G01 F600 X18.498 Y11.796
G01 F600 X18.161 Y11.725
G01 F600 X17.847 Y11.585
G01 F600 X17.569 Y11.383
G01 F600 X17.339 Y11.127
G01 F600 X17.167 Y10.829
G01 F600 X17.060 Y10.502
G01 F600 X17.024 Y10.160
G01 F600 X17.060 Y9.818
G01 F600 X17.167 Y9.491
G01 F600 X17.339 Y9.193
G01 F600 X17.569 Y8.938
G01 F600 X17.847 Y8.735
G01 F600 X18.161 Y8.595
G01 F600 X18.498 Y8.524
G01 F600 X18.841 Y8.524
G01 F600 X19.178 Y8.595
G01 F600 X19.492 Y8.735
G01 F600 X19.770 Y8.938
G01 F600 X20.002 Y9.194
G01 F600 X20.051 Y9.282
G01 F600 X22.868 Y9.282
G01 F600 X22.863 Y6.188
G01 F600 X22.827 Y6.126
G01 F600 X22.762 Y5.925
G01 F600 X22.742 Y5.735
G01 F600 X22.742 Y4.425
G01 F600 X22.762 Y4.235
G01 F600 X22.827 Y4.034
G01 F600 X22.932 Y3.851
G01 F600 X23.074 Y3.694
G01 F600 X23.244 Y3.570
G01 F600 X23.437 Y3.484
G01 F600 X23.644 Y3.441
G01 F600 X23.855 Y3.441
G01 F600 X24.062 Y3.484
G01 F600 X24.255 Y3.570
G01 F600 X24.425 Y3.694
G01 F600 X24.567 Y3.851
G01 F600 X24.672 Y4.034
G01 F600 X24.738 Y4.235
G01 F600 X24.758 Y4.425
G01 F600 X24.758 Y5.735
G01 F600 X24.738 Y5.925
G01 F600 X24.672 Y6.128
G01 F600 X24.631 Y6.197
G01 F600 X24.631 Y9.282
G01 F600 X35.568 Y9.282
G01 F600 X35.563 Y6.188
G01 F600 X35.527 Y6.126
G01 F600 X35.462 Y5.925
G01 F600 X35.442 Y5.735
G01 F600 X35.442 Y4.425
G01 F600 X35.462 Y4.235
G01 F600 X35.527 Y4.034
G01 F600 X35.632 Y3.851
G01 F600 X35.774 Y3.694
G01 F600 X35.944 Y3.570
G01 F600 X36.137 Y3.484
G01 F600 X36.344 Y3.441
G01 F600 X36.555 Y3.441
G01 F600 X36.762 Y3.484
G01 F600 X36.955 Y3.570
G01 F600 X37.125 Y3.694
G01 F600 X37.267 Y3.851
G01 F600 X37.372 Y4.034
G01 F600 X37.438 Y4.235
G01 F600 X37.458 Y4.425
G01 F600 X37.458 Y5.735
G01 F600 X37.438 Y5.925
G01 F600 X37.372 Y6.128
G01 F600 X37.331 Y6.197
G01 F600 X37.331 Y10.180
G01 F600 X37.313 Y10.344
G01 F600 X37.256 Y10.519
G01 F600 X37.164 Y10.679
G01 F600 X37.040 Y10.816
G01 F600 X36.891 Y10.925
G01 F600 X36.722 Y11.000
G01 F600 X36.542 Y11.038
G01 F600 X24.631 Y11.038
G01 F600 X24.631 Y19.442
G01 F600 X25.312 Y19.442
G01 F600 X25.367 Y19.274
G01 F600 X25.472 Y19.091
G01 F600 X25.614 Y18.934
G01 F600 X25.784 Y18.810
G01 F600 X25.977 Y18.724
G01 F600 X26.184 Y18.681
G01 F600 X26.395 Y18.681
G01 F600 X26.602 Y18.724
G01 F600 X26.795 Y18.810
G01 F600 X26.965 Y18.934
G01 F600 X27.107 Y19.091
G01 F600 X27.212 Y19.274
G01 F600 X27.277 Y19.475
G01 F600 X27.298 Y19.665
G01 F600 X27.298 Y20.975
G01 F600 X27.277 Y21.165
G01 F600 X27.212 Y21.366
G01 F600 X27.107 Y21.549
G01 F600 X26.965 Y21.706
G01 F600 X26.795 Y21.830
G01 F600 X26.602 Y21.916
G01 F600 X26.395 Y21.960
G01 F600 X26.184 Y21.960
G00 F3000 Z3.000
G00 F3000 X41.384 Y21.703
G00 F1500 Z0
G01 F600 Z-0.110
G01 F600 X41.100 Y21.643
G01 F600 X40.834 Y21.525
G01 F600 X40.599 Y21.354
G01 F600 X40.404 Y21.138
G01 F600 X40.259 Y20.886
G01 F600 X40.169 Y20.609
G01 F600 X40.138 Y20.320
G01 F600 X40.169 Y20.031
G01 F600 X40.259 Y19.754
G01 F600 X40.404 Y19.502
G01 F600 X40.599 Y19.286
G01 F600 X40.834 Y19.115
G01 F600 X41.100 Y18.997
G01 F600 X41.384 Y18.937
G01 F600 X41.675 Y18.937
G01 F600 X41.959 Y18.997
G01 F600 X42.225 Y19.115
G01 F600 X42.460 Y19.286
G01 F600 X42.598 Y19.440
G01 F600 X45.501 Y19.434
G01 F600 X45.564 Y19.397
G01 F600 X45.765 Y19.332
G01 F600 X45.955 Y19.312
G01 F600 X47.264 Y19.312
G01 F600 X47.455 Y19.332
G01 F600 X47.655 Y19.397
G01 F600 X47.838 Y19.503
G01 F600 X47.995 Y19.644
G01 F600 X48.119 Y19.815
G01 F600 X48.205 Y20.008
G01 F600 X48.249 Y20.214
G01 F600 X48.249 Y20.426
G01 F600 X48.205 Y20.632
G01 F600 X48.119 Y20.825
G01 F600 X47.995 Y20.996
G01 F600 X47.838 Y21.137
G01 F600 X47.655 Y21.243
G01 F600 X47.455 Y21.308
G01 F600 X47.264 Y21.328
G01 F600 X45.955 Y21.328
G01 F600 X45.765 Y21.308
G01 F600 X45.560 Y21.242
G01 F600 X45.488 Y21.198
G01 F600 X42.600 Y21.198
G01 F600 X42.460 Y21.354
G01 F600 X42.225 Y21.525
G01 F600 X41.959 Y21.643
G01 F600 X41.675 Y21.703
G01 F600 X41.384 Y21.703
G00 F3000 Z3.000
G00 F3000 X5.845 Y20.756
G00 F1500 Z0
G01 F600 Z-0.110
G01 F600 X3.754 Y20.753
G01 F600 X3.576 Y20.651
G01 F600 X3.467 Y20.501
G01 F600 X3.431 Y20.333
G01 F600 X3.437 Y20.295
G01 F600 X3.431 Y20.268
G01 F600 X3.437 Y20.231
G01 F600 X3.431 Y20.205
G01 F600 X3.437 Y20.168
G01 F600 X3.429 Y20.130
G01 F600 X3.467 Y19.949
G01 F600 X3.576 Y19.800
G01 F600 X3.736 Y19.707
G01 F600 X3.861 Y19.694
G01 F600 X4.195 Y19.694
G01 F600 X4.200 Y19.660
G01 F600 X4.194 Y19.635
G01 F600 X4.200 Y19.597
G01 F600 X4.194 Y19.571
G01 F600 X4.200 Y19.533
G01 F600 X4.194 Y19.506
G01 F600 X4.200 Y19.469
G01 F600 X4.194 Y19.444
G01 F600 X4.200 Y19.405
G01 F600 X4.194 Y19.379
G01 F600 X4.200 Y19.342
G01 F600 X4.192 Y19.304
G01 F600 X4.230 Y19.123
G01 F600 X4.245 Y19.102
G01 F600 X4.135 Y19.102
G01 F600 X3.958 Y19.000
G01 F600 X3.924 Y18.953
G01 F600 X3.894 Y18.936
G01 F600 X3.861 Y18.891
G01 F600 X3.830 Y18.873
G01 F600 X3.796 Y18.827
G01 F600 X3.767 Y18.810
G01 F600 X3.732 Y18.762
G01 F600 X3.704 Y18.746
G01 F600 X3.671 Y18.701
G01 F600 X3.640 Y18.683
G01 F600 X3.606 Y18.636
G01 F600 X3.576 Y18.619
G01 F600 X3.467 Y18.469
G01 F600 X3.431 Y18.301
G01 F600 X3.437 Y18.263
G01 F600 X3.431 Y18.236
G01 F600 X3.437 Y18.199
G01 F600 X3.431 Y18.173
G01 F600 X3.437 Y18.136
G01 F600 X3.431 Y18.111
G01 F600 X3.437 Y18.073
G01 F600 X3.431 Y18.046
G01 F600 X3.437 Y18.009
G01 F600 X3.431 Y17.984
G01 F600 X3.437 Y17.946
G01 F600 X3.431 Y17.920
G01 F600 X3.437 Y17.882
G01 F600 X3.431 Y17.855
G01 F600 X3.437 Y17.818
G01 F600 X3.429 Y17.780
G01 F600 X3.467 Y17.599
G01 F600 X3.593 Y17.425
G01 F600 X3.618 Y17.416
G01 F600 X3.660 Y17.358
G01 F600 X3.685 Y17.349
G01 F600 X3.723 Y17.296
G01 F600 X3.747 Y17.287
G01 F600 X3.766 Y17.261
G01 F600 X3.753 Y17.261
G01 F600 X3.576 Y17.159
G01 F600 X3.467 Y17.009
G01 F600 X3.431 Y16.841
G01 F600 X3.437 Y16.803
G01 F600 X3.431 Y16.776
G01 F600 X3.437 Y16.739
G01 F600 X3.431 Y16.714
G01 F600 X3.437 Y16.676
G01 F600 X3.429 Y16.637
G01 F600 X3.467 Y16.456
G01 F600 X3.543 Y16.352
G01 F600 X3.467 Y16.247
G01 F600 X3.431 Y16.079
G01 F600 X3.437 Y16.041
G01 F600 X3.431 Y16.015
G01 F600 X3.437 Y15.977
G01 F600 X3.431 Y15.950
G01 F600 X3.437 Y15.913
G01 F600 X3.431 Y15.887
G01 F600 X3.437 Y15.850
G01 F600 X3.429 Y15.812
G01 F600 X3.467 Y15.631
G01 F600 X3.576 Y15.482
G01 F600 X3.736 Y15.389
G01 F600 X3.774 Y15.385
G01 F600 X3.767 Y15.381
G01 F600 X3.732 Y15.333
G01 F600 X3.704 Y15.317
G01 F600 X3.670 Y15.270
G01 F600 X3.640 Y15.253
G01 F600 X3.607 Y15.208
G01 F600 X3.576 Y15.190
G01 F600 X3.467 Y15.040
G01 F600 X3.431 Y14.871
G01 F600 X3.437 Y14.834
G01 F600 X3.431 Y14.809
G01 F600 X3.437 Y14.771
G01 F600 X3.431 Y14.745
G01 F600 X3.437 Y14.707
G01 F600 X3.431 Y14.680
G01 F600 X3.437 Y14.643
G01 F600 X3.431 Y14.618
G01 F600 X3.437 Y14.580
G01 F600 X3.431 Y14.553
G01 F600 X3.437 Y14.516
G01 F600 X3.431 Y14.490
G01 F600 X3.437 Y14.453
G01 F600 X3.431 Y14.428
G01 F600 X3.437 Y14.390
G01 F600 X3.431 Y14.364
G01 F600 X3.437 Y14.326
G01 F600 X3.429 Y14.287
G01 F600 X3.467 Y14.106
G01 F600 X3.566 Y13.970
G01 F600 X3.467 Y13.833
G01 F600 X3.431 Y13.664
G01 F600 X3.437 Y13.627
G01 F600 X3.431 Y13.602
G01 F600 X3.437 Y13.564
G01 F600 X3.431 Y13.537
G01 F600 X3.437 Y13.500
G01 F600 X3.429 Y13.462
G01 F600 X3.467 Y13.281
G01 F600 X3.576 Y13.132
G01 F600 X3.736 Y13.039
G01 F600 X3.861 Y13.026
G01 F600 X4.576 Y13.026
G01 F600 X4.581 Y12.993
G01 F600 X4.573 Y12.954
G01 F600 X4.611 Y12.773
G01 F600 X4.720 Y12.623
G01 F600 X4.880 Y12.531
G01 F600 X5.005 Y12.518
G01 F600 X5.273 Y12.518
G01 F600 X5.430 Y12.569
G01 F600 X5.567 Y12.693
G01 F600 X5.573 Y12.704
G01 F600 X5.631 Y12.757
G01 F600 X5.706 Y12.926
G01 F600 X5.706 Y13.003
G01 F600 X5.830 Y13.282
G01 F600 X5.706 Y13.289
G01 F600 X5.706 Y13.301
G01 F600 X5.676 Y13.367
G01 F600 X5.706 Y13.433
G01 F600 X5.706 Y13.745
G01 F600 X5.631 Y13.914
G01 F600 X5.537 Y13.998
G01 F600 X5.564 Y14.022
G01 F600 X5.570 Y14.035
G01 F600 X5.630 Y14.090
G01 F600 X5.706 Y14.259
G01 F600 X5.706 Y14.889
G01 F600 X5.630 Y15.058
G01 F600 X5.572 Y15.110
G01 F600 X5.570 Y15.115
G01 F600 X5.631 Y15.170
G01 F600 X5.706 Y15.339
G01 F600 X5.706 Y15.650
G01 F600 X5.631 Y15.819
G01 F600 X5.568 Y15.875
G01 F600 X5.631 Y15.931
G01 F600 X5.706 Y16.099
G01 F600 X5.706 Y16.540
G01 F600 X5.631 Y16.709
G01 F600 X5.604 Y16.733
G01 F600 X5.631 Y16.756
G01 F600 X5.706 Y16.925
G01 F600 X5.706 Y17.302
G01 F600 X5.631 Y17.471
G01 F600 X5.604 Y17.495
G01 F600 X5.630 Y17.518
G01 F600 X5.706 Y17.688
G01 F600 X5.706 Y18.381
G01 F600 X5.650 Y18.506
G01 F600 X5.748 Y18.538
G01 F600 X5.880 Y18.657
G01 F600 X5.885 Y18.668
G01 F600 X5.945 Y18.721
G01 F600 X5.951 Y18.734
G01 F600 X6.011 Y18.789
G01 F600 X6.063 Y18.904
G01 F600 X6.075 Y18.916
G01 F600 X6.127 Y19.031
G01 F600 X6.139 Y19.043
G01 F600 X6.215 Y19.212
G01 F600 X6.215 Y20.413
G01 F600 X6.139 Y20.582
G01 F600 X6.002 Y20.705
G01 F600 X5.845 Y20.756
G00 F3000 Z3.000
G00 F3000 X15.475 Y18.788
G00 F1500 Z0
G01 F600 Z-0.110
G01 F600 X15.285 Y18.768
G01 F600 X15.084 Y18.703
G01 F600 X14.901 Y18.597
G01 F600 X14.744 Y18.456
G01 F600 X14.620 Y18.285
G01 F600 X14.534 Y18.092
G01 F600 X14.490 Y17.886
G01 F600 X14.490 Y17.674
G01 F600 X14.534 Y17.468
G01 F600 X14.620 Y17.275
G01 F600 X14.744 Y17.104
G01 F600 X14.901 Y16.963
G01 F600 X15.084 Y16.857
G01 F600 X15.248 Y16.804
G01 F600 X15.248 Y13.770
G01 F600 X15.199 Y13.734
G01 F600 X15.004 Y13.518
G01 F600 X14.859 Y13.266
G01 F600 X14.769 Y12.989
G01 F600 X14.738 Y12.700
G01 F600 X14.769 Y12.411
G01 F600 X14.859 Y12.134
G01 F600 X15.004 Y11.882
G01 F600 X15.199 Y11.666
G01 F600 X15.248 Y11.630
G01 F600 X15.243 Y6.188
G01 F600 X15.207 Y6.126
G01 F600 X15.142 Y5.925
G01 F600 X15.122 Y5.735
G01 F600 X15.122 Y4.425
G01 F600 X15.142 Y4.235
G01 F600 X15.207 Y4.034
G01 F600 X15.312 Y3.851
G01 F600 X15.454 Y3.694
G01 F600 X15.624 Y3.570
G01 F600 X15.817 Y3.484
G01 F600 X16.024 Y3.441
G01 F600 X16.235 Y3.441
G01 F600 X16.442 Y3.484
G01 F600 X16.635 Y3.570
G01 F600 X16.805 Y3.694
G01 F600 X16.947 Y3.851
G01 F600 X17.052 Y4.034
G01 F600 X17.117 Y4.235
G01 F600 X17.137 Y4.425
G01 F600 X17.137 Y5.735
G01 F600 X17.117 Y5.925
G01 F600 X17.052 Y6.128
G01 F600 X17.011 Y6.197
G01 F600 X17.011 Y11.630
G01 F600 X17.060 Y11.666
G01 F600 X17.255 Y11.882
G01 F600 X17.400 Y12.134
G01 F600 X17.490 Y12.411
G01 F600 X17.521 Y12.700
G01 F600 X17.490 Y12.989
G01 F600 X17.400 Y13.266
G01 F600 X17.255 Y13.518
G01 F600 X17.060 Y13.734
G01 F600 X17.011 Y13.770
G01 F600 X17.011 Y16.804
G01 F600 X17.175 Y16.857
G01 F600 X17.358 Y16.963
G01 F600 X17.515 Y17.104
G01 F600 X17.639 Y17.275
G01 F600 X17.725 Y17.468
G01 F600 X17.769 Y17.674
G01 F600 X17.769 Y17.886
G01 F600 X17.725 Y18.092
G01 F600 X17.639 Y18.285
G01 F600 X17.515 Y18.456
G01 F600 X17.358 Y18.597
G01 F600 X17.175 Y18.703
G01 F600 X16.975 Y18.768
G01 F600 X16.784 Y18.788
G01 F600 X15.475 Y18.788
G00 F3000 Z3.000
G00 F3000 X26.118 Y16.876
G00 F1500 Z0
G01 F600 Z-0.110
G01 F600 X25.781 Y16.805
G01 F600 X25.467 Y16.665
G01 F600 X25.189 Y16.463
G01 F600 X24.959 Y16.207
G01 F600 X24.787 Y15.909
G01 F600 X24.680 Y15.582
G01 F600 X24.644 Y15.240
G01 F600 X24.680 Y14.898
G01 F600 X24.787 Y14.571
G01 F600 X24.959 Y14.273
G01 F600 X25.189 Y14.018
G01 F600 X25.467 Y13.815
G01 F600 X25.781 Y13.675
G01 F600 X26.118 Y13.604
G01 F600 X26.461 Y13.604
G01 F600 X26.798 Y13.675
G01 F600 X27.112 Y13.815
G01 F600 X27.390 Y14.018
G01 F600 X27.622 Y14.274
G01 F600 X27.671 Y14.362
G01 F600 X27.949 Y14.362
G01 F600 X27.949 Y12.681
G01 F600 X27.966 Y12.516
G01 F600 X28.023 Y12.341
G01 F600 X28.115 Y12.181
G01 F600 X28.239 Y12.044
G01 F600 X28.388 Y11.935
G01 F600 X28.557 Y11.860
G01 F600 X28.737 Y11.822
G01 F600 X32.534 Y11.811
G01 F600 X32.579 Y11.733
G01 F600 X32.809 Y11.478
G01 F600 X33.087 Y11.275
G01 F600 X33.401 Y11.135
G01 F600 X33.738 Y11.064
G01 F600 X34.081 Y11.064
G01 F600 X34.418 Y11.135
G01 F600 X34.732 Y11.275
G01 F600 X35.010 Y11.478
G01 F600 X35.242 Y11.734
G01 F600 X35.291 Y11.822
G01 F600 X38.108 Y11.822
G01 F600 X38.108 Y11.542
G01 F600 X37.889 Y11.383
G01 F600 X37.659 Y11.127
G01 F600 X37.487 Y10.829
G01 F600 X37.380 Y10.502
G01 F600 X37.344 Y10.160
G01 F600 X37.380 Y9.818
G01 F600 X37.487 Y9.491
G01 F600 X37.659 Y9.193
G01 F600 X37.889 Y8.938
G01 F600 X38.108 Y8.778
G01 F600 X38.103 Y6.189
G01 F600 X38.067 Y6.126
G01 F600 X38.002 Y5.925
G01 F600 X37.982 Y5.735
G01 F600 X37.982 Y4.425
G01 F600 X38.002 Y4.235
G01 F600 X38.067 Y4.034
G01 F600 X38.172 Y3.851
G01 F600 X38.314 Y3.694
G01 F600 X38.484 Y3.570
G01 F600 X38.677 Y3.484
G01 F600 X38.884 Y3.441
G01 F600 X39.095 Y3.441
G01 F600 X39.302 Y3.484
G01 F600 X39.495 Y3.570
G01 F600 X39.665 Y3.694
G01 F600 X39.807 Y3.851
G01 F600 X39.912 Y4.034
G01 F600 X39.977 Y4.235
G01 F600 X39.998 Y4.425
G01 F600 X39.998 Y5.735
