( PCB drills )
( Generated by Rapid-PCB.com )
( Material Size)
( X= 127.000, Y= 101.600, Z= 1.550)
()
G00
G17
G21
G40
G49
G54
G80
G90
G94
G00 F3000 Z3.000
M03 S9000
G00 F3000 X5.970 Y35.560
G00 F1500 Z0
G01 F60 Z-1.800
G00 F3000 Z3.000
G00 F3000 X46.610 Y5.080
G00 F1500 Z0
G01 F60 Z-1.800
G00 F3000 Z3.000
G00 F3000 X5.970 Y5.080
G00 F1500 Z0
G01 F60 Z-1.800
G00 F3000 Z3.000
G00 F3000 X46.610 Y15.240
G00 F1500 Z0
G01 F60 Z-1.800
G00 F3000 Z3.000
G00 F3000 X46.610 Y12.700
G00 F1500 Z0
G01 F60 Z-1.800
G00 F3000 Z3.000
G00 F3000 X46.610 Y10.160
G00 F1500 Z0
G01 F60 Z-1.800
G00 F3000 Z3.000
G00 F3000 X38.990 Y35.560
G00 F1500 Z0
G01 F60 Z-1.800
G00 F3000 Z3.000
G00 F3000 X41.529 Y35.560
G00 F1500 Z0
G01 F60 Z-1.800
G00 F3000 Z3.000
G00 F3000 X26.290 Y20.320
G00 F1500 Z0
G01 F60 Z-1.800
G00 F3000 Z3.000
G00 F3000 X28.830 Y20.320
G00 F1500 Z0
G01 F60 Z-1.800
G00 F3000 Z3.000
G00 F3000 X28.830 Y35.560
G00 F1500 Z0
G01 F60 Z-1.800
G00 F3000 Z3.000
G00 F3000 X31.370 Y35.560
G00 F1500 Z0
G01 F60 Z-1.800
G00 F3000 Z3.000
G00 F3000 X33.910 Y35.560
G00 F1500 Z0
G01 F60 Z-1.800
G00 F3000 Z3.000
G00 F3000 X46.610 Y27.940
G00 F1500 Z0
G01 F60 Z-1.800
G00 F3000 Z3.000
G00 F3000 X46.610 Y25.400
G00 F1500 Z0
G01 F60 Z-1.800
G00 F3000 Z3.000
G00 F3000 X46.610 Y22.860
G00 F1500 Z0
G01 F60 Z-1.800
G00 F3000 Z3.000
G00 F3000 X46.610 Y20.320
G00 F1500 Z0
G01 F60 Z-1.800
G00 F3000 Z3.000
G00 F3000 X36.450 Y33.020
G00 F1500 Z0
G01 F60 Z-1.800
G00 F3000 Z3.000
G00 F3000 X36.450 Y27.940
G00 F1500 Z0
G01 F60 Z-1.800
G00 F3000 Z3.000
G00 F3000 X26.290 Y35.560
G00 F1500 Z0
G01 F60 Z-1.800
G00 F3000 Z3.000
G00 F3000 X26.290 Y25.400
G00 F1500 Z0
G01 F60 Z-1.800
G00 F3000 Z3.000
G00 F3000 X41.529 Y20.320
G00 F1500 Z0
G01 F60 Z-1.800
G00 F3000 Z3.000
G00 F3000 X33.910 Y20.320
G00 F1500 Z0
G01 F60 Z-1.800
G00 F3000 Z3.000
G00 F3000 X31.370 Y20.320
G00 F1500 Z0
G01 F60 Z-1.800
G00 F3000 Z3.000
G00 F3000 X31.370 Y27.940
G00 F1500 Z0
G01 F60 Z-1.800
G00 F3000 Z3.000
G00 F3000 X16.130 Y12.700
G00 F1500 Z0
G01 F60 Z-1.800
G00 F3000 Z3.000
G00 F3000 X8.510 Y12.700
G00 F1500 Z0
G01 F60 Z-1.800
G00 F3000 Z3.000
G00 F3000 X26.290 Y15.240
G00 F1500 Z0
G01 F60 Z-1.800
G00 F3000 Z3.000
G00 F3000 X13.590 Y15.240
G00 F1500 Z0
G01 F60 Z-1.800
G00 F3000 Z3.000
G00 F3000 X41.529 Y5.080
G00 F1500 Z0
G01 F60 Z-1.800
G00 F3000 Z3.000
G00 F3000 X38.990 Y5.080
G00 F1500 Z0
G01 F60 Z-1.800
G00 F3000 Z3.000
G00 F3000 X36.450 Y5.080
G00 F1500 Z0
G01 F60 Z-1.800
G00 F3000 Z3.000
G00 F3000 X28.830 Y5.080
G00 F1500 Z0
G01 F60 Z-1.800
G00 F3000 Z3.000
G00 F3000 X26.290 Y5.080
G00 F1500 Z0
G01 F60 Z-1.800
G00 F3000 Z3.000
G00 F3000 X23.750 Y5.080
G00 F1500 Z0
G01 F60 Z-1.800
G00 F3000 Z3.000
G00 F3000 X16.130 Y5.080
G00 F1500 Z0
G01 F60 Z-1.800
G00 F3000 Z3.000
G00 F3000 X13.590 Y5.080
G00 F1500 Z0
G01 F60 Z-1.800
G00 F3000 Z3.000
G00 F3000 X11.050 Y5.080
G00 F1500 Z0
G01 F60 Z-1.800
G00 F3000 Z3.000
G00 F3000 X44.070 Y10.160
G00 F1500 Z0
G01 F60 Z-1.800
G00 F3000 Z3.000
G00 F3000 X38.990 Y10.160
G00 F1500 Z0
G01 F60 Z-1.800
G00 F3000 Z3.000
G00 F3000 X11.050 Y10.160
G00 F1500 Z0
G01 F60 Z-1.800
G00 F3000 Z3.000
G00 F3000 X18.669 Y10.160
G00 F1500 Z0
G01 F60 Z-1.800
G00 F3000 Z3.000
G00 F3000 X18.669 Y35.560
G00 F1500 Z0
G01 F60 Z-1.800
G00 F3000 Z3.000
G00 F3000 X21.210 Y35.560
G00 F1500 Z0
G01 F60 Z-1.800
G00 F3000 Z3.000
G00 F3000 X18.669 Y27.940
G00 F1500 Z0
G01 F60 Z-1.800
G00 F3000 Z3.000
G00 F3000 X18.669 Y33.020
G00 F1500 Z0
G01 F60 Z-1.800
G00 F3000 Z3.000
G00 F3000 X21.210 Y33.020
G00 F1500 Z0
G01 F60 Z-1.800
G00 F3000 Z3.000
G00 F3000 X21.210 Y20.320
G00 F1500 Z0
G01 F60 Z-1.800
G00 F3000 Z3.000
G00 F3000 X31.370 Y5.080
G00 F1500 Z0
G01 F60 Z-1.800
G00 F3000 Z3.000
G00 F3000 X31.370 Y15.240
G00 F1500 Z0
G01 F60 Z-1.800
G00 F3000 Z3.000
G00 F3000 X33.910 Y12.700
G00 F1500 Z0
G01 F60 Z-1.800
G00 F3000 Z3.000
G00 F3000 X33.910 Y7.620
G00 F1500 Z0
G01 F60 Z-1.800
G00 F3000 Z3.000
G00 F3000 X8.510 Y33.020
G00 F1500 Z0
G01 F60 Z-1.800
G00 F3000 Z3.000
G00 F3000 X13.590 Y33.020
G00 F1500 Z0
G01 F60 Z-1.800
G00 F3000 Z3.000
G00 F3000 X16.130 Y22.860
G00 F1500 Z0
G01 F60 Z-1.800
G00 F3000 Z3.000
G00 F3000 X16.130 Y20.320
G00 F1500 Z0
G01 F60 Z-1.800
G00 F3000 Z3.000
G00 F3000 X16.130 Y17.780
G00 F1500 Z0
G01 F60 Z-1.800
G00 F3000 Z3.000
G00 F3000 X46.610 Y35.560
G00 F1500 Z0
G01 F60 Z-1.800
G00 F3000 Z3.000
G00 F3000 Z3.000
G00 F3000 X0.000 Y0.000
M05
M30
%